%
(25-A)
(T2  D=6 CR=0 - ZMIN=0.2 - flat end mill)
N1 G90
N2 G21

(2D Contour9)
N3 T2
N4 S20000 M3
N5 G0 X11.258 Y10.761
N6 Z33
N7 Z23
N8 G1 Z20.5 F1000
N9 X0 Z18.107 F2500
N10 X-0.208 Y10.768 Z18.063
N11 X-0.415 Y10.791 Z18.018
N12 X-0.62 Y10.828 Z17.974
N13 X-0.822 Y10.88 Z17.93
N14 X-1.019 Y10.946 Z17.886
N15 X-1.212 Y11.026 Z17.841
N16 X-1.398 Y11.12 Z17.797
N17 X-1.576 Y11.227 Z17.753
N18 X-1.747 Y11.346 Z17.708
N19 X-1.909 Y11.477 Z17.664
N20 X-2.06 Y11.62 Z17.62
N21 X-2.202 Y11.773 Z17.576
N22 X-2.331 Y11.936 Z17.531
N23 X-2.449 Y12.108 Z17.487
N24 X-2.554 Y12.288 Z17.443
N25 X-2.646 Y12.474 Z17.399
N26 X-2.725 Y12.667 Z17.354
N27 X-2.789 Y12.866 Z17.31
N28 X-2.839 Y13.068 Z17.266
N29 X-2.874 Y13.273 Z17.221
N30 X-2.894 Y13.48 Z17.177
N31 X-2.9 Y13.688 Z17.133
N32 X-2.89 Y13.897 Z17.089
N33 X-2.866 Y14.103 Z17.044
N34 X-2.827 Y14.308 Z17
N35 X-2.779 Y14.489 F2760
N36 X-2.72 Y14.668
N37 X-2.649 Y14.841
N38 X-2.567 Y15.01
N39 X-2.474 Y15.174
N40 X22.472 Y55.971
N41 X12.467
N42 X12.256 Y55.979
N43 X12.045 Y56.002
N44 X11.837 Y56.04
N45 X11.632 Y56.094
N46 X11.431 Y56.163
N47 X11.236 Y56.245
N48 X11.048 Y56.342
N49 X10.867 Y56.453
N50 X10.694 Y56.576
N51 X10.532 Y56.712
N52 X10.379 Y56.859
N53 X10.238 Y57.017
N54 X10.108 Y57.185
N55 X9.991 Y57.361
N56 X9.888 Y57.546
N57 X9.798 Y57.738
N58 X9.722 Y57.936
N59 X9.661 Y58.139
N60 X9.615 Y58.346
N61 X9.585 Y58.556
N62 X9.569 Y58.767
N63 X9.57 Y58.979
N64 X9.585 Y59.19
N65 X9.616 Y59.4
N66 X9.662 Y59.607
N67 X9.724 Y59.809
N68 X9.799 Y60.007
N69 X9.89 Y60.199
N70 X9.993 Y60.384
N71 X34.498 Y100.458
N72 X24.003
N73 X23.792 Y100.466
N74 X23.581 Y100.489
N75 X23.373 Y100.527
N76 X23.167 Y100.581
N77 X22.967 Y100.65
N78 X22.772 Y100.732
N79 X22.583 Y100.829
N80 X22.403 Y100.94
N81 X22.23 Y101.063
N82 X22.067 Y101.199
N83 X21.915 Y101.346
N84 X21.774 Y101.504
N85 X21.644 Y101.672
N86 X21.527 Y101.848
N87 X21.424 Y102.033
N88 X21.334 Y102.225
N89 X21.258 Y102.423
N90 X21.197 Y102.626
N91 X21.151 Y102.833
N92 X21.121 Y103.043
N93 X21.105 Y103.254
N94 Y103.466
N95 X21.121 Y103.677
N96 X21.152 Y103.887
N97 X21.198 Y104.094
N98 X21.259 Y104.296
N99 X21.335 Y104.494
N100 X21.425 Y104.686
N101 X21.529 Y104.871
N102 X46.953 Y146.45
N103 X37.479
N104 X37.267 Y146.458
N105 X37.056 Y146.481
N106 X36.847 Y146.52
N107 X36.642 Y146.573
N108 X36.441 Y146.642
N109 X36.245 Y146.725
N110 X36.057 Y146.823
N111 X35.876 Y146.933
N112 X35.703 Y147.057
N113 X35.54 Y147.193
N114 X35.388 Y147.341
N115 X35.246 Y147.499
N116 X35.117 Y147.667
N117 X35 Y147.844
N118 X34.897 Y148.03
N119 X34.807 Y148.222
N120 X34.732 Y148.421
N121 X34.671 Y148.624
N122 X34.625 Y148.831
N123 X34.595 Y149.041
N124 X34.58 Y149.253
N125 X34.581 Y149.465
N126 X34.597 Y149.677
N127 X34.629 Y149.887
N128 X34.676 Y150.094
N129 X34.738 Y150.297
N130 X34.814 Y150.495
N131 X34.905 Y150.687
N132 X56.138 Y191.564
N133 X49.489
N134 X49.277 Y191.572
N135 X49.065 Y191.595
N136 X48.856 Y191.634
N137 X48.65 Y191.688
N138 X48.449 Y191.757
N139 X48.253 Y191.841
N140 X48.064 Y191.938
N141 X47.883 Y192.05
N142 X47.71 Y192.174
N143 X47.547 Y192.311
N144 X47.394 Y192.459
N145 X47.253 Y192.618
N146 X47.123 Y192.787
N147 X47.007 Y192.965
N148 X46.903 Y193.151
N149 X46.814 Y193.344
N150 X46.739 Y193.544
N151 X46.679 Y193.748
N152 X46.634 Y193.956
N153 X46.605 Y194.166
N154 X46.591 Y194.379
N155 X46.592 Y194.592
N156 X46.609 Y194.804
N157 X46.642 Y195.014
N158 X46.69 Y195.221
N159 X46.753 Y195.425
N160 X46.831 Y195.623
N161 X46.923 Y195.814
N162 X47.029 Y195.999
N163 X73.564 Y238.531
N164 X73.681 Y238.705
N165 X73.811 Y238.87
N166 X73.952 Y239.025
N167 X74.104 Y239.169
N168 X74.267 Y239.303
N169 X74.438 Y239.424
N170 X74.618 Y239.532
N171 X74.805 Y239.627
N172 X74.998 Y239.708
N173 X75.197 Y239.775
N174 X75.4 Y239.828
N175 X75.606 Y239.866
N176 X75.815 Y239.888
N177 X76.024 Y239.896
N178 X76.234 Y239.888
N179 X76.443 Y239.866
N180 X76.649 Y239.828
N181 X76.852 Y239.775
N182 X77.051 Y239.708
N183 X77.244 Y239.627
N184 X77.431 Y239.532
N185 X77.611 Y239.424
N186 X77.782 Y239.303
N187 X77.944 Y239.169
N188 X78.096 Y239.025
N189 X78.238 Y238.87
N190 X78.367 Y238.705
N191 X78.485 Y238.531
N192 X105.02 Y195.999
N193 X105.126 Y195.814
N194 X105.218 Y195.623
N195 X105.296 Y195.425
N196 X105.359 Y195.221
N197 X105.407 Y195.014
N198 X105.44 Y194.804
N199 X105.457 Y194.592
N200 X105.459 Y194.379
N201 X105.445 Y194.166
N202 X105.415 Y193.956
N203 X105.37 Y193.748
N204 X105.31 Y193.544
N205 X105.235 Y193.344
N206 X105.146 Y193.151
N207 X105.043 Y192.965
N208 X104.926 Y192.787
N209 X104.797 Y192.618
N210 X104.655 Y192.459
N211 X104.503 Y192.311
N212 X104.339 Y192.174
N213 X104.167 Y192.05
N214 X103.985 Y191.938
N215 X103.796 Y191.841
N216 X103.601 Y191.757
N217 X103.399 Y191.688
N218 X103.193 Y191.634
N219 X102.984 Y191.595
N220 X102.773 Y191.572
N221 X102.56 Y191.564
N222 X95.911
N223 X117.144 Y150.687
N224 X117.234 Y150.495
N225 X117.311 Y150.297
N226 X117.373 Y150.094
N227 X117.42 Y149.887
N228 X117.451 Y149.677
N229 X117.468 Y149.465
N230 Y149.253
N231 X117.454 Y149.041
N232 X117.423 Y148.831
N233 X117.378 Y148.624
N234 X117.317 Y148.421
N235 X117.242 Y148.222
N236 X117.152 Y148.03
N237 X117.049 Y147.844
N238 X116.932 Y147.667
N239 X116.802 Y147.499
N240 X116.661 Y147.341
N241 X116.508 Y147.193
N242 X116.345 Y147.057
N243 X116.173 Y146.933
N244 X115.992 Y146.823
N245 X115.803 Y146.725
N246 X115.608 Y146.642
N247 X115.407 Y146.573
N248 X115.202 Y146.52
N249 X114.993 Y146.481
N250 X114.782 Y146.458
N251 X114.57 Y146.45
N252 X105.095
N253 X130.52 Y104.871
N254 X130.624 Y104.686
N255 X130.714 Y104.494
N256 X130.79 Y104.296
N257 X130.851 Y104.094
N258 X130.897 Y103.887
N259 X130.928 Y103.677
N260 X130.944 Y103.466
N261 Y103.254
N262 X130.929 Y103.043
N263 X130.898 Y102.833
N264 X130.852 Y102.626
N265 X130.791 Y102.423
N266 X130.716 Y102.225
N267 X130.626 Y102.033
N268 X130.522 Y101.848
N269 X130.405 Y101.672
N270 X130.276 Y101.504
N271 X130.134 Y101.346
N272 X129.982 Y101.199
N273 X129.819 Y101.063
N274 X129.647 Y100.94
N275 X129.466 Y100.829
N276 X129.277 Y100.732
N277 X129.082 Y100.65
N278 X128.882 Y100.581
N279 X128.677 Y100.527
N280 X128.468 Y100.489
N281 X128.258 Y100.466
N282 X128.046 Y100.458
N283 X117.551
N284 X142.055 Y60.384
N285 X142.159 Y60.199
N286 X142.249 Y60.007
N287 X142.325 Y59.809
N288 X142.386 Y59.607
N289 X142.432 Y59.4
N290 X142.463 Y59.19
N291 X142.479 Y58.979
N292 Y58.767
N293 X142.464 Y58.556
N294 X142.433 Y58.346
N295 X142.387 Y58.139
N296 X142.326 Y57.936
N297 X142.251 Y57.738
N298 X142.161 Y57.546
N299 X142.057 Y57.361
N300 X141.94 Y57.185
N301 X141.811 Y57.017
N302 X141.669 Y56.859
N303 X141.517 Y56.712
N304 X141.354 Y56.576
N305 X141.182 Y56.453
N306 X141.001 Y56.342
N307 X140.812 Y56.245
N308 X140.617 Y56.163
N309 X140.417 Y56.094
N310 X140.212 Y56.04
N311 X140.003 Y56.002
N312 X139.793 Y55.979
N313 X139.581 Y55.971
N314 X129.576
N315 X154.523 Y15.174
N316 X154.627 Y14.989
N317 X154.717 Y14.797
N318 X154.793 Y14.599
N319 X154.854 Y14.396
N320 X154.9 Y14.19
N321 X154.931 Y13.98
N322 X154.947 Y13.769
N323 Y13.557
N324 X154.932 Y13.345
N325 X154.901 Y13.136
N326 X154.855 Y12.929
N327 X154.794 Y12.726
N328 X154.719 Y12.528
N329 X154.629 Y12.336
N330 X154.525 Y12.151
N331 X154.408 Y11.974
N332 X154.279 Y11.807
N333 X154.137 Y11.649
N334 X153.985 Y11.502
N335 X153.822 Y11.366
N336 X153.65 Y11.243
N337 X153.469 Y11.132
N338 X153.28 Y11.035
N339 X153.085 Y10.952
N340 X152.885 Y10.884
N341 X152.68 Y10.83
N342 X152.471 Y10.792
N343 X152.261 Y10.769
N344 X152.049 Y10.761
N345 X111.568
N346 Y0
N347 X111.561 Y-0.207
N348 X111.538 Y-0.413
N349 X111.502 Y-0.616
N350 X111.451 Y-0.817
N351 X111.385 Y-1.013
N352 X111.306 Y-1.205
N353 X111.213 Y-1.39
N354 X111.108 Y-1.568
N355 X110.99 Y-1.738
N356 X110.86 Y-1.899
N357 X110.719 Y-2.051
N358 X110.567 Y-2.192
N359 X110.406 Y-2.322
N360 X110.236 Y-2.44
N361 X110.058 Y-2.545
N362 X109.873 Y-2.638
N363 X109.681 Y-2.717
N364 X109.485 Y-2.783
N365 X109.284 Y-2.834
N366 X109.081 Y-2.87
N367 X108.875 Y-2.893
N368 X108.668 Y-2.9
N369 X86.184
N370 X85.977 Y-2.893
N371 X85.771 Y-2.87
N372 X85.568 Y-2.834
N373 X85.367 Y-2.783
N374 X85.171 Y-2.717
N375 X84.979 Y-2.638
N376 X84.794 Y-2.545
N377 X84.616 Y-2.44
N378 X84.446 Y-2.322
N379 X84.285 Y-2.192
N380 X84.133 Y-2.051
N381 X83.992 Y-1.899
N382 X83.863 Y-1.738
N383 X83.744 Y-1.568
N384 X83.639 Y-1.39
N385 X83.546 Y-1.205
N386 X83.467 Y-1.013
N387 X83.402 Y-0.817
N388 X83.35 Y-0.616
N389 X83.314 Y-0.413
N390 X83.291 Y-0.207
N391 X83.284 Y0
N392 Y13.661
N393 X83.29 Y13.84
N394 X83.306 Y14.019
N395 X83.334 Y14.197
N396 Y118.757
N397 X83.341 Y118.964
N398 X83.364 Y119.17
N399 X83.4 Y119.374
N400 X83.452 Y119.574
N401 X83.517 Y119.771
N402 X83.596 Y119.962
N403 X83.689 Y120.147
N404 X83.795 Y120.325
N405 X83.913 Y120.495
N406 X84.043 Y120.657
N407 X84.184 Y120.808
N408 X84.206 Y120.841
N409 X84.213 Y120.879
N410 X84.206 Y120.917
N411 X84.184 Y120.95
N412 X84.151 Y120.971
N413 X84.113 Y120.979
N414 X84.075 Y120.971
N415 X84.042 Y120.95
N416 X83.891 Y120.809
N417 X83.73 Y120.679
N418 X83.559 Y120.561
N419 X83.381 Y120.455
N420 X83.196 Y120.362
N421 X83.005 Y120.283
N422 X82.809 Y120.218
N423 X82.608 Y120.166
N424 X82.404 Y120.13
N425 X82.198 Y120.107
N426 X81.991 Y120.1
N427 X72.377
N428 X72.17 Y120.107
N429 X71.964 Y120.13
N430 X71.76 Y120.166
N431 X71.56 Y120.218
N432 X71.363 Y120.283
N433 X71.172 Y120.362
N434 X70.987 Y120.455
N435 X70.809 Y120.561
N436 X70.639 Y120.679
N437 X70.477 Y120.809
N438 X70.326 Y120.95
N439 X70.293 Y120.971
N440 X70.255 Y120.979
N441 X70.217 Y120.971
N442 X70.184 Y120.95
N443 X70.163 Y120.917
N444 X70.155 Y120.879
N445 X70.163 Y120.841
N446 X70.184 Y120.808
N447 X70.325 Y120.657
N448 X70.455 Y120.495
N449 X70.573 Y120.325
N450 X70.679 Y120.147
N451 X70.772 Y119.962
N452 X70.851 Y119.771
N453 X70.917 Y119.574
N454 X70.968 Y119.374
N455 X71.005 Y119.17
N456 X71.027 Y118.964
N457 X71.034 Y118.757
N458 Y0
N459 X71.027 Y-0.207
N460 X71.005 Y-0.413
N461 X70.968 Y-0.616
N462 X70.917 Y-0.817
N463 X70.851 Y-1.013
N464 X70.772 Y-1.205
N465 X70.679 Y-1.39
N466 X70.574 Y-1.568
N467 X70.456 Y-1.738
N468 X70.326 Y-1.899
N469 X70.185 Y-2.051
N470 X70.033 Y-2.192
N471 X69.872 Y-2.322
N472 X69.702 Y-2.44
N473 X69.524 Y-2.545
N474 X69.339 Y-2.638
N475 X69.148 Y-2.717
N476 X68.951 Y-2.783
N477 X68.751 Y-2.834
N478 X68.547 Y-2.87
N479 X68.341 Y-2.893
N480 X68.134 Y-2.9
N481 X45.701
N482 X45.494 Y-2.893
N483 X45.288 Y-2.87
N484 X45.084 Y-2.834
N485 X44.884 Y-2.783
N486 X44.687 Y-2.717
N487 X44.496 Y-2.638
N488 X44.311 Y-2.545
N489 X44.133 Y-2.44
N490 X43.963 Y-2.322
N491 X43.802 Y-2.192
N492 X43.65 Y-2.051
N493 X43.509 Y-1.899
N494 X43.379 Y-1.738
N495 X43.261 Y-1.568
N496 X43.155 Y-1.39
N497 X43.063 Y-1.205
N498 X42.983 Y-1.013
N499 X42.918 Y-0.817
N500 X42.867 Y-0.616
N501 X42.83 Y-0.413
N502 X42.808 Y-0.207
N503 X42.801 Y0
N504 Y10.761
N505 X0
N506 X-0.208 Y10.768
N507 X-0.415 Y10.791
N508 X-0.62 Y10.828
N509 X-0.822 Y10.88
N510 X-1.019 Y10.946
N511 X-1.212 Y11.026
N512 X-1.398 Y11.12
N513 X-1.576 Y11.227
N514 X-1.747 Y11.346
N515 X-1.909 Y11.477
N516 X-2.06 Y11.62
N517 X-2.202 Y11.773
N518 X-2.331 Y11.936
N519 X-2.449 Y12.108
N520 X-2.554 Y12.288
N521 X-2.646 Y12.474
N522 X-2.725 Y12.667
N523 X-2.789 Y12.866
N524 X-2.839 Y13.068
N525 X-2.874 Y13.273
N526 X-2.894 Y13.48
N527 X-2.9 Y13.688
N528 X-2.89 Y13.897
N529 X-2.866 Y14.103
N530 X-2.827 Y14.308
N531 X-2.779 Y14.489 Z16.997 F2500
N532 X-2.72 Y14.668 Z16.994
N533 X-2.649 Y14.841 Z16.991
N534 X-2.567 Y15.01 Z16.988
N535 X-2.474 Y15.174 Z16.985
N536 X22.472 Y55.971 Z16.206
N537 X12.467 Z16.044
N538 X12.262 Y55.978 Z16.04
N539 X12.057 Y56 Z16.037
N540 X11.854 Y56.037 Z16.034
N541 X11.655 Y56.087 Z16.03
N542 X11.459 Y56.152 Z16.027
N543 X11.269 Y56.23 Z16.023
N544 X11.084 Y56.322 Z16.02
N545 X10.907 Y56.427 Z16.017
N546 X10.737 Y56.544 Z16.013
N547 X10.577 Y56.672 Z16.01
N548 X10.425 Y56.812 Z16.007
N549 X10.284 Y56.962 Z16.003
N550 X10.154 Y57.122 Z16
N551 X10.037 Y57.289 F2760
N552 X9.932 Y57.463
N553 X9.839 Y57.645
N554 X9.76 Y57.833
N555 X9.693 Y58.026
N556 X9.641 Y58.223
N557 X9.602 Y58.424
N558 X9.578 Y58.626
N559 X9.568 Y58.83
N560 X9.572 Y59.034
N561 X9.591 Y59.237
N562 X9.624 Y59.438
N563 X9.671 Y59.637
N564 X9.731 Y59.832
N565 X9.806 Y60.022
N566 X9.893 Y60.206
N567 X9.993 Y60.384
N568 X34.498 Y100.458
N569 X24.003
N570 X23.792 Y100.466
N571 X23.581 Y100.489
N572 X23.373 Y100.527
N573 X23.167 Y100.581
N574 X22.967 Y100.65
N575 X22.772 Y100.732
N576 X22.583 Y100.829
N577 X22.403 Y100.94
N578 X22.23 Y101.063
N579 X22.067 Y101.199
N580 X21.915 Y101.346
N581 X21.774 Y101.504
N582 X21.644 Y101.672
N583 X21.527 Y101.848
N584 X21.424 Y102.033
N585 X21.334 Y102.225
N586 X21.258 Y102.423
N587 X21.197 Y102.626
N588 X21.151 Y102.833
N589 X21.121 Y103.043
N590 X21.105 Y103.254
N591 Y103.466
N592 X21.121 Y103.677
N593 X21.152 Y103.887
N594 X21.198 Y104.094
N595 X21.259 Y104.296
N596 X21.335 Y104.494
N597 X21.425 Y104.686
N598 X21.529 Y104.871
N599 X46.953 Y146.45
N600 X37.479
N601 X37.267 Y146.458
N602 X37.056 Y146.481
N603 X36.847 Y146.52
N604 X36.642 Y146.573
N605 X36.441 Y146.642
N606 X36.245 Y146.725
N607 X36.057 Y146.823
N608 X35.876 Y146.933
N609 X35.703 Y147.057
N610 X35.54 Y147.193
N611 X35.388 Y147.341
N612 X35.246 Y147.499
N613 X35.117 Y147.667
N614 X35 Y147.844
N615 X34.897 Y148.03
N616 X34.807 Y148.222
N617 X34.732 Y148.421
N618 X34.671 Y148.624
N619 X34.625 Y148.831
N620 X34.595 Y149.041
N621 X34.58 Y149.253
N622 X34.581 Y149.465
N623 X34.597 Y149.677
N624 X34.629 Y149.887
N625 X34.676 Y150.094
N626 X34.738 Y150.297
N627 X34.814 Y150.495
N628 X34.905 Y150.687
N629 X56.138 Y191.564
N630 X49.489
N631 X49.277 Y191.572
N632 X49.065 Y191.595
N633 X48.856 Y191.634
N634 X48.65 Y191.688
N635 X48.449 Y191.757
N636 X48.253 Y191.841
N637 X48.064 Y191.938
N638 X47.883 Y192.05
N639 X47.71 Y192.174
N640 X47.547 Y192.311
N641 X47.394 Y192.459
N642 X47.253 Y192.618
N643 X47.123 Y192.787
N644 X47.007 Y192.965
N645 X46.903 Y193.151
N646 X46.814 Y193.344
N647 X46.739 Y193.544
N648 X46.679 Y193.748
N649 X46.634 Y193.956
N650 X46.605 Y194.166
N651 X46.591 Y194.379
N652 X46.592 Y194.592
N653 X46.609 Y194.804
N654 X46.642 Y195.014
N655 X46.69 Y195.221
N656 X46.753 Y195.425
N657 X46.831 Y195.623
N658 X46.923 Y195.814
N659 X47.029 Y195.999
N660 X73.564 Y238.531
N661 X73.681 Y238.705
N662 X73.811 Y238.87
N663 X73.952 Y239.025
N664 X74.104 Y239.169
N665 X74.267 Y239.303
N666 X74.438 Y239.424
N667 X74.618 Y239.532
N668 X74.805 Y239.627
N669 X74.998 Y239.708
N670 X75.197 Y239.775
N671 X75.4 Y239.828
N672 X75.606 Y239.866
N673 X75.815 Y239.888
N674 X76.024 Y239.896
N675 X76.234 Y239.888
N676 X76.443 Y239.866
N677 X76.649 Y239.828
N678 X76.852 Y239.775
N679 X77.051 Y239.708
N680 X77.244 Y239.627
N681 X77.431 Y239.532
N682 X77.611 Y239.424
N683 X77.782 Y239.303
N684 X77.944 Y239.169
N685 X78.096 Y239.025
N686 X78.238 Y238.87
N687 X78.367 Y238.705
N688 X78.485 Y238.531
N689 X105.02 Y195.999
N690 X105.126 Y195.814
N691 X105.218 Y195.623
N692 X105.296 Y195.425
N693 X105.359 Y195.221
N694 X105.407 Y195.014
N695 X105.44 Y194.804
N696 X105.457 Y194.592
N697 X105.459 Y194.379
N698 X105.445 Y194.166
N699 X105.415 Y193.956
N700 X105.37 Y193.748
N701 X105.31 Y193.544
N702 X105.235 Y193.344
N703 X105.146 Y193.151
N704 X105.043 Y192.965
N705 X104.926 Y192.787
N706 X104.797 Y192.618
N707 X104.655 Y192.459
N708 X104.503 Y192.311
N709 X104.339 Y192.174
N710 X104.167 Y192.05
N711 X103.985 Y191.938
N712 X103.796 Y191.841
N713 X103.601 Y191.757
N714 X103.399 Y191.688
N715 X103.193 Y191.634
N716 X102.984 Y191.595
N717 X102.773 Y191.572
N718 X102.56 Y191.564
N719 X95.911
N720 X117.144 Y150.687
N721 X117.234 Y150.495
N722 X117.311 Y150.297
N723 X117.373 Y150.094
N724 X117.42 Y149.887
N725 X117.451 Y149.677
N726 X117.468 Y149.465
N727 Y149.253
N728 X117.454 Y149.041
N729 X117.423 Y148.831
N730 X117.378 Y148.624
N731 X117.317 Y148.421
N732 X117.242 Y148.222
N733 X117.152 Y148.03
N734 X117.049 Y147.844
N735 X116.932 Y147.667
N736 X116.802 Y147.499
N737 X116.661 Y147.341
N738 X116.508 Y147.193
N739 X116.345 Y147.057
N740 X116.173 Y146.933
N741 X115.992 Y146.823
N742 X115.803 Y146.725
N743 X115.608 Y146.642
N744 X115.407 Y146.573
N745 X115.202 Y146.52
N746 X114.993 Y146.481
N747 X114.782 Y146.458
N748 X114.57 Y146.45
N749 X105.095
N750 X130.52 Y104.871
N751 X130.624 Y104.686
N752 X130.714 Y104.494
N753 X130.79 Y104.296
N754 X130.851 Y104.094
N755 X130.897 Y103.887
N756 X130.928 Y103.677
N757 X130.944 Y103.466
N758 Y103.254
N759 X130.929 Y103.043
N760 X130.898 Y102.833
N761 X130.852 Y102.626
N762 X130.791 Y102.423
N763 X130.716 Y102.225
N764 X130.626 Y102.033
N765 X130.522 Y101.848
N766 X130.405 Y101.672
N767 X130.276 Y101.504
N768 X130.134 Y101.346
N769 X129.982 Y101.199
N770 X129.819 Y101.063
N771 X129.647 Y100.94
N772 X129.466 Y100.829
N773 X129.277 Y100.732
N774 X129.082 Y100.65
N775 X128.882 Y100.581
N776 X128.677 Y100.527
N777 X128.468 Y100.489
N778 X128.258 Y100.466
N779 X128.046 Y100.458
N780 X117.551
N781 X142.055 Y60.384
N782 X142.159 Y60.199
N783 X142.249 Y60.007
N784 X142.325 Y59.809
N785 X142.386 Y59.607
N786 X142.432 Y59.4
N787 X142.463 Y59.19
N788 X142.479 Y58.979
N789 Y58.767
N790 X142.464 Y58.556
N791 X142.433 Y58.346
N792 X142.387 Y58.139
N793 X142.326 Y57.936
N794 X142.251 Y57.738
N795 X142.161 Y57.546
N796 X142.057 Y57.361
N797 X141.94 Y57.185
N798 X141.811 Y57.017
N799 X141.669 Y56.859
N800 X141.517 Y56.712
N801 X141.354 Y56.576
N802 X141.182 Y56.453
N803 X141.001 Y56.342
N804 X140.812 Y56.245
N805 X140.617 Y56.163
N806 X140.417 Y56.094
N807 X140.212 Y56.04
N808 X140.003 Y56.002
N809 X139.793 Y55.979
N810 X139.581 Y55.971
N811 X129.576
N812 X154.523 Y15.174
N813 X154.627 Y14.989
N814 X154.717 Y14.797
N815 X154.793 Y14.599
N816 X154.854 Y14.396
N817 X154.9 Y14.19
N818 X154.931 Y13.98
N819 X154.947 Y13.769
N820 Y13.557
N821 X154.932 Y13.345
N822 X154.901 Y13.136
N823 X154.855 Y12.929
N824 X154.794 Y12.726
N825 X154.719 Y12.528
N826 X154.629 Y12.336
N827 X154.525 Y12.151
N828 X154.408 Y11.974
N829 X154.279 Y11.807
N830 X154.137 Y11.649
N831 X153.985 Y11.502
N832 X153.822 Y11.366
N833 X153.65 Y11.243
N834 X153.469 Y11.132
N835 X153.28 Y11.035
N836 X153.085 Y10.952
N837 X152.885 Y10.884
N838 X152.68 Y10.83
N839 X152.471 Y10.792
N840 X152.261 Y10.769
N841 X152.049 Y10.761
N842 X111.568
N843 Y0
N844 X111.561 Y-0.207
N845 X111.538 Y-0.413
N846 X111.502 Y-0.616
N847 X111.451 Y-0.817
N848 X111.385 Y-1.013
N849 X111.306 Y-1.205
N850 X111.213 Y-1.39
N851 X111.108 Y-1.568
N852 X110.99 Y-1.738
N853 X110.86 Y-1.899
N854 X110.719 Y-2.051
N855 X110.567 Y-2.192
N856 X110.406 Y-2.322
N857 X110.236 Y-2.44
N858 X110.058 Y-2.545
N859 X109.873 Y-2.638
N860 X109.681 Y-2.717
N861 X109.485 Y-2.783
N862 X109.284 Y-2.834
N863 X109.081 Y-2.87
N864 X108.875 Y-2.893
N865 X108.668 Y-2.9
N866 X86.184
N867 X85.977 Y-2.893
N868 X85.771 Y-2.87
N869 X85.568 Y-2.834
N870 X85.367 Y-2.783
N871 X85.171 Y-2.717
N872 X84.979 Y-2.638
N873 X84.794 Y-2.545
N874 X84.616 Y-2.44
N875 X84.446 Y-2.322
N876 X84.285 Y-2.192
N877 X84.133 Y-2.051
N878 X83.992 Y-1.899
N879 X83.863 Y-1.738
N880 X83.744 Y-1.568
N881 X83.639 Y-1.39
N882 X83.546 Y-1.205
N883 X83.467 Y-1.013
N884 X83.402 Y-0.817
N885 X83.35 Y-0.616
N886 X83.314 Y-0.413
N887 X83.291 Y-0.207
N888 X83.284 Y0
N889 Y13.661
N890 X83.29 Y13.84
N891 X83.306 Y14.019
N892 X83.334 Y14.197
N893 Y118.757
N894 X83.341 Y118.964
N895 X83.364 Y119.17
N896 X83.4 Y119.374
N897 X83.452 Y119.574
N898 X83.517 Y119.771
N899 X83.596 Y119.962
N900 X83.689 Y120.147
N901 X83.795 Y120.325
N902 X83.913 Y120.495
N903 X84.043 Y120.657
N904 X84.184 Y120.808
N905 X84.206 Y120.841
N906 X84.213 Y120.879
N907 X84.206 Y120.917
N908 X84.184 Y120.95
N909 X84.151 Y120.971
N910 X84.113 Y120.979
N911 X84.075 Y120.971
N912 X84.042 Y120.95
N913 X83.891 Y120.809
N914 X83.73 Y120.679
N915 X83.559 Y120.561
N916 X83.381 Y120.455
N917 X83.196 Y120.362
N918 X83.005 Y120.283
N919 X82.809 Y120.218
N920 X82.608 Y120.166
N921 X82.404 Y120.13
N922 X82.198 Y120.107
N923 X81.991 Y120.1
N924 X72.377
N925 X72.17 Y120.107
N926 X71.964 Y120.13
N927 X71.76 Y120.166
N928 X71.56 Y120.218
N929 X71.363 Y120.283
N930 X71.172 Y120.362
N931 X70.987 Y120.455
N932 X70.809 Y120.561
N933 X70.639 Y120.679
N934 X70.477 Y120.809
N935 X70.326 Y120.95
N936 X70.293 Y120.971
N937 X70.255 Y120.979
N938 X70.217 Y120.971
N939 X70.184 Y120.95
N940 X70.163 Y120.917
N941 X70.155 Y120.879
N942 X70.163 Y120.841
N943 X70.184 Y120.808
N944 X70.325 Y120.657
N945 X70.455 Y120.495
N946 X70.573 Y120.325
N947 X70.679 Y120.147
N948 X70.772 Y119.962
N949 X70.851 Y119.771
N950 X70.917 Y119.574
N951 X70.968 Y119.374
N952 X71.005 Y119.17
N953 X71.027 Y118.964
N954 X71.034 Y118.757
N955 Y0
N956 X71.027 Y-0.207
N957 X71.005 Y-0.413
N958 X70.968 Y-0.616
N959 X70.917 Y-0.817
N960 X70.851 Y-1.013
N961 X70.772 Y-1.205
N962 X70.679 Y-1.39
N963 X70.574 Y-1.568
N964 X70.456 Y-1.738
N965 X70.326 Y-1.899
N966 X70.185 Y-2.051
N967 X70.033 Y-2.192
N968 X69.872 Y-2.322
N969 X69.702 Y-2.44
N970 X69.524 Y-2.545
N971 X69.339 Y-2.638
N972 X69.148 Y-2.717
N973 X68.951 Y-2.783
N974 X68.751 Y-2.834
N975 X68.547 Y-2.87
N976 X68.341 Y-2.893
N977 X68.134 Y-2.9
N978 X45.701
N979 X45.494 Y-2.893
N980 X45.288 Y-2.87
N981 X45.084 Y-2.834
N982 X44.884 Y-2.783
N983 X44.687 Y-2.717
N984 X44.496 Y-2.638
N985 X44.311 Y-2.545
N986 X44.133 Y-2.44
N987 X43.963 Y-2.322
N988 X43.802 Y-2.192
N989 X43.65 Y-2.051
N990 X43.509 Y-1.899
N991 X43.379 Y-1.738
N992 X43.261 Y-1.568
N993 X43.155 Y-1.39
N994 X43.063 Y-1.205
N995 X42.983 Y-1.013
N996 X42.918 Y-0.817
N997 X42.867 Y-0.616
N998 X42.83 Y-0.413
N999 X42.808 Y-0.207
N1000 X42.801 Y0
N1001 Y10.761
N1002 X0
N1003 X-0.212 Y10.769
N1004 X-0.422 Y10.792
N1005 X-0.631 Y10.83
N1006 X-0.836 Y10.884
N1007 X-1.036 Y10.952
N1008 X-1.231 Y11.035
N1009 X-1.42 Y11.132
N1010 X-1.601 Y11.243
N1011 X-1.773 Y11.366
N1012 X-1.936 Y11.502
N1013 X-2.088 Y11.649
N1014 X-2.23 Y11.807
N1015 X-2.359 Y11.974
N1016 X-2.476 Y12.151
N1017 X-2.58 Y12.336
N1018 X-2.67 Y12.528
N1019 X-2.745 Y12.726
N1020 X-2.806 Y12.929
N1021 X-2.852 Y13.136
N1022 X-2.883 Y13.345
N1023 X-2.898 Y13.557
N1024 Y13.769
N1025 X-2.882 Y13.98
N1026 X-2.851 Y14.19
N1027 X-2.805 Y14.396
N1028 X-2.744 Y14.599
N1029 X-2.668 Y14.797
N1030 X-2.578 Y14.989
N1031 X-2.474 Y15.174
N1032 X22.472 Y55.971
N1033 X12.467
N1034 X12.262 Y55.978
N1035 X12.057 Y56
N1036 X11.854 Y56.037
N1037 X11.655 Y56.087
N1038 X11.459 Y56.152
N1039 X11.269 Y56.23
N1040 X11.084 Y56.322
N1041 X10.907 Y56.427
N1042 X10.737 Y56.544
N1043 X10.577 Y56.672
N1044 X10.425 Y56.812
N1045 X10.284 Y56.962
N1046 X10.154 Y57.122
N1047 X10.037 Y57.289 Z15.997 F2500
N1048 X9.932 Y57.463 Z15.993
N1049 X9.839 Y57.645 Z15.99
N1050 X9.76 Y57.833 Z15.987
N1051 X9.693 Y58.026 Z15.983
N1052 X9.641 Y58.223 Z15.98
N1053 X9.602 Y58.424 Z15.977
N1054 X9.578 Y58.626 Z15.973
N1055 X9.568 Y58.83 Z15.97
N1056 X9.572 Y59.034 Z15.967
N1057 X9.591 Y59.237 Z15.963
N1058 X9.624 Y59.438 Z15.96
N1059 X9.671 Y59.637 Z15.957
N1060 X9.731 Y59.832 Z15.953
N1061 X9.806 Y60.022 Z15.95
N1062 X9.893 Y60.206 Z15.947
N1063 X9.993 Y60.384 Z15.944
N1064 X34.498 Y100.458 Z15.179
N1065 X24.003 Z15.008
N1066 X23.835 Y100.463 Z15.005
N1067 X23.667 Y100.478 Z15.003
N1068 X23.501 Y100.502 Z15
N1069 X23.296 Y100.545 F2760
N1070 X23.096 Y100.604
N1071 X22.9 Y100.676
N1072 X22.71 Y100.763
N1073 X22.526 Y100.862
N1074 X22.35 Y100.975
N1075 X22.183 Y101.1
N1076 X22.025 Y101.237
N1077 X21.878 Y101.385
N1078 X21.741 Y101.543
N1079 X21.616 Y101.711
N1080 X21.504 Y101.887
N1081 X21.405 Y102.071
N1082 X21.319 Y102.261
N1083 X21.247 Y102.457
N1084 X21.189 Y102.658
N1085 X21.146 Y102.862
N1086 X21.118 Y103.069
N1087 X21.104 Y103.278
N1088 X21.106 Y103.487
N1089 X21.123 Y103.695
N1090 X21.155 Y103.902
N1091 X21.201 Y104.105
N1092 X21.262 Y104.305
N1093 X21.338 Y104.5
N1094 X21.427 Y104.689
N1095 X21.529 Y104.871
N1096 X46.953 Y146.45
N1097 X37.479
N1098 X37.267 Y146.458
N1099 X37.056 Y146.481
N1100 X36.847 Y146.52
N1101 X36.642 Y146.573
N1102 X36.441 Y146.642
N1103 X36.245 Y146.725
N1104 X36.057 Y146.823
N1105 X35.876 Y146.933
N1106 X35.703 Y147.057
N1107 X35.54 Y147.193
N1108 X35.388 Y147.341
N1109 X35.246 Y147.499
N1110 X35.117 Y147.667
N1111 X35 Y147.844
N1112 X34.897 Y148.03
N1113 X34.807 Y148.222
N1114 X34.732 Y148.421
N1115 X34.671 Y148.624
N1116 X34.625 Y148.831
N1117 X34.595 Y149.041
N1118 X34.58 Y149.253
N1119 X34.581 Y149.465
N1120 X34.597 Y149.677
N1121 X34.629 Y149.887
N1122 X34.676 Y150.094
N1123 X34.738 Y150.297
N1124 X34.814 Y150.495
N1125 X34.905 Y150.687
N1126 X56.138 Y191.564
N1127 X49.489
N1128 X49.277 Y191.572
N1129 X49.065 Y191.595
N1130 X48.856 Y191.634
N1131 X48.65 Y191.688
N1132 X48.449 Y191.757
N1133 X48.253 Y191.841
N1134 X48.064 Y191.938
N1135 X47.883 Y192.05
N1136 X47.71 Y192.174
N1137 X47.547 Y192.311
N1138 X47.394 Y192.459
N1139 X47.253 Y192.618
N1140 X47.123 Y192.787
N1141 X47.007 Y192.965
N1142 X46.903 Y193.151
N1143 X46.814 Y193.344
N1144 X46.739 Y193.544
N1145 X46.679 Y193.748
N1146 X46.634 Y193.956
N1147 X46.605 Y194.166
N1148 X46.591 Y194.379
N1149 X46.592 Y194.592
N1150 X46.609 Y194.804
N1151 X46.642 Y195.014
N1152 X46.69 Y195.221
N1153 X46.753 Y195.425
N1154 X46.831 Y195.623
N1155 X46.923 Y195.814
N1156 X47.029 Y195.999
N1157 X73.564 Y238.531
N1158 X73.681 Y238.705
N1159 X73.811 Y238.87
N1160 X73.952 Y239.025
N1161 X74.104 Y239.169
N1162 X74.267 Y239.303
N1163 X74.438 Y239.424
N1164 X74.618 Y239.532
N1165 X74.805 Y239.627
N1166 X74.998 Y239.708
N1167 X75.197 Y239.775
N1168 X75.4 Y239.828
N1169 X75.606 Y239.866
N1170 X75.815 Y239.888
N1171 X76.024 Y239.896
N1172 X76.234 Y239.888
N1173 X76.443 Y239.866
N1174 X76.649 Y239.828
N1175 X76.852 Y239.775
N1176 X77.051 Y239.708
N1177 X77.244 Y239.627
N1178 X77.431 Y239.532
N1179 X77.611 Y239.424
N1180 X77.782 Y239.303
N1181 X77.944 Y239.169
N1182 X78.096 Y239.025
N1183 X78.238 Y238.87
N1184 X78.367 Y238.705
N1185 X78.485 Y238.531
N1186 X105.02 Y195.999
N1187 X105.126 Y195.814
N1188 X105.218 Y195.623
N1189 X105.296 Y195.425
N1190 X105.359 Y195.221
N1191 X105.407 Y195.014
N1192 X105.44 Y194.804
N1193 X105.457 Y194.592
N1194 X105.459 Y194.379
N1195 X105.445 Y194.166
N1196 X105.415 Y193.956
N1197 X105.37 Y193.748
N1198 X105.31 Y193.544
N1199 X105.235 Y193.344
N1200 X105.146 Y193.151
N1201 X105.043 Y192.965
N1202 X104.926 Y192.787
N1203 X104.797 Y192.618
N1204 X104.655 Y192.459
N1205 X104.503 Y192.311
N1206 X104.339 Y192.174
N1207 X104.167 Y192.05
N1208 X103.985 Y191.938
N1209 X103.796 Y191.841
N1210 X103.601 Y191.757
N1211 X103.399 Y191.688
N1212 X103.193 Y191.634
N1213 X102.984 Y191.595
N1214 X102.773 Y191.572
N1215 X102.56 Y191.564
N1216 X95.911
N1217 X117.144 Y150.687
N1218 X117.234 Y150.495
N1219 X117.311 Y150.297
N1220 X117.373 Y150.094
N1221 X117.42 Y149.887
N1222 X117.451 Y149.677
N1223 X117.468 Y149.465
N1224 Y149.253
N1225 X117.454 Y149.041
N1226 X117.423 Y148.831
N1227 X117.378 Y148.624
N1228 X117.317 Y148.421
N1229 X117.242 Y148.222
N1230 X117.152 Y148.03
N1231 X117.049 Y147.844
N1232 X116.932 Y147.667
N1233 X116.802 Y147.499
N1234 X116.661 Y147.341
N1235 X116.508 Y147.193
N1236 X116.345 Y147.057
N1237 X116.173 Y146.933
N1238 X115.992 Y146.823
N1239 X115.803 Y146.725
N1240 X115.608 Y146.642
N1241 X115.407 Y146.573
N1242 X115.202 Y146.52
N1243 X114.993 Y146.481
N1244 X114.782 Y146.458
N1245 X114.57 Y146.45
N1246 X105.095
N1247 X130.52 Y104.871
N1248 X130.624 Y104.686
N1249 X130.714 Y104.494
N1250 X130.79 Y104.296
N1251 X130.851 Y104.094
N1252 X130.897 Y103.887
N1253 X130.928 Y103.677
N1254 X130.944 Y103.466
N1255 Y103.254
N1256 X130.929 Y103.043
N1257 X130.898 Y102.833
N1258 X130.852 Y102.626
N1259 X130.791 Y102.423
N1260 X130.716 Y102.225
N1261 X130.626 Y102.033
N1262 X130.522 Y101.848
N1263 X130.405 Y101.672
N1264 X130.276 Y101.504
N1265 X130.134 Y101.346
N1266 X129.982 Y101.199
N1267 X129.819 Y101.063
N1268 X129.647 Y100.94
N1269 X129.466 Y100.829
N1270 X129.277 Y100.732
N1271 X129.082 Y100.65
N1272 X128.882 Y100.581
N1273 X128.677 Y100.527
N1274 X128.468 Y100.489
N1275 X128.258 Y100.466
N1276 X128.046 Y100.458
N1277 X117.551
N1278 X142.055 Y60.384
N1279 X142.159 Y60.199
N1280 X142.249 Y60.007
N1281 X142.325 Y59.809
N1282 X142.386 Y59.607
N1283 X142.432 Y59.4
N1284 X142.463 Y59.19
N1285 X142.479 Y58.979
N1286 Y58.767
N1287 X142.464 Y58.556
N1288 X142.433 Y58.346
N1289 X142.387 Y58.139
N1290 X142.326 Y57.936
N1291 X142.251 Y57.738
N1292 X142.161 Y57.546
N1293 X142.057 Y57.361
N1294 X141.94 Y57.185
N1295 X141.811 Y57.017
N1296 X141.669 Y56.859
N1297 X141.517 Y56.712
N1298 X141.354 Y56.576
N1299 X141.182 Y56.453
N1300 X141.001 Y56.342
N1301 X140.812 Y56.245
N1302 X140.617 Y56.163
N1303 X140.417 Y56.094
N1304 X140.212 Y56.04
N1305 X140.003 Y56.002
N1306 X139.793 Y55.979
N1307 X139.581 Y55.971
N1308 X129.576
N1309 X154.523 Y15.174
N1310 X154.627 Y14.989
N1311 X154.717 Y14.797
N1312 X154.793 Y14.599
N1313 X154.854 Y14.396
N1314 X154.9 Y14.19
N1315 X154.931 Y13.98
N1316 X154.947 Y13.769
N1317 Y13.557
N1318 X154.932 Y13.345
N1319 X154.901 Y13.136
N1320 X154.855 Y12.929
N1321 X154.794 Y12.726
N1322 X154.719 Y12.528
N1323 X154.629 Y12.336
N1324 X154.525 Y12.151
N1325 X154.408 Y11.974
N1326 X154.279 Y11.807
N1327 X154.137 Y11.649
N1328 X153.985 Y11.502
N1329 X153.822 Y11.366
N1330 X153.65 Y11.243
N1331 X153.469 Y11.132
N1332 X153.28 Y11.035
N1333 X153.085 Y10.952
N1334 X152.885 Y10.884
N1335 X152.68 Y10.83
N1336 X152.471 Y10.792
N1337 X152.261 Y10.769
N1338 X152.049 Y10.761
N1339 X111.568
N1340 Y0
N1341 X111.561 Y-0.207
N1342 X111.538 Y-0.413
N1343 X111.502 Y-0.616
N1344 X111.451 Y-0.817
N1345 X111.385 Y-1.013
N1346 X111.306 Y-1.205
N1347 X111.213 Y-1.39
N1348 X111.108 Y-1.568
N1349 X110.99 Y-1.738
N1350 X110.86 Y-1.899
N1351 X110.719 Y-2.051
N1352 X110.567 Y-2.192
N1353 X110.406 Y-2.322
N1354 X110.236 Y-2.44
N1355 X110.058 Y-2.545
N1356 X109.873 Y-2.638
N1357 X109.681 Y-2.717
N1358 X109.485 Y-2.783
N1359 X109.284 Y-2.834
N1360 X109.081 Y-2.87
N1361 X108.875 Y-2.893
N1362 X108.668 Y-2.9
N1363 X86.184
N1364 X85.977 Y-2.893
N1365 X85.771 Y-2.87
N1366 X85.568 Y-2.834
N1367 X85.367 Y-2.783
N1368 X85.171 Y-2.717
N1369 X84.979 Y-2.638
N1370 X84.794 Y-2.545
N1371 X84.616 Y-2.44
N1372 X84.446 Y-2.322
N1373 X84.285 Y-2.192
N1374 X84.133 Y-2.051
N1375 X83.992 Y-1.899
N1376 X83.863 Y-1.738
N1377 X83.744 Y-1.568
N1378 X83.639 Y-1.39
N1379 X83.546 Y-1.205
N1380 X83.467 Y-1.013
N1381 X83.402 Y-0.817
N1382 X83.35 Y-0.616
N1383 X83.314 Y-0.413
N1384 X83.291 Y-0.207
N1385 X83.284 Y0
N1386 Y13.661
N1387 X83.29 Y13.84
N1388 X83.306 Y14.019
N1389 X83.334 Y14.197
N1390 Y118.757
N1391 X83.341 Y118.964
N1392 X83.364 Y119.17
N1393 X83.4 Y119.374
N1394 X83.452 Y119.574
N1395 X83.517 Y119.771
N1396 X83.596 Y119.962
N1397 X83.689 Y120.147
N1398 X83.795 Y120.325
N1399 X83.913 Y120.495
N1400 X84.043 Y120.657
N1401 X84.184 Y120.808
N1402 X84.206 Y120.841
N1403 X84.213 Y120.879
N1404 X84.206 Y120.917
N1405 X84.184 Y120.95
N1406 X84.151 Y120.971
N1407 X84.113 Y120.979
N1408 X84.075 Y120.971
N1409 X84.042 Y120.95
N1410 X83.891 Y120.809
N1411 X83.73 Y120.679
N1412 X83.559 Y120.561
N1413 X83.381 Y120.455
N1414 X83.196 Y120.362
N1415 X83.005 Y120.283
N1416 X82.809 Y120.218
N1417 X82.608 Y120.166
N1418 X82.404 Y120.13
N1419 X82.198 Y120.107
N1420 X81.991 Y120.1
N1421 X72.377
N1422 X72.17 Y120.107
N1423 X71.964 Y120.13
N1424 X71.76 Y120.166
N1425 X71.56 Y120.218
N1426 X71.363 Y120.283
N1427 X71.172 Y120.362
N1428 X70.987 Y120.455
N1429 X70.809 Y120.561
N1430 X70.639 Y120.679
N1431 X70.477 Y120.809
N1432 X70.326 Y120.95
N1433 X70.293 Y120.971
N1434 X70.255 Y120.979
N1435 X70.217 Y120.971
N1436 X70.184 Y120.95
N1437 X70.163 Y120.917
N1438 X70.155 Y120.879
N1439 X70.163 Y120.841
N1440 X70.184 Y120.808
N1441 X70.325 Y120.657
N1442 X70.455 Y120.495
N1443 X70.573 Y120.325
N1444 X70.679 Y120.147
N1445 X70.772 Y119.962
N1446 X70.851 Y119.771
N1447 X70.917 Y119.574
N1448 X70.968 Y119.374
N1449 X71.005 Y119.17
N1450 X71.027 Y118.964
N1451 X71.034 Y118.757
N1452 Y0
N1453 X71.027 Y-0.207
N1454 X71.005 Y-0.413
N1455 X70.968 Y-0.616
N1456 X70.917 Y-0.817
N1457 X70.851 Y-1.013
N1458 X70.772 Y-1.205
N1459 X70.679 Y-1.39
N1460 X70.574 Y-1.568
N1461 X70.456 Y-1.738
N1462 X70.326 Y-1.899
N1463 X70.185 Y-2.051
N1464 X70.033 Y-2.192
N1465 X69.872 Y-2.322
N1466 X69.702 Y-2.44
N1467 X69.524 Y-2.545
N1468 X69.339 Y-2.638
N1469 X69.148 Y-2.717
N1470 X68.951 Y-2.783
N1471 X68.751 Y-2.834
N1472 X68.547 Y-2.87
N1473 X68.341 Y-2.893
N1474 X68.134 Y-2.9
N1475 X45.701
N1476 X45.494 Y-2.893
N1477 X45.288 Y-2.87
N1478 X45.084 Y-2.834
N1479 X44.884 Y-2.783
N1480 X44.687 Y-2.717
N1481 X44.496 Y-2.638
N1482 X44.311 Y-2.545
N1483 X44.133 Y-2.44
N1484 X43.963 Y-2.322
N1485 X43.802 Y-2.192
N1486 X43.65 Y-2.051
N1487 X43.509 Y-1.899
N1488 X43.379 Y-1.738
N1489 X43.261 Y-1.568
N1490 X43.155 Y-1.39
N1491 X43.063 Y-1.205
N1492 X42.983 Y-1.013
N1493 X42.918 Y-0.817
N1494 X42.867 Y-0.616
N1495 X42.83 Y-0.413
N1496 X42.808 Y-0.207
N1497 X42.801 Y0
N1498 Y10.761
N1499 X0
N1500 X-0.212 Y10.769
N1501 X-0.422 Y10.792
N1502 X-0.631 Y10.83
N1503 X-0.836 Y10.884
N1504 X-1.036 Y10.952
N1505 X-1.231 Y11.035
N1506 X-1.42 Y11.132
N1507 X-1.601 Y11.243
N1508 X-1.773 Y11.366
N1509 X-1.936 Y11.502
N1510 X-2.088 Y11.649
N1511 X-2.23 Y11.807
N1512 X-2.359 Y11.974
N1513 X-2.476 Y12.151
N1514 X-2.58 Y12.336
N1515 X-2.67 Y12.528
N1516 X-2.745 Y12.726
N1517 X-2.806 Y12.929
N1518 X-2.852 Y13.136
N1519 X-2.883 Y13.345
N1520 X-2.898 Y13.557
N1521 Y13.769
N1522 X-2.882 Y13.98
N1523 X-2.851 Y14.19
N1524 X-2.805 Y14.396
N1525 X-2.744 Y14.599
N1526 X-2.668 Y14.797
N1527 X-2.578 Y14.989
N1528 X-2.474 Y15.174
N1529 X22.472 Y55.971
N1530 X12.467
N1531 X12.256 Y55.979
N1532 X12.045 Y56.002
N1533 X11.837 Y56.04
N1534 X11.632 Y56.094
N1535 X11.431 Y56.163
N1536 X11.236 Y56.245
N1537 X11.048 Y56.342
N1538 X10.867 Y56.453
N1539 X10.694 Y56.576
N1540 X10.532 Y56.712
N1541 X10.379 Y56.859
N1542 X10.238 Y57.017
N1543 X10.108 Y57.185
N1544 X9.991 Y57.361
N1545 X9.888 Y57.546
N1546 X9.798 Y57.738
N1547 X9.722 Y57.936
N1548 X9.661 Y58.139
N1549 X9.615 Y58.346
N1550 X9.585 Y58.556
N1551 X9.569 Y58.767
N1552 X9.57 Y58.979
N1553 X9.585 Y59.19
N1554 X9.616 Y59.4
N1555 X9.662 Y59.607
N1556 X9.724 Y59.809
N1557 X9.799 Y60.007
N1558 X9.89 Y60.199
N1559 X9.993 Y60.384
N1560 X34.498 Y100.458
N1561 X24.003
N1562 X23.835 Y100.463
N1563 X23.667 Y100.478
N1564 X23.501 Y100.502
N1565 X23.296 Y100.545 Z14.997 F2500
N1566 X23.096 Y100.604 Z14.993
N1567 X22.9 Y100.676 Z14.99
N1568 X22.71 Y100.763 Z14.986
N1569 X22.526 Y100.862 Z14.983
N1570 X22.35 Y100.975 Z14.98
N1571 X22.183 Y101.1 Z14.976
N1572 X22.025 Y101.237 Z14.973
N1573 X21.878 Y101.385 Z14.969
N1574 X21.741 Y101.543 Z14.966
N1575 X21.616 Y101.711 Z14.963
N1576 X21.504 Y101.887 Z14.959
N1577 X21.405 Y102.071 Z14.956
N1578 X21.319 Y102.261 Z14.952
N1579 X21.247 Y102.457 Z14.949
N1580 X21.189 Y102.658 Z14.946
N1581 X21.146 Y102.862 Z14.942
N1582 X21.118 Y103.069 Z14.939
N1583 X21.104 Y103.278 Z14.935
N1584 X21.106 Y103.487 Z14.932
N1585 X21.123 Y103.695 Z14.929
N1586 X21.155 Y103.902 Z14.925
N1587 X21.201 Y104.105 Z14.922
N1588 X21.262 Y104.305 Z14.918
N1589 X21.338 Y104.5 Z14.915
N1590 X21.427 Y104.689 Z14.912
N1591 X21.529 Y104.871 Z14.908
N1592 X46.953 Y146.45 Z14.115
N1593 X39.89 Z14
N1594 X37.479 F2760
N1595 X37.267 Y146.458
N1596 X37.056 Y146.481
N1597 X36.847 Y146.52
N1598 X36.642 Y146.573
N1599 X36.441 Y146.642
N1600 X36.245 Y146.725
N1601 X36.057 Y146.823
N1602 X35.876 Y146.933
N1603 X35.703 Y147.057
N1604 X35.54 Y147.193
N1605 X35.388 Y147.341
N1606 X35.246 Y147.499
N1607 X35.117 Y147.667
N1608 X35 Y147.844
N1609 X34.897 Y148.03
N1610 X34.807 Y148.222
N1611 X34.732 Y148.421
N1612 X34.671 Y148.624
N1613 X34.625 Y148.831
N1614 X34.595 Y149.041
N1615 X34.58 Y149.253
N1616 X34.581 Y149.465
N1617 X34.597 Y149.677
N1618 X34.629 Y149.887
N1619 X34.676 Y150.094
N1620 X34.738 Y150.297
N1621 X34.814 Y150.495
N1622 X34.905 Y150.687
N1623 X56.138 Y191.564
N1624 X49.489
N1625 X49.277 Y191.572
N1626 X49.065 Y191.595
N1627 X48.856 Y191.634
N1628 X48.65 Y191.688
N1629 X48.449 Y191.757
N1630 X48.253 Y191.841
N1631 X48.064 Y191.938
N1632 X47.883 Y192.05
N1633 X47.71 Y192.174
N1634 X47.547 Y192.311
N1635 X47.394 Y192.459
N1636 X47.253 Y192.618
N1637 X47.123 Y192.787
N1638 X47.007 Y192.965
N1639 X46.903 Y193.151
N1640 X46.814 Y193.344
N1641 X46.739 Y193.544
N1642 X46.679 Y193.748
N1643 X46.634 Y193.956
N1644 X46.605 Y194.166
N1645 X46.591 Y194.379
N1646 X46.592 Y194.592
N1647 X46.609 Y194.804
N1648 X46.642 Y195.014
N1649 X46.69 Y195.221
N1650 X46.753 Y195.425
N1651 X46.831 Y195.623
N1652 X46.923 Y195.814
N1653 X47.029 Y195.999
N1654 X73.564 Y238.531
N1655 X73.681 Y238.705
N1656 X73.811 Y238.87
N1657 X73.952 Y239.025
N1658 X74.104 Y239.169
N1659 X74.267 Y239.303
N1660 X74.438 Y239.424
N1661 X74.618 Y239.532
N1662 X74.805 Y239.627
N1663 X74.998 Y239.708
N1664 X75.197 Y239.775
N1665 X75.4 Y239.828
N1666 X75.606 Y239.866
N1667 X75.815 Y239.888
N1668 X76.024 Y239.896
N1669 X76.234 Y239.888
N1670 X76.443 Y239.866
N1671 X76.649 Y239.828
N1672 X76.852 Y239.775
N1673 X77.051 Y239.708
N1674 X77.244 Y239.627
N1675 X77.431 Y239.532
N1676 X77.611 Y239.424
N1677 X77.782 Y239.303
N1678 X77.944 Y239.169
N1679 X78.096 Y239.025
N1680 X78.238 Y238.87
N1681 X78.367 Y238.705
N1682 X78.485 Y238.531
N1683 X105.02 Y195.999
N1684 X105.126 Y195.814
N1685 X105.218 Y195.623
N1686 X105.296 Y195.425
N1687 X105.359 Y195.221
N1688 X105.407 Y195.014
N1689 X105.44 Y194.804
N1690 X105.457 Y194.592
N1691 X105.459 Y194.379
N1692 X105.445 Y194.166
N1693 X105.415 Y193.956
N1694 X105.37 Y193.748
N1695 X105.31 Y193.544
N1696 X105.235 Y193.344
N1697 X105.146 Y193.151
N1698 X105.043 Y192.965
N1699 X104.926 Y192.787
N1700 X104.797 Y192.618
N1701 X104.655 Y192.459
N1702 X104.503 Y192.311
N1703 X104.339 Y192.174
N1704 X104.167 Y192.05
N1705 X103.985 Y191.938
N1706 X103.796 Y191.841
N1707 X103.601 Y191.757
N1708 X103.399 Y191.688
N1709 X103.193 Y191.634
N1710 X102.984 Y191.595
N1711 X102.773 Y191.572
N1712 X102.56 Y191.564
N1713 X95.911
N1714 X117.144 Y150.687
N1715 X117.234 Y150.495
N1716 X117.311 Y150.297
N1717 X117.373 Y150.094
N1718 X117.42 Y149.887
N1719 X117.451 Y149.677
N1720 X117.468 Y149.465
N1721 Y149.253
N1722 X117.454 Y149.041
N1723 X117.423 Y148.831
N1724 X117.378 Y148.624
N1725 X117.317 Y148.421
N1726 X117.242 Y148.222
N1727 X117.152 Y148.03
N1728 X117.049 Y147.844
N1729 X116.932 Y147.667
N1730 X116.802 Y147.499
N1731 X116.661 Y147.341
N1732 X116.508 Y147.193
N1733 X116.345 Y147.057
N1734 X116.173 Y146.933
N1735 X115.992 Y146.823
N1736 X115.803 Y146.725
N1737 X115.608 Y146.642
N1738 X115.407 Y146.573
N1739 X115.202 Y146.52
N1740 X114.993 Y146.481
N1741 X114.782 Y146.458
N1742 X114.57 Y146.45
N1743 X105.095
N1744 X130.52 Y104.871
N1745 X130.624 Y104.686
N1746 X130.714 Y104.494
N1747 X130.79 Y104.296
N1748 X130.851 Y104.094
N1749 X130.897 Y103.887
N1750 X130.928 Y103.677
N1751 X130.944 Y103.466
N1752 Y103.254
N1753 X130.929 Y103.043
N1754 X130.898 Y102.833
N1755 X130.852 Y102.626
N1756 X130.791 Y102.423
N1757 X130.716 Y102.225
N1758 X130.626 Y102.033
N1759 X130.522 Y101.848
N1760 X130.405 Y101.672
N1761 X130.276 Y101.504
N1762 X130.134 Y101.346
N1763 X129.982 Y101.199
N1764 X129.819 Y101.063
N1765 X129.647 Y100.94
N1766 X129.466 Y100.829
N1767 X129.277 Y100.732
N1768 X129.082 Y100.65
N1769 X128.882 Y100.581
N1770 X128.677 Y100.527
N1771 X128.468 Y100.489
N1772 X128.258 Y100.466
N1773 X128.046 Y100.458
N1774 X117.551
N1775 X142.055 Y60.384
N1776 X142.159 Y60.199
N1777 X142.249 Y60.007
N1778 X142.325 Y59.809
N1779 X142.386 Y59.607
N1780 X142.432 Y59.4
N1781 X142.463 Y59.19
N1782 X142.479 Y58.979
N1783 Y58.767
N1784 X142.464 Y58.556
N1785 X142.433 Y58.346
N1786 X142.387 Y58.139
N1787 X142.326 Y57.936
N1788 X142.251 Y57.738
N1789 X142.161 Y57.546
N1790 X142.057 Y57.361
N1791 X141.94 Y57.185
N1792 X141.811 Y57.017
N1793 X141.669 Y56.859
N1794 X141.517 Y56.712
N1795 X141.354 Y56.576
N1796 X141.182 Y56.453
N1797 X141.001 Y56.342
N1798 X140.812 Y56.245
N1799 X140.617 Y56.163
N1800 X140.417 Y56.094
N1801 X140.212 Y56.04
N1802 X140.003 Y56.002
N1803 X139.793 Y55.979
N1804 X139.581 Y55.971
N1805 X129.576
N1806 X154.523 Y15.174
N1807 X154.627 Y14.989
N1808 X154.717 Y14.797
N1809 X154.793 Y14.599
N1810 X154.854 Y14.396
N1811 X154.9 Y14.19
N1812 X154.931 Y13.98
N1813 X154.947 Y13.769
N1814 Y13.557
N1815 X154.932 Y13.345
N1816 X154.901 Y13.136
N1817 X154.855 Y12.929
N1818 X154.794 Y12.726
N1819 X154.719 Y12.528
N1820 X154.629 Y12.336
N1821 X154.525 Y12.151
N1822 X154.408 Y11.974
N1823 X154.279 Y11.807
N1824 X154.137 Y11.649
N1825 X153.985 Y11.502
N1826 X153.822 Y11.366
N1827 X153.65 Y11.243
N1828 X153.469 Y11.132
N1829 X153.28 Y11.035
N1830 X153.085 Y10.952
N1831 X152.885 Y10.884
N1832 X152.68 Y10.83
N1833 X152.471 Y10.792
N1834 X152.261 Y10.769
N1835 X152.049 Y10.761
N1836 X111.568
N1837 Y0
N1838 X111.561 Y-0.207
N1839 X111.538 Y-0.413
N1840 X111.502 Y-0.616
N1841 X111.451 Y-0.817
N1842 X111.385 Y-1.013
N1843 X111.306 Y-1.205
N1844 X111.213 Y-1.39
N1845 X111.108 Y-1.568
N1846 X110.99 Y-1.738
N1847 X110.86 Y-1.899
N1848 X110.719 Y-2.051
N1849 X110.567 Y-2.192
N1850 X110.406 Y-2.322
N1851 X110.236 Y-2.44
N1852 X110.058 Y-2.545
N1853 X109.873 Y-2.638
N1854 X109.681 Y-2.717
N1855 X109.485 Y-2.783
N1856 X109.284 Y-2.834
N1857 X109.081 Y-2.87
N1858 X108.875 Y-2.893
N1859 X108.668 Y-2.9
N1860 X86.184
N1861 X85.977 Y-2.893
N1862 X85.771 Y-2.87
N1863 X85.568 Y-2.834
N1864 X85.367 Y-2.783
N1865 X85.171 Y-2.717
N1866 X84.979 Y-2.638
N1867 X84.794 Y-2.545
N1868 X84.616 Y-2.44
N1869 X84.446 Y-2.322
N1870 X84.285 Y-2.192
N1871 X84.133 Y-2.051
N1872 X83.992 Y-1.899
N1873 X83.863 Y-1.738
N1874 X83.744 Y-1.568
N1875 X83.639 Y-1.39
N1876 X83.546 Y-1.205
N1877 X83.467 Y-1.013
N1878 X83.402 Y-0.817
N1879 X83.35 Y-0.616
N1880 X83.314 Y-0.413
N1881 X83.291 Y-0.207
N1882 X83.284 Y0
N1883 Y13.661
N1884 X83.29 Y13.84
N1885 X83.306 Y14.019
N1886 X83.334 Y14.197
N1887 Y118.757
N1888 X83.341 Y118.964
N1889 X83.364 Y119.17
N1890 X83.4 Y119.374
N1891 X83.452 Y119.574
N1892 X83.517 Y119.771
N1893 X83.596 Y119.962
N1894 X83.689 Y120.147
N1895 X83.795 Y120.325
N1896 X83.913 Y120.495
N1897 X84.043 Y120.657
N1898 X84.184 Y120.808
N1899 X84.206 Y120.841
N1900 X84.213 Y120.879
N1901 X84.206 Y120.917
N1902 X84.184 Y120.95
N1903 X84.151 Y120.971
N1904 X84.113 Y120.979
N1905 X84.075 Y120.971
N1906 X84.042 Y120.95
N1907 X83.891 Y120.809
N1908 X83.73 Y120.679
N1909 X83.559 Y120.561
N1910 X83.381 Y120.455
N1911 X83.196 Y120.362
N1912 X83.005 Y120.283
N1913 X82.809 Y120.218
N1914 X82.608 Y120.166
N1915 X82.404 Y120.13
N1916 X82.198 Y120.107
N1917 X81.991 Y120.1
N1918 X72.377
N1919 X72.17 Y120.107
N1920 X71.964 Y120.13
N1921 X71.76 Y120.166
N1922 X71.56 Y120.218
N1923 X71.363 Y120.283
N1924 X71.172 Y120.362
N1925 X70.987 Y120.455
N1926 X70.809 Y120.561
N1927 X70.639 Y120.679
N1928 X70.477 Y120.809
N1929 X70.326 Y120.95
N1930 X70.293 Y120.971
N1931 X70.255 Y120.979
N1932 X70.217 Y120.971
N1933 X70.184 Y120.95
N1934 X70.163 Y120.917
N1935 X70.155 Y120.879
N1936 X70.163 Y120.841
N1937 X70.184 Y120.808
N1938 X70.325 Y120.657
N1939 X70.455 Y120.495
N1940 X70.573 Y120.325
N1941 X70.679 Y120.147
N1942 X70.772 Y119.962
N1943 X70.851 Y119.771
N1944 X70.917 Y119.574
N1945 X70.968 Y119.374
N1946 X71.005 Y119.17
N1947 X71.027 Y118.964
N1948 X71.034 Y118.757
N1949 Y0
N1950 X71.027 Y-0.207
N1951 X71.005 Y-0.413
N1952 X70.968 Y-0.616
N1953 X70.917 Y-0.817
N1954 X70.851 Y-1.013
N1955 X70.772 Y-1.205
N1956 X70.679 Y-1.39
N1957 X70.574 Y-1.568
N1958 X70.456 Y-1.738
N1959 X70.326 Y-1.899
N1960 X70.185 Y-2.051
N1961 X70.033 Y-2.192
N1962 X69.872 Y-2.322
N1963 X69.702 Y-2.44
N1964 X69.524 Y-2.545
N1965 X69.339 Y-2.638
N1966 X69.148 Y-2.717
N1967 X68.951 Y-2.783
N1968 X68.751 Y-2.834
N1969 X68.547 Y-2.87
N1970 X68.341 Y-2.893
N1971 X68.134 Y-2.9
N1972 X45.701
N1973 X45.494 Y-2.893
N1974 X45.288 Y-2.87
N1975 X45.084 Y-2.834
N1976 X44.884 Y-2.783
N1977 X44.687 Y-2.717
N1978 X44.496 Y-2.638
N1979 X44.311 Y-2.545
N1980 X44.133 Y-2.44
N1981 X43.963 Y-2.322
N1982 X43.802 Y-2.192
N1983 X43.65 Y-2.051
N1984 X43.509 Y-1.899
N1985 X43.379 Y-1.738
N1986 X43.261 Y-1.568
N1987 X43.155 Y-1.39
N1988 X43.063 Y-1.205
N1989 X42.983 Y-1.013
N1990 X42.918 Y-0.817
N1991 X42.867 Y-0.616
N1992 X42.83 Y-0.413
N1993 X42.808 Y-0.207
N1994 X42.801 Y0
N1995 Y10.761
N1996 X0
N1997 X-0.212 Y10.769
N1998 X-0.422 Y10.792
N1999 X-0.631 Y10.83
N2000 X-0.836 Y10.884
N2001 X-1.036 Y10.952
N2002 X-1.231 Y11.035
N2003 X-1.42 Y11.132
N2004 X-1.601 Y11.243
N2005 X-1.773 Y11.366
N2006 X-1.936 Y11.502
N2007 X-2.088 Y11.649
N2008 X-2.23 Y11.807
N2009 X-2.359 Y11.974
N2010 X-2.476 Y12.151
N2011 X-2.58 Y12.336
N2012 X-2.67 Y12.528
N2013 X-2.745 Y12.726
N2014 X-2.806 Y12.929
N2015 X-2.852 Y13.136
N2016 X-2.883 Y13.345
N2017 X-2.898 Y13.557
N2018 Y13.769
N2019 X-2.882 Y13.98
N2020 X-2.851 Y14.19
N2021 X-2.805 Y14.396
N2022 X-2.744 Y14.599
N2023 X-2.668 Y14.797
N2024 X-2.578 Y14.989
N2025 X-2.474 Y15.174
N2026 X22.472 Y55.971
N2027 X12.467
N2028 X12.256 Y55.979
N2029 X12.045 Y56.002
N2030 X11.837 Y56.04
N2031 X11.632 Y56.094
N2032 X11.431 Y56.163
N2033 X11.236 Y56.245
N2034 X11.048 Y56.342
N2035 X10.867 Y56.453
N2036 X10.694 Y56.576
N2037 X10.532 Y56.712
N2038 X10.379 Y56.859
N2039 X10.238 Y57.017
N2040 X10.108 Y57.185
N2041 X9.991 Y57.361
N2042 X9.888 Y57.546
N2043 X9.798 Y57.738
N2044 X9.722 Y57.936
N2045 X9.661 Y58.139
N2046 X9.615 Y58.346
N2047 X9.585 Y58.556
N2048 X9.569 Y58.767
N2049 X9.57 Y58.979
N2050 X9.585 Y59.19
N2051 X9.616 Y59.4
N2052 X9.662 Y59.607
N2053 X9.724 Y59.809
N2054 X9.799 Y60.007
N2055 X9.89 Y60.199
N2056 X9.993 Y60.384
N2057 X34.498 Y100.458
N2058 X24.003
N2059 X23.792 Y100.466
N2060 X23.581 Y100.489
N2061 X23.373 Y100.527
N2062 X23.167 Y100.581
N2063 X22.967 Y100.65
N2064 X22.772 Y100.732
N2065 X22.583 Y100.829
N2066 X22.403 Y100.94
N2067 X22.23 Y101.063
N2068 X22.067 Y101.199
N2069 X21.915 Y101.346
N2070 X21.774 Y101.504
N2071 X21.644 Y101.672
N2072 X21.527 Y101.848
N2073 X21.424 Y102.033
N2074 X21.334 Y102.225
N2075 X21.258 Y102.423
N2076 X21.197 Y102.626
N2077 X21.151 Y102.833
N2078 X21.121 Y103.043
N2079 X21.105 Y103.254
N2080 Y103.466
N2081 X21.121 Y103.677
N2082 X21.152 Y103.887
N2083 X21.198 Y104.094
N2084 X21.259 Y104.296
N2085 X21.335 Y104.494
N2086 X21.425 Y104.686
N2087 X21.529 Y104.871
N2088 X46.953 Y146.45
N2089 X39.89
N2090 X37.479 Z13.961 F2500
N2091 X37.267 Y146.458 Z13.957
N2092 X37.056 Y146.481 Z13.954
N2093 X36.847 Y146.52 Z13.95
N2094 X36.642 Y146.573 Z13.947
N2095 X36.441 Y146.642 Z13.943
N2096 X36.245 Y146.725 Z13.94
N2097 X36.057 Y146.823 Z13.937
N2098 X35.876 Y146.933 Z13.933
N2099 X35.703 Y147.057 Z13.93
N2100 X35.54 Y147.193 Z13.926
N2101 X35.388 Y147.341 Z13.923
N2102 X35.246 Y147.499 Z13.919
N2103 X35.117 Y147.667 Z13.916
N2104 X35 Y147.844 Z13.912
N2105 X34.897 Y148.03 Z13.909
N2106 X34.807 Y148.222 Z13.905
N2107 X34.732 Y148.421 Z13.902
N2108 X34.671 Y148.624 Z13.899
N2109 X34.625 Y148.831 Z13.895
N2110 X34.595 Y149.041 Z13.892
N2111 X34.58 Y149.253 Z13.888
N2112 X34.581 Y149.465 Z13.885
N2113 X34.597 Y149.677 Z13.881
N2114 X34.629 Y149.887 Z13.878
N2115 X34.676 Y150.094 Z13.874
N2116 X34.738 Y150.297 Z13.871
N2117 X34.814 Y150.495 Z13.867
N2118 X34.905 Y150.687 Z13.864
N2119 X56.138 Y191.564 Z13.114
N2120 X49.489 Z13.006
N2121 X49.303 Y191.57 Z13.003
N2122 X49.117 Y191.588 Z13
N2123 X48.905 Y191.623 F2760
N2124 X48.696 Y191.674
N2125 X48.492 Y191.741
N2126 X48.293 Y191.822
N2127 X48.101 Y191.918
N2128 X47.917 Y192.027
N2129 X47.741 Y192.151
N2130 X47.574 Y192.286
N2131 X47.418 Y192.434
N2132 X47.274 Y192.593
N2133 X47.141 Y192.762
N2134 X47.022 Y192.94
N2135 X46.916 Y193.127
N2136 X46.824 Y193.321
N2137 X46.747 Y193.522
N2138 X46.685 Y193.727
N2139 X46.638 Y193.937
N2140 X46.606 Y194.149
N2141 X46.591 Y194.363
N2142 X46.592 Y194.578
N2143 X46.608 Y194.792
N2144 X46.64 Y195.004
N2145 X46.688 Y195.214
N2146 X46.751 Y195.419
N2147 X46.829 Y195.619
N2148 X46.922 Y195.813
N2149 X47.029 Y195.999
N2150 X73.564 Y238.531
N2151 X73.681 Y238.705
N2152 X73.811 Y238.87
N2153 X73.952 Y239.025
N2154 X74.104 Y239.169
N2155 X74.267 Y239.303
N2156 X74.438 Y239.424
N2157 X74.618 Y239.532
N2158 X74.805 Y239.627
N2159 X74.998 Y239.708
N2160 X75.197 Y239.775
N2161 X75.4 Y239.828
N2162 X75.606 Y239.866
N2163 X75.815 Y239.888
N2164 X76.024 Y239.896
N2165 X76.234 Y239.888
N2166 X76.443 Y239.866
N2167 X76.649 Y239.828
N2168 X76.852 Y239.775
N2169 X77.051 Y239.708
N2170 X77.244 Y239.627
N2171 X77.431 Y239.532
N2172 X77.611 Y239.424
N2173 X77.782 Y239.303
N2174 X77.944 Y239.169
N2175 X78.096 Y239.025
N2176 X78.238 Y238.87
N2177 X78.367 Y238.705
N2178 X78.485 Y238.531
N2179 X105.02 Y195.999
N2180 X105.126 Y195.814
N2181 X105.218 Y195.623
N2182 X105.296 Y195.425
N2183 X105.359 Y195.221
N2184 X105.407 Y195.014
N2185 X105.44 Y194.804
N2186 X105.457 Y194.592
N2187 X105.459 Y194.379
N2188 X105.445 Y194.166
N2189 X105.415 Y193.956
N2190 X105.37 Y193.748
N2191 X105.31 Y193.544
N2192 X105.235 Y193.344
N2193 X105.146 Y193.151
N2194 X105.043 Y192.965
N2195 X104.926 Y192.787
N2196 X104.797 Y192.618
N2197 X104.655 Y192.459
N2198 X104.503 Y192.311
N2199 X104.339 Y192.174
N2200 X104.167 Y192.05
N2201 X103.985 Y191.938
N2202 X103.796 Y191.841
N2203 X103.601 Y191.757
N2204 X103.399 Y191.688
N2205 X103.193 Y191.634
N2206 X102.984 Y191.595
N2207 X102.773 Y191.572
N2208 X102.56 Y191.564
N2209 X95.911
N2210 X117.144 Y150.687
N2211 X117.234 Y150.495
N2212 X117.311 Y150.297
N2213 X117.373 Y150.094
N2214 X117.42 Y149.887
N2215 X117.451 Y149.677
N2216 X117.468 Y149.465
N2217 Y149.253
N2218 X117.454 Y149.041
N2219 X117.423 Y148.831
N2220 X117.378 Y148.624
N2221 X117.317 Y148.421
N2222 X117.242 Y148.222
N2223 X117.152 Y148.03
N2224 X117.049 Y147.844
N2225 X116.932 Y147.667
N2226 X116.802 Y147.499
N2227 X116.661 Y147.341
N2228 X116.508 Y147.193
N2229 X116.345 Y147.057
N2230 X116.173 Y146.933
N2231 X115.992 Y146.823
N2232 X115.803 Y146.725
N2233 X115.608 Y146.642
N2234 X115.407 Y146.573
N2235 X115.202 Y146.52
N2236 X114.993 Y146.481
N2237 X114.782 Y146.458
N2238 X114.57 Y146.45
N2239 X105.095
N2240 X130.52 Y104.871
N2241 X130.624 Y104.686
N2242 X130.714 Y104.494
N2243 X130.79 Y104.296
N2244 X130.851 Y104.094
N2245 X130.897 Y103.887
N2246 X130.928 Y103.677
N2247 X130.944 Y103.466
N2248 Y103.254
N2249 X130.929 Y103.043
N2250 X130.898 Y102.833
N2251 X130.852 Y102.626
N2252 X130.791 Y102.423
N2253 X130.716 Y102.225
N2254 X130.626 Y102.033
N2255 X130.522 Y101.848
N2256 X130.405 Y101.672
N2257 X130.276 Y101.504
N2258 X130.134 Y101.346
N2259 X129.982 Y101.199
N2260 X129.819 Y101.063
N2261 X129.647 Y100.94
N2262 X129.466 Y100.829
N2263 X129.277 Y100.732
N2264 X129.082 Y100.65
N2265 X128.882 Y100.581
N2266 X128.677 Y100.527
N2267 X128.468 Y100.489
N2268 X128.258 Y100.466
N2269 X128.046 Y100.458
N2270 X117.551
N2271 X142.055 Y60.384
N2272 X142.159 Y60.199
N2273 X142.249 Y60.007
N2274 X142.325 Y59.809
N2275 X142.386 Y59.607
N2276 X142.432 Y59.4
N2277 X142.463 Y59.19
N2278 X142.479 Y58.979
N2279 Y58.767
N2280 X142.464 Y58.556
N2281 X142.433 Y58.346
N2282 X142.387 Y58.139
N2283 X142.326 Y57.936
N2284 X142.251 Y57.738
N2285 X142.161 Y57.546
N2286 X142.057 Y57.361
N2287 X141.94 Y57.185
N2288 X141.811 Y57.017
N2289 X141.669 Y56.859
N2290 X141.517 Y56.712
N2291 X141.354 Y56.576
N2292 X141.182 Y56.453
N2293 X141.001 Y56.342
N2294 X140.812 Y56.245
N2295 X140.617 Y56.163
N2296 X140.417 Y56.094
N2297 X140.212 Y56.04
N2298 X140.003 Y56.002
N2299 X139.793 Y55.979
N2300 X139.581 Y55.971
N2301 X129.576
N2302 X154.523 Y15.174
N2303 X154.627 Y14.989
N2304 X154.717 Y14.797
N2305 X154.793 Y14.599
N2306 X154.854 Y14.396
N2307 X154.9 Y14.19
N2308 X154.931 Y13.98
N2309 X154.947 Y13.769
N2310 Y13.557
N2311 X154.932 Y13.345
N2312 X154.901 Y13.136
N2313 X154.855 Y12.929
N2314 X154.794 Y12.726
N2315 X154.719 Y12.528
N2316 X154.629 Y12.336
N2317 X154.525 Y12.151
N2318 X154.408 Y11.974
N2319 X154.279 Y11.807
N2320 X154.137 Y11.649
N2321 X153.985 Y11.502
N2322 X153.822 Y11.366
N2323 X153.65 Y11.243
N2324 X153.469 Y11.132
N2325 X153.28 Y11.035
N2326 X153.085 Y10.952
N2327 X152.885 Y10.884
N2328 X152.68 Y10.83
N2329 X152.471 Y10.792
N2330 X152.261 Y10.769
N2331 X152.049 Y10.761
N2332 X111.568
N2333 Y0
N2334 X111.561 Y-0.207
N2335 X111.538 Y-0.413
N2336 X111.502 Y-0.616
N2337 X111.451 Y-0.817
N2338 X111.385 Y-1.013
N2339 X111.306 Y-1.205
N2340 X111.213 Y-1.39
N2341 X111.108 Y-1.568
N2342 X110.99 Y-1.738
N2343 X110.86 Y-1.899
N2344 X110.719 Y-2.051
N2345 X110.567 Y-2.192
N2346 X110.406 Y-2.322
N2347 X110.236 Y-2.44
N2348 X110.058 Y-2.545
N2349 X109.873 Y-2.638
N2350 X109.681 Y-2.717
N2351 X109.485 Y-2.783
N2352 X109.284 Y-2.834
N2353 X109.081 Y-2.87
N2354 X108.875 Y-2.893
N2355 X108.668 Y-2.9
N2356 X86.184
N2357 X85.977 Y-2.893
N2358 X85.771 Y-2.87
N2359 X85.568 Y-2.834
N2360 X85.367 Y-2.783
N2361 X85.171 Y-2.717
N2362 X84.979 Y-2.638
N2363 X84.794 Y-2.545
N2364 X84.616 Y-2.44
N2365 X84.446 Y-2.322
N2366 X84.285 Y-2.192
N2367 X84.133 Y-2.051
N2368 X83.992 Y-1.899
N2369 X83.863 Y-1.738
N2370 X83.744 Y-1.568
N2371 X83.639 Y-1.39
N2372 X83.546 Y-1.205
N2373 X83.467 Y-1.013
N2374 X83.402 Y-0.817
N2375 X83.35 Y-0.616
N2376 X83.314 Y-0.413
N2377 X83.291 Y-0.207
N2378 X83.284 Y0
N2379 Y13.661
N2380 X83.29 Y13.84
N2381 X83.306 Y14.019
N2382 X83.334 Y14.197
N2383 Y118.757
N2384 X83.341 Y118.964
N2385 X83.364 Y119.17
N2386 X83.4 Y119.374
N2387 X83.452 Y119.574
N2388 X83.517 Y119.771
N2389 X83.596 Y119.962
N2390 X83.689 Y120.147
N2391 X83.795 Y120.325
N2392 X83.913 Y120.495
N2393 X84.043 Y120.657
N2394 X84.184 Y120.808
N2395 X84.206 Y120.841
N2396 X84.213 Y120.879
N2397 X84.206 Y120.917
N2398 X84.184 Y120.95
N2399 X84.151 Y120.971
N2400 X84.113 Y120.979
N2401 X84.075 Y120.971
N2402 X84.042 Y120.95
N2403 X83.891 Y120.809
N2404 X83.73 Y120.679
N2405 X83.559 Y120.561
N2406 X83.381 Y120.455
N2407 X83.196 Y120.362
N2408 X83.005 Y120.283
N2409 X82.809 Y120.218
N2410 X82.608 Y120.166
N2411 X82.404 Y120.13
N2412 X82.198 Y120.107
N2413 X81.991 Y120.1
N2414 X72.377
N2415 X72.17 Y120.107
N2416 X71.964 Y120.13
N2417 X71.76 Y120.166
N2418 X71.56 Y120.218
N2419 X71.363 Y120.283
N2420 X71.172 Y120.362
N2421 X70.987 Y120.455
N2422 X70.809 Y120.561
N2423 X70.639 Y120.679
N2424 X70.477 Y120.809
N2425 X70.326 Y120.95
N2426 X70.293 Y120.971
N2427 X70.255 Y120.979
N2428 X70.217 Y120.971
N2429 X70.184 Y120.95
N2430 X70.163 Y120.917
N2431 X70.155 Y120.879
N2432 X70.163 Y120.841
N2433 X70.184 Y120.808
N2434 X70.325 Y120.657
N2435 X70.455 Y120.495
N2436 X70.573 Y120.325
N2437 X70.679 Y120.147
N2438 X70.772 Y119.962
N2439 X70.851 Y119.771
N2440 X70.917 Y119.574
N2441 X70.968 Y119.374
N2442 X71.005 Y119.17
N2443 X71.027 Y118.964
N2444 X71.034 Y118.757
N2445 Y0
N2446 X71.027 Y-0.207
N2447 X71.005 Y-0.413
N2448 X70.968 Y-0.616
N2449 X70.917 Y-0.817
N2450 X70.851 Y-1.013
N2451 X70.772 Y-1.205
N2452 X70.679 Y-1.39
N2453 X70.574 Y-1.568
N2454 X70.456 Y-1.738
N2455 X70.326 Y-1.899
N2456 X70.185 Y-2.051
N2457 X70.033 Y-2.192
N2458 X69.872 Y-2.322
N2459 X69.702 Y-2.44
N2460 X69.524 Y-2.545
N2461 X69.339 Y-2.638
N2462 X69.148 Y-2.717
N2463 X68.951 Y-2.783
N2464 X68.751 Y-2.834
N2465 X68.547 Y-2.87
N2466 X68.341 Y-2.893
N2467 X68.134 Y-2.9
N2468 X45.701
N2469 X45.494 Y-2.893
N2470 X45.288 Y-2.87
N2471 X45.084 Y-2.834
N2472 X44.884 Y-2.783
N2473 X44.687 Y-2.717
N2474 X44.496 Y-2.638
N2475 X44.311 Y-2.545
N2476 X44.133 Y-2.44
N2477 X43.963 Y-2.322
N2478 X43.802 Y-2.192
N2479 X43.65 Y-2.051
N2480 X43.509 Y-1.899
N2481 X43.379 Y-1.738
N2482 X43.261 Y-1.568
N2483 X43.155 Y-1.39
N2484 X43.063 Y-1.205
N2485 X42.983 Y-1.013
N2486 X42.918 Y-0.817
N2487 X42.867 Y-0.616
N2488 X42.83 Y-0.413
N2489 X42.808 Y-0.207
N2490 X42.801 Y0
N2491 Y10.761
N2492 X0
N2493 X-0.212 Y10.769
N2494 X-0.422 Y10.792
N2495 X-0.631 Y10.83
N2496 X-0.836 Y10.884
N2497 X-1.036 Y10.952
N2498 X-1.231 Y11.035
N2499 X-1.42 Y11.132
N2500 X-1.601 Y11.243
N2501 X-1.773 Y11.366
N2502 X-1.936 Y11.502
N2503 X-2.088 Y11.649
N2504 X-2.23 Y11.807
N2505 X-2.359 Y11.974
N2506 X-2.476 Y12.151
N2507 X-2.58 Y12.336
N2508 X-2.67 Y12.528
N2509 X-2.745 Y12.726
N2510 X-2.806 Y12.929
N2511 X-2.852 Y13.136
N2512 X-2.883 Y13.345
N2513 X-2.898 Y13.557
N2514 Y13.769
N2515 X-2.882 Y13.98
N2516 X-2.851 Y14.19
N2517 X-2.805 Y14.396
N2518 X-2.744 Y14.599
N2519 X-2.668 Y14.797
N2520 X-2.578 Y14.989
N2521 X-2.474 Y15.174
N2522 X22.472 Y55.971
N2523 X12.467
N2524 X12.256 Y55.979
N2525 X12.045 Y56.002
N2526 X11.837 Y56.04
N2527 X11.632 Y56.094
N2528 X11.431 Y56.163
N2529 X11.236 Y56.245
N2530 X11.048 Y56.342
N2531 X10.867 Y56.453
N2532 X10.694 Y56.576
N2533 X10.532 Y56.712
N2534 X10.379 Y56.859
N2535 X10.238 Y57.017
N2536 X10.108 Y57.185
N2537 X9.991 Y57.361
N2538 X9.888 Y57.546
N2539 X9.798 Y57.738
N2540 X9.722 Y57.936
N2541 X9.661 Y58.139
N2542 X9.615 Y58.346
N2543 X9.585 Y58.556
N2544 X9.569 Y58.767
N2545 X9.57 Y58.979
N2546 X9.585 Y59.19
N2547 X9.616 Y59.4
N2548 X9.662 Y59.607
N2549 X9.724 Y59.809
N2550 X9.799 Y60.007
N2551 X9.89 Y60.199
N2552 X9.993 Y60.384
N2553 X34.498 Y100.458
N2554 X24.003
N2555 X23.792 Y100.466
N2556 X23.581 Y100.489
N2557 X23.373 Y100.527
N2558 X23.167 Y100.581
N2559 X22.967 Y100.65
N2560 X22.772 Y100.732
N2561 X22.583 Y100.829
N2562 X22.403 Y100.94
N2563 X22.23 Y101.063
N2564 X22.067 Y101.199
N2565 X21.915 Y101.346
N2566 X21.774 Y101.504
N2567 X21.644 Y101.672
N2568 X21.527 Y101.848
N2569 X21.424 Y102.033
N2570 X21.334 Y102.225
N2571 X21.258 Y102.423
N2572 X21.197 Y102.626
N2573 X21.151 Y102.833
N2574 X21.121 Y103.043
N2575 X21.105 Y103.254
N2576 Y103.466
N2577 X21.121 Y103.677
N2578 X21.152 Y103.887
N2579 X21.198 Y104.094
N2580 X21.259 Y104.296
N2581 X21.335 Y104.494
N2582 X21.425 Y104.686
N2583 X21.529 Y104.871
N2584 X46.953 Y146.45
N2585 X39.89
N2586 X37.479
N2587 X37.267 Y146.458
N2588 X37.056 Y146.481
N2589 X36.847 Y146.52
N2590 X36.642 Y146.573
N2591 X36.441 Y146.642
N2592 X36.245 Y146.725
N2593 X36.057 Y146.823
N2594 X35.876 Y146.933
N2595 X35.703 Y147.057
N2596 X35.54 Y147.193
N2597 X35.388 Y147.341
N2598 X35.246 Y147.499
N2599 X35.117 Y147.667
N2600 X35 Y147.844
N2601 X34.897 Y148.03
N2602 X34.807 Y148.222
N2603 X34.732 Y148.421
N2604 X34.671 Y148.624
N2605 X34.625 Y148.831
N2606 X34.595 Y149.041
N2607 X34.58 Y149.253
N2608 X34.581 Y149.465
N2609 X34.597 Y149.677
N2610 X34.629 Y149.887
N2611 X34.676 Y150.094
N2612 X34.738 Y150.297
N2613 X34.814 Y150.495
N2614 X34.905 Y150.687
N2615 X56.138 Y191.564
N2616 X49.489
N2617 X49.303 Y191.57
N2618 X49.117 Y191.588
N2619 X48.905 Y191.623 Z12.997 F2500
N2620 X48.696 Y191.674 Z12.993
N2621 X48.492 Y191.741 Z12.99
N2622 X48.293 Y191.822 Z12.986
N2623 X48.101 Y191.918 Z12.983
N2624 X47.917 Y192.027 Z12.979
N2625 X47.741 Y192.151 Z12.976
N2626 X47.574 Y192.286 Z12.972
N2627 X47.418 Y192.434 Z12.969
N2628 X47.274 Y192.593 Z12.965
N2629 X47.141 Y192.762 Z12.962
N2630 X47.022 Y192.94 Z12.958
N2631 X46.916 Y193.127 Z12.955
N2632 X46.824 Y193.321 Z12.951
N2633 X46.747 Y193.522 Z12.948
N2634 X46.685 Y193.727 Z12.944
N2635 X46.638 Y193.937 Z12.941
N2636 X46.606 Y194.149 Z12.937
N2637 X46.591 Y194.363 Z12.934
N2638 X46.592 Y194.578 Z12.93
N2639 X46.608 Y194.792 Z12.927
N2640 X46.64 Y195.004 Z12.923
N2641 X46.688 Y195.214 Z12.92
N2642 X46.751 Y195.419 Z12.916
N2643 X46.829 Y195.619 Z12.913
N2644 X46.922 Y195.813 Z12.909
N2645 X47.029 Y195.999 Z12.906
N2646 X73.564 Y238.531 Z12.09
N2647 X73.683 Y238.707 Z12.086
N2648 X73.814 Y238.873 Z12.083
N2649 X73.957 Y239.029 Z12.079
N2650 X74.111 Y239.175 Z12.076
N2651 X74.275 Y239.309 Z12.072
N2652 X74.449 Y239.43 Z12.069
N2653 X74.631 Y239.539 Z12.066
N2654 X74.82 Y239.634 Z12.062
N2655 X75.016 Y239.715 Z12.059
N2656 X75.217 Y239.781 Z12.055
N2657 X75.423 Y239.833 Z12.052
N2658 X75.631 Y239.869 Z12.048
N2659 X75.842 Y239.89 Z12.045
N2660 X76.054 Y239.896 Z12.041
N2661 X76.266 Y239.886 Z12.038
N2662 X76.476 Y239.861 Z12.034
N2663 X76.684 Y239.82 Z12.031
N2664 X76.889 Y239.764 Z12.028
N2665 X77.088 Y239.694 Z12.024
N2666 X77.283 Y239.609 Z12.021
N2667 X77.47 Y239.51 Z12.017
N2668 X77.65 Y239.398 Z12.014
N2669 X77.821 Y239.273 Z12.01
N2670 X77.982 Y239.135 Z12.007
N2671 X78.133 Y238.987 Z12.003
N2672 X78.273 Y238.827 Z12
N2673 X78.384 Y238.683 F2760
N2674 X78.485 Y238.531
N2675 X105.02 Y195.999
N2676 X105.126 Y195.814
N2677 X105.218 Y195.623
N2678 X105.296 Y195.425
N2679 X105.359 Y195.221
N2680 X105.407 Y195.014
N2681 X105.44 Y194.804
N2682 X105.457 Y194.592
N2683 X105.459 Y194.379
N2684 X105.445 Y194.166
N2685 X105.415 Y193.956
N2686 X105.37 Y193.748
N2687 X105.31 Y193.544
N2688 X105.235 Y193.344
N2689 X105.146 Y193.151
N2690 X105.043 Y192.965
N2691 X104.926 Y192.787
N2692 X104.797 Y192.618
N2693 X104.655 Y192.459
N2694 X104.503 Y192.311
N2695 X104.339 Y192.174
N2696 X104.167 Y192.05
N2697 X103.985 Y191.938
N2698 X103.796 Y191.841
N2699 X103.601 Y191.757
N2700 X103.399 Y191.688
N2701 X103.193 Y191.634
N2702 X102.984 Y191.595
N2703 X102.773 Y191.572
N2704 X102.56 Y191.564
N2705 X95.911
N2706 X117.144 Y150.687
N2707 X117.234 Y150.495
N2708 X117.311 Y150.297
N2709 X117.373 Y150.094
N2710 X117.42 Y149.887
N2711 X117.451 Y149.677
N2712 X117.468 Y149.465
N2713 Y149.253
N2714 X117.454 Y149.041
N2715 X117.423 Y148.831
N2716 X117.378 Y148.624
N2717 X117.317 Y148.421
N2718 X117.242 Y148.222
N2719 X117.152 Y148.03
N2720 X117.049 Y147.844
N2721 X116.932 Y147.667
N2722 X116.802 Y147.499
N2723 X116.661 Y147.341
N2724 X116.508 Y147.193
N2725 X116.345 Y147.057
N2726 X116.173 Y146.933
N2727 X115.992 Y146.823
N2728 X115.803 Y146.725
N2729 X115.608 Y146.642
N2730 X115.407 Y146.573
N2731 X115.202 Y146.52
N2732 X114.993 Y146.481
N2733 X114.782 Y146.458
N2734 X114.57 Y146.45
N2735 X105.095
N2736 X130.52 Y104.871
N2737 X130.624 Y104.686
N2738 X130.714 Y104.494
N2739 X130.79 Y104.296
N2740 X130.851 Y104.094
N2741 X130.897 Y103.887
N2742 X130.928 Y103.677
N2743 X130.944 Y103.466
N2744 Y103.254
N2745 X130.929 Y103.043
N2746 X130.898 Y102.833
N2747 X130.852 Y102.626
N2748 X130.791 Y102.423
N2749 X130.716 Y102.225
N2750 X130.626 Y102.033
N2751 X130.522 Y101.848
N2752 X130.405 Y101.672
N2753 X130.276 Y101.504
N2754 X130.134 Y101.346
N2755 X129.982 Y101.199
N2756 X129.819 Y101.063
N2757 X129.647 Y100.94
N2758 X129.466 Y100.829
N2759 X129.277 Y100.732
N2760 X129.082 Y100.65
N2761 X128.882 Y100.581
N2762 X128.677 Y100.527
N2763 X128.468 Y100.489
N2764 X128.258 Y100.466
N2765 X128.046 Y100.458
N2766 X117.551
N2767 X142.055 Y60.384
N2768 X142.159 Y60.199
N2769 X142.249 Y60.007
N2770 X142.325 Y59.809
N2771 X142.386 Y59.607
N2772 X142.432 Y59.4
N2773 X142.463 Y59.19
N2774 X142.479 Y58.979
N2775 Y58.767
N2776 X142.464 Y58.556
N2777 X142.433 Y58.346
N2778 X142.387 Y58.139
N2779 X142.326 Y57.936
N2780 X142.251 Y57.738
N2781 X142.161 Y57.546
N2782 X142.057 Y57.361
N2783 X141.94 Y57.185
N2784 X141.811 Y57.017
N2785 X141.669 Y56.859
N2786 X141.517 Y56.712
N2787 X141.354 Y56.576
N2788 X141.182 Y56.453
N2789 X141.001 Y56.342
N2790 X140.812 Y56.245
N2791 X140.617 Y56.163
N2792 X140.417 Y56.094
N2793 X140.212 Y56.04
N2794 X140.003 Y56.002
N2795 X139.793 Y55.979
N2796 X139.581 Y55.971
N2797 X129.576
N2798 X154.523 Y15.174
N2799 X154.627 Y14.989
N2800 X154.717 Y14.797
N2801 X154.793 Y14.599
N2802 X154.854 Y14.396
N2803 X154.9 Y14.19
N2804 X154.931 Y13.98
N2805 X154.947 Y13.769
N2806 Y13.557
N2807 X154.932 Y13.345
N2808 X154.901 Y13.136
N2809 X154.855 Y12.929
N2810 X154.794 Y12.726
N2811 X154.719 Y12.528
N2812 X154.629 Y12.336
N2813 X154.525 Y12.151
N2814 X154.408 Y11.974
N2815 X154.279 Y11.807
N2816 X154.137 Y11.649
N2817 X153.985 Y11.502
N2818 X153.822 Y11.366
N2819 X153.65 Y11.243
N2820 X153.469 Y11.132
N2821 X153.28 Y11.035
N2822 X153.085 Y10.952
N2823 X152.885 Y10.884
N2824 X152.68 Y10.83
N2825 X152.471 Y10.792
N2826 X152.261 Y10.769
N2827 X152.049 Y10.761
N2828 X111.568
N2829 Y0
N2830 X111.561 Y-0.207
N2831 X111.538 Y-0.413
N2832 X111.502 Y-0.616
N2833 X111.451 Y-0.817
N2834 X111.385 Y-1.013
N2835 X111.306 Y-1.205
N2836 X111.213 Y-1.39
N2837 X111.108 Y-1.568
N2838 X110.99 Y-1.738
N2839 X110.86 Y-1.899
N2840 X110.719 Y-2.051
N2841 X110.567 Y-2.192
N2842 X110.406 Y-2.322
N2843 X110.236 Y-2.44
N2844 X110.058 Y-2.545
N2845 X109.873 Y-2.638
N2846 X109.681 Y-2.717
N2847 X109.485 Y-2.783
N2848 X109.284 Y-2.834
N2849 X109.081 Y-2.87
N2850 X108.875 Y-2.893
N2851 X108.668 Y-2.9
N2852 X86.184
N2853 X85.977 Y-2.893
N2854 X85.771 Y-2.87
N2855 X85.568 Y-2.834
N2856 X85.367 Y-2.783
N2857 X85.171 Y-2.717
N2858 X84.979 Y-2.638
N2859 X84.794 Y-2.545
N2860 X84.616 Y-2.44
N2861 X84.446 Y-2.322
N2862 X84.285 Y-2.192
N2863 X84.133 Y-2.051
N2864 X83.992 Y-1.899
N2865 X83.863 Y-1.738
N2866 X83.744 Y-1.568
N2867 X83.639 Y-1.39
N2868 X83.546 Y-1.205
N2869 X83.467 Y-1.013
N2870 X83.402 Y-0.817
N2871 X83.35 Y-0.616
N2872 X83.314 Y-0.413
N2873 X83.291 Y-0.207
N2874 X83.284 Y0
N2875 Y13.661
N2876 X83.29 Y13.84
N2877 X83.306 Y14.019
N2878 X83.334 Y14.197
N2879 Y118.757
N2880 X83.341 Y118.964
N2881 X83.364 Y119.17
N2882 X83.4 Y119.374
N2883 X83.452 Y119.574
N2884 X83.517 Y119.771
N2885 X83.596 Y119.962
N2886 X83.689 Y120.147
N2887 X83.795 Y120.325
N2888 X83.913 Y120.495
N2889 X84.043 Y120.657
N2890 X84.184 Y120.808
N2891 X84.206 Y120.841
N2892 X84.213 Y120.879
N2893 X84.206 Y120.917
N2894 X84.184 Y120.95
N2895 X84.151 Y120.971
N2896 X84.113 Y120.979
N2897 X84.075 Y120.971
N2898 X84.042 Y120.95
N2899 X83.891 Y120.809
N2900 X83.73 Y120.679
N2901 X83.559 Y120.561
N2902 X83.381 Y120.455
N2903 X83.196 Y120.362
N2904 X83.005 Y120.283
N2905 X82.809 Y120.218
N2906 X82.608 Y120.166
N2907 X82.404 Y120.13
N2908 X82.198 Y120.107
N2909 X81.991 Y120.1
N2910 X72.377
N2911 X72.17 Y120.107
N2912 X71.964 Y120.13
N2913 X71.76 Y120.166
N2914 X71.56 Y120.218
N2915 X71.363 Y120.283
N2916 X71.172 Y120.362
N2917 X70.987 Y120.455
N2918 X70.809 Y120.561
N2919 X70.639 Y120.679
N2920 X70.477 Y120.809
N2921 X70.326 Y120.95
N2922 X70.293 Y120.971
N2923 X70.255 Y120.979
N2924 X70.217 Y120.971
N2925 X70.184 Y120.95
N2926 X70.163 Y120.917
N2927 X70.155 Y120.879
N2928 X70.163 Y120.841
N2929 X70.184 Y120.808
N2930 X70.325 Y120.657
N2931 X70.455 Y120.495
N2932 X70.573 Y120.325
N2933 X70.679 Y120.147
N2934 X70.772 Y119.962
N2935 X70.851 Y119.771
N2936 X70.917 Y119.574
N2937 X70.968 Y119.374
N2938 X71.005 Y119.17
N2939 X71.027 Y118.964
N2940 X71.034 Y118.757
N2941 Y0
N2942 X71.027 Y-0.207
N2943 X71.005 Y-0.413
N2944 X70.968 Y-0.616
N2945 X70.917 Y-0.817
N2946 X70.851 Y-1.013
N2947 X70.772 Y-1.205
N2948 X70.679 Y-1.39
N2949 X70.574 Y-1.568
N2950 X70.456 Y-1.738
N2951 X70.326 Y-1.899
N2952 X70.185 Y-2.051
N2953 X70.033 Y-2.192
N2954 X69.872 Y-2.322
N2955 X69.702 Y-2.44
N2956 X69.524 Y-2.545
N2957 X69.339 Y-2.638
N2958 X69.148 Y-2.717
N2959 X68.951 Y-2.783
N2960 X68.751 Y-2.834
N2961 X68.547 Y-2.87
N2962 X68.341 Y-2.893
N2963 X68.134 Y-2.9
N2964 X45.701
N2965 X45.494 Y-2.893
N2966 X45.288 Y-2.87
N2967 X45.084 Y-2.834
N2968 X44.884 Y-2.783
N2969 X44.687 Y-2.717
N2970 X44.496 Y-2.638
N2971 X44.311 Y-2.545
N2972 X44.133 Y-2.44
N2973 X43.963 Y-2.322
N2974 X43.802 Y-2.192
N2975 X43.65 Y-2.051
N2976 X43.509 Y-1.899
N2977 X43.379 Y-1.738
N2978 X43.261 Y-1.568
N2979 X43.155 Y-1.39
N2980 X43.063 Y-1.205
N2981 X42.983 Y-1.013
N2982 X42.918 Y-0.817
N2983 X42.867 Y-0.616
N2984 X42.83 Y-0.413
N2985 X42.808 Y-0.207
N2986 X42.801 Y0
N2987 Y10.761
N2988 X0
N2989 X-0.212 Y10.769
N2990 X-0.422 Y10.792
N2991 X-0.631 Y10.83
N2992 X-0.836 Y10.884
N2993 X-1.036 Y10.952
N2994 X-1.231 Y11.035
N2995 X-1.42 Y11.132
N2996 X-1.601 Y11.243
N2997 X-1.773 Y11.366
N2998 X-1.936 Y11.502
N2999 X-2.088 Y11.649
N3000 X-2.23 Y11.807
N3001 X-2.359 Y11.974
N3002 X-2.476 Y12.151
N3003 X-2.58 Y12.336
N3004 X-2.67 Y12.528
N3005 X-2.745 Y12.726
N3006 X-2.806 Y12.929
N3007 X-2.852 Y13.136
N3008 X-2.883 Y13.345
N3009 X-2.898 Y13.557
N3010 Y13.769
N3011 X-2.882 Y13.98
N3012 X-2.851 Y14.19
N3013 X-2.805 Y14.396
N3014 X-2.744 Y14.599
N3015 X-2.668 Y14.797
N3016 X-2.578 Y14.989
N3017 X-2.474 Y15.174
N3018 X22.472 Y55.971
N3019 X12.467
N3020 X12.256 Y55.979
N3021 X12.045 Y56.002
N3022 X11.837 Y56.04
N3023 X11.632 Y56.094
N3024 X11.431 Y56.163
N3025 X11.236 Y56.245
N3026 X11.048 Y56.342
N3027 X10.867 Y56.453
N3028 X10.694 Y56.576
N3029 X10.532 Y56.712
N3030 X10.379 Y56.859
N3031 X10.238 Y57.017
N3032 X10.108 Y57.185
N3033 X9.991 Y57.361
N3034 X9.888 Y57.546
N3035 X9.798 Y57.738
N3036 X9.722 Y57.936
N3037 X9.661 Y58.139
N3038 X9.615 Y58.346
N3039 X9.585 Y58.556
N3040 X9.569 Y58.767
N3041 X9.57 Y58.979
N3042 X9.585 Y59.19
N3043 X9.616 Y59.4
N3044 X9.662 Y59.607
N3045 X9.724 Y59.809
N3046 X9.799 Y60.007
N3047 X9.89 Y60.199
N3048 X9.993 Y60.384
N3049 X34.498 Y100.458
N3050 X24.003
N3051 X23.792 Y100.466
N3052 X23.581 Y100.489
N3053 X23.373 Y100.527
N3054 X23.167 Y100.581
N3055 X22.967 Y100.65
N3056 X22.772 Y100.732
N3057 X22.583 Y100.829
N3058 X22.403 Y100.94
N3059 X22.23 Y101.063
N3060 X22.067 Y101.199
N3061 X21.915 Y101.346
N3062 X21.774 Y101.504
N3063 X21.644 Y101.672
N3064 X21.527 Y101.848
N3065 X21.424 Y102.033
N3066 X21.334 Y102.225
N3067 X21.258 Y102.423
N3068 X21.197 Y102.626
N3069 X21.151 Y102.833
N3070 X21.121 Y103.043
N3071 X21.105 Y103.254
N3072 Y103.466
N3073 X21.121 Y103.677
N3074 X21.152 Y103.887
N3075 X21.198 Y104.094
N3076 X21.259 Y104.296
N3077 X21.335 Y104.494
N3078 X21.425 Y104.686
N3079 X21.529 Y104.871
N3080 X46.953 Y146.45
N3081 X37.479
N3082 X37.267 Y146.458
N3083 X37.056 Y146.481
N3084 X36.847 Y146.52
N3085 X36.642 Y146.573
N3086 X36.441 Y146.642
N3087 X36.245 Y146.725
N3088 X36.057 Y146.823
N3089 X35.876 Y146.933
N3090 X35.703 Y147.057
N3091 X35.54 Y147.193
N3092 X35.388 Y147.341
N3093 X35.246 Y147.499
N3094 X35.117 Y147.667
N3095 X35 Y147.844
N3096 X34.897 Y148.03
N3097 X34.807 Y148.222
N3098 X34.732 Y148.421
N3099 X34.671 Y148.624
N3100 X34.625 Y148.831
N3101 X34.595 Y149.041
N3102 X34.58 Y149.253
N3103 X34.581 Y149.465
N3104 X34.597 Y149.677
N3105 X34.629 Y149.887
N3106 X34.676 Y150.094
N3107 X34.738 Y150.297
N3108 X34.814 Y150.495
N3109 X34.905 Y150.687
N3110 X56.138 Y191.564
N3111 X49.489
N3112 X49.277 Y191.572
N3113 X49.065 Y191.595
N3114 X48.856 Y191.634
N3115 X48.65 Y191.688
N3116 X48.449 Y191.757
N3117 X48.253 Y191.841
N3118 X48.064 Y191.938
N3119 X47.883 Y192.05
N3120 X47.71 Y192.174
N3121 X47.547 Y192.311
N3122 X47.394 Y192.459
N3123 X47.253 Y192.618
N3124 X47.123 Y192.787
N3125 X47.007 Y192.965
N3126 X46.903 Y193.151
N3127 X46.814 Y193.344
N3128 X46.739 Y193.544
N3129 X46.679 Y193.748
N3130 X46.634 Y193.956
N3131 X46.605 Y194.166
N3132 X46.591 Y194.379
N3133 X46.592 Y194.592
N3134 X46.609 Y194.804
N3135 X46.642 Y195.014
N3136 X46.69 Y195.221
N3137 X46.753 Y195.425
N3138 X46.831 Y195.623
N3139 X46.923 Y195.814
N3140 X47.029 Y195.999
N3141 X73.564 Y238.531
N3142 X73.683 Y238.707
N3143 X73.814 Y238.873
N3144 X73.957 Y239.029
N3145 X74.111 Y239.175
N3146 X74.275 Y239.309
N3147 X74.449 Y239.43
N3148 X74.631 Y239.539
N3149 X74.82 Y239.634
N3150 X75.016 Y239.715
N3151 X75.217 Y239.781
N3152 X75.423 Y239.833
N3153 X75.631 Y239.869
N3154 X75.842 Y239.89
N3155 X76.054 Y239.896
N3156 X76.266 Y239.886
N3157 X76.476 Y239.861
N3158 X76.684 Y239.82
N3159 X76.889 Y239.764
N3160 X77.088 Y239.694
N3161 X77.283 Y239.609
N3162 X77.47 Y239.51
N3163 X77.65 Y239.398
N3164 X77.821 Y239.273
N3165 X77.982 Y239.135
N3166 X78.133 Y238.987
N3167 X78.273 Y238.827
N3168 X78.384 Y238.683 Z11.997 F2500
N3169 X78.485 Y238.531 Z11.994
N3170 X105.02 Y195.999 Z11.178
N3171 X105.126 Y195.814 Z11.175
N3172 X105.218 Y195.623 Z11.171
N3173 X105.296 Y195.425 Z11.168
N3174 X105.359 Y195.221 Z11.164
N3175 X105.407 Y195.014 Z11.161
N3176 X105.44 Y194.804 Z11.157
N3177 X105.457 Y194.592 Z11.154
N3178 X105.459 Y194.379 Z11.15
N3179 X105.445 Y194.166 Z11.147
N3180 X105.415 Y193.956 Z11.143
N3181 X105.37 Y193.748 Z11.14
N3182 X105.31 Y193.544 Z11.137
N3183 X105.235 Y193.344 Z11.133
N3184 X105.146 Y193.151 Z11.13
N3185 X105.043 Y192.965 Z11.126
N3186 X104.926 Y192.787 Z11.123
N3187 X104.797 Y192.618 Z11.119
N3188 X104.655 Y192.459 Z11.116
N3189 X104.503 Y192.311 Z11.112
N3190 X104.339 Y192.174 Z11.109
N3191 X104.167 Y192.05 Z11.105
N3192 X103.985 Y191.938 Z11.102
N3193 X103.796 Y191.841 Z11.098
N3194 X103.601 Y191.757 Z11.095
N3195 X103.399 Y191.688 Z11.092
N3196 X103.193 Y191.634 Z11.088
N3197 X102.984 Y191.595 Z11.085
N3198 X102.773 Y191.572 Z11.081
N3199 X102.56 Y191.564 Z11.078
N3200 X97.788 Z11
N3201 X95.911 F2760
N3202 X117.144 Y150.687
N3203 X117.234 Y150.495
N3204 X117.311 Y150.297
N3205 X117.373 Y150.094
N3206 X117.42 Y149.887
N3207 X117.451 Y149.677
N3208 X117.468 Y149.465
N3209 Y149.253
N3210 X117.454 Y149.041
N3211 X117.423 Y148.831
N3212 X117.378 Y148.624
N3213 X117.317 Y148.421
N3214 X117.242 Y148.222
N3215 X117.152 Y148.03
N3216 X117.049 Y147.844
N3217 X116.932 Y147.667
N3218 X116.802 Y147.499
N3219 X116.661 Y147.341
N3220 X116.508 Y147.193
N3221 X116.345 Y147.057
N3222 X116.173 Y146.933
N3223 X115.992 Y146.823
N3224 X115.803 Y146.725
N3225 X115.608 Y146.642
N3226 X115.407 Y146.573
N3227 X115.202 Y146.52
N3228 X114.993 Y146.481
N3229 X114.782 Y146.458
N3230 X114.57 Y146.45
N3231 X105.095
N3232 X130.52 Y104.871
N3233 X130.624 Y104.686
N3234 X130.714 Y104.494
N3235 X130.79 Y104.296
N3236 X130.851 Y104.094
N3237 X130.897 Y103.887
N3238 X130.928 Y103.677
N3239 X130.944 Y103.466
N3240 Y103.254
N3241 X130.929 Y103.043
N3242 X130.898 Y102.833
N3243 X130.852 Y102.626
N3244 X130.791 Y102.423
N3245 X130.716 Y102.225
N3246 X130.626 Y102.033
N3247 X130.522 Y101.848
N3248 X130.405 Y101.672
N3249 X130.276 Y101.504
N3250 X130.134 Y101.346
N3251 X129.982 Y101.199
N3252 X129.819 Y101.063
N3253 X129.647 Y100.94
N3254 X129.466 Y100.829
N3255 X129.277 Y100.732
N3256 X129.082 Y100.65
N3257 X128.882 Y100.581
N3258 X128.677 Y100.527
N3259 X128.468 Y100.489
N3260 X128.258 Y100.466
N3261 X128.046 Y100.458
N3262 X117.551
N3263 X142.055 Y60.384
N3264 X142.159 Y60.199
N3265 X142.249 Y60.007
N3266 X142.325 Y59.809
N3267 X142.386 Y59.607
N3268 X142.432 Y59.4
N3269 X142.463 Y59.19
N3270 X142.479 Y58.979
N3271 Y58.767
N3272 X142.464 Y58.556
N3273 X142.433 Y58.346
N3274 X142.387 Y58.139
N3275 X142.326 Y57.936
N3276 X142.251 Y57.738
N3277 X142.161 Y57.546
N3278 X142.057 Y57.361
N3279 X141.94 Y57.185
N3280 X141.811 Y57.017
N3281 X141.669 Y56.859
N3282 X141.517 Y56.712
N3283 X141.354 Y56.576
N3284 X141.182 Y56.453
N3285 X141.001 Y56.342
N3286 X140.812 Y56.245
N3287 X140.617 Y56.163
N3288 X140.417 Y56.094
N3289 X140.212 Y56.04
N3290 X140.003 Y56.002
N3291 X139.793 Y55.979
N3292 X139.581 Y55.971
N3293 X129.576
N3294 X154.523 Y15.174
N3295 X154.627 Y14.989
N3296 X154.717 Y14.797
N3297 X154.793 Y14.599
N3298 X154.854 Y14.396
N3299 X154.9 Y14.19
N3300 X154.931 Y13.98
N3301 X154.947 Y13.769
N3302 Y13.557
N3303 X154.932 Y13.345
N3304 X154.901 Y13.136
N3305 X154.855 Y12.929
N3306 X154.794 Y12.726
N3307 X154.719 Y12.528
N3308 X154.629 Y12.336
N3309 X154.525 Y12.151
N3310 X154.408 Y11.974
N3311 X154.279 Y11.807
N3312 X154.137 Y11.649
N3313 X153.985 Y11.502
N3314 X153.822 Y11.366
N3315 X153.65 Y11.243
N3316 X153.469 Y11.132
N3317 X153.28 Y11.035
N3318 X153.085 Y10.952
N3319 X152.885 Y10.884
N3320 X152.68 Y10.83
N3321 X152.471 Y10.792
N3322 X152.261 Y10.769
N3323 X152.049 Y10.761
N3324 X111.568
N3325 Y0
N3326 X111.561 Y-0.207
N3327 X111.538 Y-0.413
N3328 X111.502 Y-0.616
N3329 X111.451 Y-0.817
N3330 X111.385 Y-1.013
N3331 X111.306 Y-1.205
N3332 X111.213 Y-1.39
N3333 X111.108 Y-1.568
N3334 X110.99 Y-1.738
N3335 X110.86 Y-1.899
N3336 X110.719 Y-2.051
N3337 X110.567 Y-2.192
N3338 X110.406 Y-2.322
N3339 X110.236 Y-2.44
N3340 X110.058 Y-2.545
N3341 X109.873 Y-2.638
N3342 X109.681 Y-2.717
N3343 X109.485 Y-2.783
N3344 X109.284 Y-2.834
N3345 X109.081 Y-2.87
N3346 X108.875 Y-2.893
N3347 X108.668 Y-2.9
N3348 X86.184
N3349 X85.977 Y-2.893
N3350 X85.771 Y-2.87
N3351 X85.568 Y-2.834
N3352 X85.367 Y-2.783
N3353 X85.171 Y-2.717
N3354 X84.979 Y-2.638
N3355 X84.794 Y-2.545
N3356 X84.616 Y-2.44
N3357 X84.446 Y-2.322
N3358 X84.285 Y-2.192
N3359 X84.133 Y-2.051
N3360 X83.992 Y-1.899
N3361 X83.863 Y-1.738
N3362 X83.744 Y-1.568
N3363 X83.639 Y-1.39
N3364 X83.546 Y-1.205
N3365 X83.467 Y-1.013
N3366 X83.402 Y-0.817
N3367 X83.35 Y-0.616
N3368 X83.314 Y-0.413
N3369 X83.291 Y-0.207
N3370 X83.284 Y0
N3371 Y13.661
N3372 X83.29 Y13.84
N3373 X83.306 Y14.019
N3374 X83.334 Y14.197
N3375 Y118.757
N3376 X83.341 Y118.964
N3377 X83.364 Y119.17
N3378 X83.4 Y119.374
N3379 X83.452 Y119.574
N3380 X83.517 Y119.771
N3381 X83.596 Y119.962
N3382 X83.689 Y120.147
N3383 X83.795 Y120.325
N3384 X83.913 Y120.495
N3385 X84.043 Y120.657
N3386 X84.184 Y120.808
N3387 X84.206 Y120.841
N3388 X84.213 Y120.879
N3389 X84.206 Y120.917
N3390 X84.184 Y120.95
N3391 X84.151 Y120.971
N3392 X84.113 Y120.979
N3393 X84.075 Y120.971
N3394 X84.042 Y120.95
N3395 X83.891 Y120.809
N3396 X83.73 Y120.679
N3397 X83.559 Y120.561
N3398 X83.381 Y120.455
N3399 X83.196 Y120.362
N3400 X83.005 Y120.283
N3401 X82.809 Y120.218
N3402 X82.608 Y120.166
N3403 X82.404 Y120.13
N3404 X82.198 Y120.107
N3405 X81.991 Y120.1
N3406 X72.377
N3407 X72.17 Y120.107
N3408 X71.964 Y120.13
N3409 X71.76 Y120.166
N3410 X71.56 Y120.218
N3411 X71.363 Y120.283
N3412 X71.172 Y120.362
N3413 X70.987 Y120.455
N3414 X70.809 Y120.561
N3415 X70.639 Y120.679
N3416 X70.477 Y120.809
N3417 X70.326 Y120.95
N3418 X70.293 Y120.971
N3419 X70.255 Y120.979
N3420 X70.217 Y120.971
N3421 X70.184 Y120.95
N3422 X70.163 Y120.917
N3423 X70.155 Y120.879
N3424 X70.163 Y120.841
N3425 X70.184 Y120.808
N3426 X70.325 Y120.657
N3427 X70.455 Y120.495
N3428 X70.573 Y120.325
N3429 X70.679 Y120.147
N3430 X70.772 Y119.962
N3431 X70.851 Y119.771
N3432 X70.917 Y119.574
N3433 X70.968 Y119.374
N3434 X71.005 Y119.17
N3435 X71.027 Y118.964
N3436 X71.034 Y118.757
N3437 Y0
N3438 X71.027 Y-0.207
N3439 X71.005 Y-0.413
N3440 X70.968 Y-0.616
N3441 X70.917 Y-0.817
N3442 X70.851 Y-1.013
N3443 X70.772 Y-1.205
N3444 X70.679 Y-1.39
N3445 X70.574 Y-1.568
N3446 X70.456 Y-1.738
N3447 X70.326 Y-1.899
N3448 X70.185 Y-2.051
N3449 X70.033 Y-2.192
N3450 X69.872 Y-2.322
N3451 X69.702 Y-2.44
N3452 X69.524 Y-2.545
N3453 X69.339 Y-2.638
N3454 X69.148 Y-2.717
N3455 X68.951 Y-2.783
N3456 X68.751 Y-2.834
N3457 X68.547 Y-2.87
N3458 X68.341 Y-2.893
N3459 X68.134 Y-2.9
N3460 X45.701
N3461 X45.494 Y-2.893
N3462 X45.288 Y-2.87
N3463 X45.084 Y-2.834
N3464 X44.884 Y-2.783
N3465 X44.687 Y-2.717
N3466 X44.496 Y-2.638
N3467 X44.311 Y-2.545
N3468 X44.133 Y-2.44
N3469 X43.963 Y-2.322
N3470 X43.802 Y-2.192
N3471 X43.65 Y-2.051
N3472 X43.509 Y-1.899
N3473 X43.379 Y-1.738
N3474 X43.261 Y-1.568
N3475 X43.155 Y-1.39
N3476 X43.063 Y-1.205
N3477 X42.983 Y-1.013
N3478 X42.918 Y-0.817
N3479 X42.867 Y-0.616
N3480 X42.83 Y-0.413
N3481 X42.808 Y-0.207
N3482 X42.801 Y0
N3483 Y10.761
N3484 X0
N3485 X-0.212 Y10.769
N3486 X-0.422 Y10.792
N3487 X-0.631 Y10.83
N3488 X-0.836 Y10.884
N3489 X-1.036 Y10.952
N3490 X-1.231 Y11.035
N3491 X-1.42 Y11.132
N3492 X-1.601 Y11.243
N3493 X-1.773 Y11.366
N3494 X-1.936 Y11.502
N3495 X-2.088 Y11.649
N3496 X-2.23 Y11.807
N3497 X-2.359 Y11.974
N3498 X-2.476 Y12.151
N3499 X-2.58 Y12.336
N3500 X-2.67 Y12.528
N3501 X-2.745 Y12.726
N3502 X-2.806 Y12.929
N3503 X-2.852 Y13.136
N3504 X-2.883 Y13.345
N3505 X-2.898 Y13.557
N3506 Y13.769
N3507 X-2.882 Y13.98
N3508 X-2.851 Y14.19
N3509 X-2.805 Y14.396
N3510 X-2.744 Y14.599
N3511 X-2.668 Y14.797
N3512 X-2.578 Y14.989
N3513 X-2.474 Y15.174
N3514 X22.472 Y55.971
N3515 X12.467
N3516 X12.256 Y55.979
N3517 X12.045 Y56.002
N3518 X11.837 Y56.04
N3519 X11.632 Y56.094
N3520 X11.431 Y56.163
N3521 X11.236 Y56.245
N3522 X11.048 Y56.342
N3523 X10.867 Y56.453
N3524 X10.694 Y56.576
N3525 X10.532 Y56.712
N3526 X10.379 Y56.859
N3527 X10.238 Y57.017
N3528 X10.108 Y57.185
N3529 X9.991 Y57.361
N3530 X9.888 Y57.546
N3531 X9.798 Y57.738
N3532 X9.722 Y57.936
N3533 X9.661 Y58.139
N3534 X9.615 Y58.346
N3535 X9.585 Y58.556
N3536 X9.569 Y58.767
N3537 X9.57 Y58.979
N3538 X9.585 Y59.19
N3539 X9.616 Y59.4
N3540 X9.662 Y59.607
N3541 X9.724 Y59.809
N3542 X9.799 Y60.007
N3543 X9.89 Y60.199
N3544 X9.993 Y60.384
N3545 X34.498 Y100.458
N3546 X24.003
N3547 X23.792 Y100.466
N3548 X23.581 Y100.489
N3549 X23.373 Y100.527
N3550 X23.167 Y100.581
N3551 X22.967 Y100.65
N3552 X22.772 Y100.732
N3553 X22.583 Y100.829
N3554 X22.403 Y100.94
N3555 X22.23 Y101.063
N3556 X22.067 Y101.199
N3557 X21.915 Y101.346
N3558 X21.774 Y101.504
N3559 X21.644 Y101.672
N3560 X21.527 Y101.848
N3561 X21.424 Y102.033
N3562 X21.334 Y102.225
N3563 X21.258 Y102.423
N3564 X21.197 Y102.626
N3565 X21.151 Y102.833
N3566 X21.121 Y103.043
N3567 X21.105 Y103.254
N3568 Y103.466
N3569 X21.121 Y103.677
N3570 X21.152 Y103.887
N3571 X21.198 Y104.094
N3572 X21.259 Y104.296
N3573 X21.335 Y104.494
N3574 X21.425 Y104.686
N3575 X21.529 Y104.871
N3576 X46.953 Y146.45
N3577 X37.479
N3578 X37.267 Y146.458
N3579 X37.056 Y146.481
N3580 X36.847 Y146.52
N3581 X36.642 Y146.573
N3582 X36.441 Y146.642
N3583 X36.245 Y146.725
N3584 X36.057 Y146.823
N3585 X35.876 Y146.933
N3586 X35.703 Y147.057
N3587 X35.54 Y147.193
N3588 X35.388 Y147.341
N3589 X35.246 Y147.499
N3590 X35.117 Y147.667
N3591 X35 Y147.844
N3592 X34.897 Y148.03
N3593 X34.807 Y148.222
N3594 X34.732 Y148.421
N3595 X34.671 Y148.624
N3596 X34.625 Y148.831
N3597 X34.595 Y149.041
N3598 X34.58 Y149.253
N3599 X34.581 Y149.465
N3600 X34.597 Y149.677
N3601 X34.629 Y149.887
N3602 X34.676 Y150.094
N3603 X34.738 Y150.297
N3604 X34.814 Y150.495
N3605 X34.905 Y150.687
N3606 X56.138 Y191.564
N3607 X49.489
N3608 X49.277 Y191.572
N3609 X49.065 Y191.595
N3610 X48.856 Y191.634
N3611 X48.65 Y191.688
N3612 X48.449 Y191.757
N3613 X48.253 Y191.841
N3614 X48.064 Y191.938
N3615 X47.883 Y192.05
N3616 X47.71 Y192.174
N3617 X47.547 Y192.311
N3618 X47.394 Y192.459
N3619 X47.253 Y192.618
N3620 X47.123 Y192.787
N3621 X47.007 Y192.965
N3622 X46.903 Y193.151
N3623 X46.814 Y193.344
N3624 X46.739 Y193.544
N3625 X46.679 Y193.748
N3626 X46.634 Y193.956
N3627 X46.605 Y194.166
N3628 X46.591 Y194.379
N3629 X46.592 Y194.592
N3630 X46.609 Y194.804
N3631 X46.642 Y195.014
N3632 X46.69 Y195.221
N3633 X46.753 Y195.425
N3634 X46.831 Y195.623
N3635 X46.923 Y195.814
N3636 X47.029 Y195.999
N3637 X73.564 Y238.531
N3638 X73.681 Y238.705
N3639 X73.811 Y238.87
N3640 X73.952 Y239.025
N3641 X74.104 Y239.169
N3642 X74.267 Y239.303
N3643 X74.438 Y239.424
N3644 X74.618 Y239.532
N3645 X74.805 Y239.627
N3646 X74.998 Y239.708
N3647 X75.197 Y239.775
N3648 X75.4 Y239.828
N3649 X75.606 Y239.866
N3650 X75.815 Y239.888
N3651 X76.024 Y239.896
N3652 X76.234 Y239.888
N3653 X76.443 Y239.866
N3654 X76.649 Y239.828
N3655 X76.852 Y239.775
N3656 X77.051 Y239.708
N3657 X77.244 Y239.627
N3658 X77.431 Y239.532
N3659 X77.611 Y239.424
N3660 X77.782 Y239.303
N3661 X77.944 Y239.169
N3662 X78.096 Y239.025
N3663 X78.238 Y238.87
N3664 X78.367 Y238.705
N3665 X78.485 Y238.531
N3666 X105.02 Y195.999
N3667 X105.126 Y195.814
N3668 X105.218 Y195.623
N3669 X105.296 Y195.425
N3670 X105.359 Y195.221
N3671 X105.407 Y195.014
N3672 X105.44 Y194.804
N3673 X105.457 Y194.592
N3674 X105.459 Y194.379
N3675 X105.445 Y194.166
N3676 X105.415 Y193.956
N3677 X105.37 Y193.748
N3678 X105.31 Y193.544
N3679 X105.235 Y193.344
N3680 X105.146 Y193.151
N3681 X105.043 Y192.965
N3682 X104.926 Y192.787
N3683 X104.797 Y192.618
N3684 X104.655 Y192.459
N3685 X104.503 Y192.311
N3686 X104.339 Y192.174
N3687 X104.167 Y192.05
N3688 X103.985 Y191.938
N3689 X103.796 Y191.841
N3690 X103.601 Y191.757
N3691 X103.399 Y191.688
N3692 X103.193 Y191.634
N3693 X102.984 Y191.595
N3694 X102.773 Y191.572
N3695 X102.56 Y191.564
N3696 X97.788
N3697 X95.911 Z10.969 F2500
N3698 X117.144 Y150.687 Z10.22
N3699 X117.234 Y150.495 Z10.216
N3700 X117.311 Y150.297 Z10.213
N3701 X117.373 Y150.094 Z10.209
N3702 X117.42 Y149.887 Z10.206
N3703 X117.451 Y149.677 Z10.202
N3704 X117.468 Y149.465 Z10.199
N3705 Y149.253 Z10.196
N3706 X117.454 Y149.041 Z10.192
N3707 X117.423 Y148.831 Z10.189
N3708 X117.378 Y148.624 Z10.185
N3709 X117.317 Y148.421 Z10.182
N3710 X117.242 Y148.222 Z10.178
N3711 X117.152 Y148.03 Z10.175
N3712 X117.049 Y147.844 Z10.171
N3713 X116.932 Y147.667 Z10.168
N3714 X116.802 Y147.499 Z10.164
N3715 X116.661 Y147.341 Z10.161
N3716 X116.508 Y147.193 Z10.158
N3717 X116.345 Y147.057 Z10.154
N3718 X116.173 Y146.933 Z10.151
N3719 X115.992 Y146.823 Z10.147
N3720 X115.803 Y146.725 Z10.144
N3721 X115.608 Y146.642 Z10.14
N3722 X115.407 Y146.573 Z10.137
N3723 X115.202 Y146.52 Z10.133
N3724 X114.993 Y146.481 Z10.13
N3725 X114.782 Y146.458 Z10.126
N3726 X114.57 Y146.45 Z10.123
N3727 X107.013 Z10
N3728 X105.095 F2760
N3729 X130.52 Y104.871
N3730 X130.624 Y104.686
N3731 X130.714 Y104.494
N3732 X130.79 Y104.296
N3733 X130.851 Y104.094
N3734 X130.897 Y103.887
N3735 X130.928 Y103.677
N3736 X130.944 Y103.466
N3737 Y103.254
N3738 X130.929 Y103.043
N3739 X130.898 Y102.833
N3740 X130.852 Y102.626
N3741 X130.791 Y102.423
N3742 X130.716 Y102.225
N3743 X130.626 Y102.033
N3744 X130.522 Y101.848
N3745 X130.405 Y101.672
N3746 X130.276 Y101.504
N3747 X130.134 Y101.346
N3748 X129.982 Y101.199
N3749 X129.819 Y101.063
N3750 X129.647 Y100.94
N3751 X129.466 Y100.829
N3752 X129.277 Y100.732
N3753 X129.082 Y100.65
N3754 X128.882 Y100.581
N3755 X128.677 Y100.527
N3756 X128.468 Y100.489
N3757 X128.258 Y100.466
N3758 X128.046 Y100.458
N3759 X117.551
N3760 X142.055 Y60.384
N3761 X142.159 Y60.199
N3762 X142.249 Y60.007
N3763 X142.325 Y59.809
N3764 X142.386 Y59.607
N3765 X142.432 Y59.4
N3766 X142.463 Y59.19
N3767 X142.479 Y58.979
N3768 Y58.767
N3769 X142.464 Y58.556
N3770 X142.433 Y58.346
N3771 X142.387 Y58.139
N3772 X142.326 Y57.936
N3773 X142.251 Y57.738
N3774 X142.161 Y57.546
N3775 X142.057 Y57.361
N3776 X141.94 Y57.185
N3777 X141.811 Y57.017
N3778 X141.669 Y56.859
N3779 X141.517 Y56.712
N3780 X141.354 Y56.576
N3781 X141.182 Y56.453
N3782 X141.001 Y56.342
N3783 X140.812 Y56.245
N3784 X140.617 Y56.163
N3785 X140.417 Y56.094
N3786 X140.212 Y56.04
N3787 X140.003 Y56.002
N3788 X139.793 Y55.979
N3789 X139.581 Y55.971
N3790 X129.576
N3791 X154.523 Y15.174
N3792 X154.627 Y14.989
N3793 X154.717 Y14.797
N3794 X154.793 Y14.599
N3795 X154.854 Y14.396
N3796 X154.9 Y14.19
N3797 X154.931 Y13.98
N3798 X154.947 Y13.769
N3799 Y13.557
N3800 X154.932 Y13.345
N3801 X154.901 Y13.136
N3802 X154.855 Y12.929
N3803 X154.794 Y12.726
N3804 X154.719 Y12.528
N3805 X154.629 Y12.336
N3806 X154.525 Y12.151
N3807 X154.408 Y11.974
N3808 X154.279 Y11.807
N3809 X154.137 Y11.649
N3810 X153.985 Y11.502
N3811 X153.822 Y11.366
N3812 X153.65 Y11.243
N3813 X153.469 Y11.132
N3814 X153.28 Y11.035
N3815 X153.085 Y10.952
N3816 X152.885 Y10.884
N3817 X152.68 Y10.83
N3818 X152.471 Y10.792
N3819 X152.261 Y10.769
N3820 X152.049 Y10.761
N3821 X111.568
N3822 Y0
N3823 X111.561 Y-0.207
N3824 X111.538 Y-0.413
N3825 X111.502 Y-0.616
N3826 X111.451 Y-0.817
N3827 X111.385 Y-1.013
N3828 X111.306 Y-1.205
N3829 X111.213 Y-1.39
N3830 X111.108 Y-1.568
N3831 X110.99 Y-1.738
N3832 X110.86 Y-1.899
N3833 X110.719 Y-2.051
N3834 X110.567 Y-2.192
N3835 X110.406 Y-2.322
N3836 X110.236 Y-2.44
N3837 X110.058 Y-2.545
N3838 X109.873 Y-2.638
N3839 X109.681 Y-2.717
N3840 X109.485 Y-2.783
N3841 X109.284 Y-2.834
N3842 X109.081 Y-2.87
N3843 X108.875 Y-2.893
N3844 X108.668 Y-2.9
N3845 X86.184
N3846 X85.977 Y-2.893
N3847 X85.771 Y-2.87
N3848 X85.568 Y-2.834
N3849 X85.367 Y-2.783
N3850 X85.171 Y-2.717
N3851 X84.979 Y-2.638
N3852 X84.794 Y-2.545
N3853 X84.616 Y-2.44
N3854 X84.446 Y-2.322
N3855 X84.285 Y-2.192
N3856 X84.133 Y-2.051
N3857 X83.992 Y-1.899
N3858 X83.863 Y-1.738
N3859 X83.744 Y-1.568
N3860 X83.639 Y-1.39
N3861 X83.546 Y-1.205
N3862 X83.467 Y-1.013
N3863 X83.402 Y-0.817
N3864 X83.35 Y-0.616
N3865 X83.314 Y-0.413
N3866 X83.291 Y-0.207
N3867 X83.284 Y0
N3868 Y13.661
N3869 X83.29 Y13.84
N3870 X83.306 Y14.019
N3871 X83.334 Y14.197
N3872 Y118.757
N3873 X83.341 Y118.964
N3874 X83.364 Y119.17
N3875 X83.4 Y119.374
N3876 X83.452 Y119.574
N3877 X83.517 Y119.771
N3878 X83.596 Y119.962
N3879 X83.689 Y120.147
N3880 X83.795 Y120.325
N3881 X83.913 Y120.495
N3882 X84.043 Y120.657
N3883 X84.184 Y120.808
N3884 X84.206 Y120.841
N3885 X84.213 Y120.879
N3886 X84.206 Y120.917
N3887 X84.184 Y120.95
N3888 X84.151 Y120.971
N3889 X84.113 Y120.979
N3890 X84.075 Y120.971
N3891 X84.042 Y120.95
N3892 X83.891 Y120.809
N3893 X83.73 Y120.679
N3894 X83.559 Y120.561
N3895 X83.381 Y120.455
N3896 X83.196 Y120.362
N3897 X83.005 Y120.283
N3898 X82.809 Y120.218
N3899 X82.608 Y120.166
N3900 X82.404 Y120.13
N3901 X82.198 Y120.107
N3902 X81.991 Y120.1
N3903 X72.377
N3904 X72.17 Y120.107
N3905 X71.964 Y120.13
N3906 X71.76 Y120.166
N3907 X71.56 Y120.218
N3908 X71.363 Y120.283
N3909 X71.172 Y120.362
N3910 X70.987 Y120.455
N3911 X70.809 Y120.561
N3912 X70.639 Y120.679
N3913 X70.477 Y120.809
N3914 X70.326 Y120.95
N3915 X70.293 Y120.971
N3916 X70.255 Y120.979
N3917 X70.217 Y120.971
N3918 X70.184 Y120.95
N3919 X70.163 Y120.917
N3920 X70.155 Y120.879
N3921 X70.163 Y120.841
N3922 X70.184 Y120.808
N3923 X70.325 Y120.657
N3924 X70.455 Y120.495
N3925 X70.573 Y120.325
N3926 X70.679 Y120.147
N3927 X70.772 Y119.962
N3928 X70.851 Y119.771
N3929 X70.917 Y119.574
N3930 X70.968 Y119.374
N3931 X71.005 Y119.17
N3932 X71.027 Y118.964
N3933 X71.034 Y118.757
N3934 Y0
N3935 X71.027 Y-0.207
N3936 X71.005 Y-0.413
N3937 X70.968 Y-0.616
N3938 X70.917 Y-0.817
N3939 X70.851 Y-1.013
N3940 X70.772 Y-1.205
N3941 X70.679 Y-1.39
N3942 X70.574 Y-1.568
N3943 X70.456 Y-1.738
N3944 X70.326 Y-1.899
N3945 X70.185 Y-2.051
N3946 X70.033 Y-2.192
N3947 X69.872 Y-2.322
N3948 X69.702 Y-2.44
N3949 X69.524 Y-2.545
N3950 X69.339 Y-2.638
N3951 X69.148 Y-2.717
N3952 X68.951 Y-2.783
N3953 X68.751 Y-2.834
N3954 X68.547 Y-2.87
N3955 X68.341 Y-2.893
N3956 X68.134 Y-2.9
N3957 X45.701
N3958 X45.494 Y-2.893
N3959 X45.288 Y-2.87
N3960 X45.084 Y-2.834
N3961 X44.884 Y-2.783
N3962 X44.687 Y-2.717
N3963 X44.496 Y-2.638
N3964 X44.311 Y-2.545
N3965 X44.133 Y-2.44
N3966 X43.963 Y-2.322
N3967 X43.802 Y-2.192
N3968 X43.65 Y-2.051
N3969 X43.509 Y-1.899
N3970 X43.379 Y-1.738
N3971 X43.261 Y-1.568
N3972 X43.155 Y-1.39
N3973 X43.063 Y-1.205
N3974 X42.983 Y-1.013
N3975 X42.918 Y-0.817
N3976 X42.867 Y-0.616
N3977 X42.83 Y-0.413
N3978 X42.808 Y-0.207
N3979 X42.801 Y0
N3980 Y10.761
N3981 X0
N3982 X-0.212 Y10.769
N3983 X-0.422 Y10.792
N3984 X-0.631 Y10.83
N3985 X-0.836 Y10.884
N3986 X-1.036 Y10.952
N3987 X-1.231 Y11.035
N3988 X-1.42 Y11.132
N3989 X-1.601 Y11.243
N3990 X-1.773 Y11.366
N3991 X-1.936 Y11.502
N3992 X-2.088 Y11.649
N3993 X-2.23 Y11.807
N3994 X-2.359 Y11.974
N3995 X-2.476 Y12.151
N3996 X-2.58 Y12.336
N3997 X-2.67 Y12.528
N3998 X-2.745 Y12.726
N3999 X-2.806 Y12.929
N4000 X-2.852 Y13.136
N4001 X-2.883 Y13.345
N4002 X-2.898 Y13.557
N4003 Y13.769
N4004 X-2.882 Y13.98
N4005 X-2.851 Y14.19
N4006 X-2.805 Y14.396
N4007 X-2.744 Y14.599
N4008 X-2.668 Y14.797
N4009 X-2.578 Y14.989
N4010 X-2.474 Y15.174
N4011 X22.472 Y55.971
N4012 X12.467
N4013 X12.256 Y55.979
N4014 X12.045 Y56.002
N4015 X11.837 Y56.04
N4016 X11.632 Y56.094
N4017 X11.431 Y56.163
N4018 X11.236 Y56.245
N4019 X11.048 Y56.342
N4020 X10.867 Y56.453
N4021 X10.694 Y56.576
N4022 X10.532 Y56.712
N4023 X10.379 Y56.859
N4024 X10.238 Y57.017
N4025 X10.108 Y57.185
N4026 X9.991 Y57.361
N4027 X9.888 Y57.546
N4028 X9.798 Y57.738
N4029 X9.722 Y57.936
N4030 X9.661 Y58.139
N4031 X9.615 Y58.346
N4032 X9.585 Y58.556
N4033 X9.569 Y58.767
N4034 X9.57 Y58.979
N4035 X9.585 Y59.19
N4036 X9.616 Y59.4
N4037 X9.662 Y59.607
N4038 X9.724 Y59.809
N4039 X9.799 Y60.007
N4040 X9.89 Y60.199
N4041 X9.993 Y60.384
N4042 X34.498 Y100.458
N4043 X24.003
N4044 X23.792 Y100.466
N4045 X23.581 Y100.489
N4046 X23.373 Y100.527
N4047 X23.167 Y100.581
N4048 X22.967 Y100.65
N4049 X22.772 Y100.732
N4050 X22.583 Y100.829
N4051 X22.403 Y100.94
N4052 X22.23 Y101.063
N4053 X22.067 Y101.199
N4054 X21.915 Y101.346
N4055 X21.774 Y101.504
N4056 X21.644 Y101.672
N4057 X21.527 Y101.848
N4058 X21.424 Y102.033
N4059 X21.334 Y102.225
N4060 X21.258 Y102.423
N4061 X21.197 Y102.626
N4062 X21.151 Y102.833
N4063 X21.121 Y103.043
N4064 X21.105 Y103.254
N4065 Y103.466
N4066 X21.121 Y103.677
N4067 X21.152 Y103.887
N4068 X21.198 Y104.094
N4069 X21.259 Y104.296
N4070 X21.335 Y104.494
N4071 X21.425 Y104.686
N4072 X21.529 Y104.871
N4073 X46.953 Y146.45
N4074 X37.479
N4075 X37.267 Y146.458
N4076 X37.056 Y146.481
N4077 X36.847 Y146.52
N4078 X36.642 Y146.573
N4079 X36.441 Y146.642
N4080 X36.245 Y146.725
N4081 X36.057 Y146.823
N4082 X35.876 Y146.933
N4083 X35.703 Y147.057
N4084 X35.54 Y147.193
N4085 X35.388 Y147.341
N4086 X35.246 Y147.499
N4087 X35.117 Y147.667
N4088 X35 Y147.844
N4089 X34.897 Y148.03
N4090 X34.807 Y148.222
N4091 X34.732 Y148.421
N4092 X34.671 Y148.624
N4093 X34.625 Y148.831
N4094 X34.595 Y149.041
N4095 X34.58 Y149.253
N4096 X34.581 Y149.465
N4097 X34.597 Y149.677
N4098 X34.629 Y149.887
N4099 X34.676 Y150.094
N4100 X34.738 Y150.297
N4101 X34.814 Y150.495
N4102 X34.905 Y150.687
N4103 X56.138 Y191.564
N4104 X49.489
N4105 X49.277 Y191.572
N4106 X49.065 Y191.595
N4107 X48.856 Y191.634
N4108 X48.65 Y191.688
N4109 X48.449 Y191.757
N4110 X48.253 Y191.841
N4111 X48.064 Y191.938
N4112 X47.883 Y192.05
N4113 X47.71 Y192.174
N4114 X47.547 Y192.311
N4115 X47.394 Y192.459
N4116 X47.253 Y192.618
N4117 X47.123 Y192.787
N4118 X47.007 Y192.965
N4119 X46.903 Y193.151
N4120 X46.814 Y193.344
N4121 X46.739 Y193.544
N4122 X46.679 Y193.748
N4123 X46.634 Y193.956
N4124 X46.605 Y194.166
N4125 X46.591 Y194.379
N4126 X46.592 Y194.592
N4127 X46.609 Y194.804
N4128 X46.642 Y195.014
N4129 X46.69 Y195.221
N4130 X46.753 Y195.425
N4131 X46.831 Y195.623
N4132 X46.923 Y195.814
N4133 X47.029 Y195.999
N4134 X73.564 Y238.531
N4135 X73.681 Y238.705
N4136 X73.811 Y238.87
N4137 X73.952 Y239.025
N4138 X74.104 Y239.169
N4139 X74.267 Y239.303
N4140 X74.438 Y239.424
N4141 X74.618 Y239.532
N4142 X74.805 Y239.627
N4143 X74.998 Y239.708
N4144 X75.197 Y239.775
N4145 X75.4 Y239.828
N4146 X75.606 Y239.866
N4147 X75.815 Y239.888
N4148 X76.024 Y239.896
N4149 X76.234 Y239.888
N4150 X76.443 Y239.866
N4151 X76.649 Y239.828
N4152 X76.852 Y239.775
N4153 X77.051 Y239.708
N4154 X77.244 Y239.627
N4155 X77.431 Y239.532
N4156 X77.611 Y239.424
N4157 X77.782 Y239.303
N4158 X77.944 Y239.169
N4159 X78.096 Y239.025
N4160 X78.238 Y238.87
N4161 X78.367 Y238.705
N4162 X78.485 Y238.531
N4163 X105.02 Y195.999
N4164 X105.126 Y195.814
N4165 X105.218 Y195.623
N4166 X105.296 Y195.425
N4167 X105.359 Y195.221
N4168 X105.407 Y195.014
N4169 X105.44 Y194.804
N4170 X105.457 Y194.592
N4171 X105.459 Y194.379
N4172 X105.445 Y194.166
N4173 X105.415 Y193.956
N4174 X105.37 Y193.748
N4175 X105.31 Y193.544
N4176 X105.235 Y193.344
N4177 X105.146 Y193.151
N4178 X105.043 Y192.965
N4179 X104.926 Y192.787
N4180 X104.797 Y192.618
N4181 X104.655 Y192.459
N4182 X104.503 Y192.311
N4183 X104.339 Y192.174
N4184 X104.167 Y192.05
N4185 X103.985 Y191.938
N4186 X103.796 Y191.841
N4187 X103.601 Y191.757
N4188 X103.399 Y191.688
N4189 X103.193 Y191.634
N4190 X102.984 Y191.595
N4191 X102.773 Y191.572
N4192 X102.56 Y191.564
N4193 X97.788
N4194 X95.911
N4195 X117.144 Y150.687
N4196 X117.234 Y150.495
N4197 X117.311 Y150.297
N4198 X117.373 Y150.094
N4199 X117.42 Y149.887
N4200 X117.451 Y149.677
N4201 X117.468 Y149.465
N4202 Y149.253
N4203 X117.454 Y149.041
N4204 X117.423 Y148.831
N4205 X117.378 Y148.624
N4206 X117.317 Y148.421
N4207 X117.242 Y148.222
N4208 X117.152 Y148.03
N4209 X117.049 Y147.844
N4210 X116.932 Y147.667
N4211 X116.802 Y147.499
N4212 X116.661 Y147.341
N4213 X116.508 Y147.193
N4214 X116.345 Y147.057
N4215 X116.173 Y146.933
N4216 X115.992 Y146.823
N4217 X115.803 Y146.725
N4218 X115.608 Y146.642
N4219 X115.407 Y146.573
N4220 X115.202 Y146.52
N4221 X114.993 Y146.481
N4222 X114.782 Y146.458
N4223 X114.57 Y146.45
N4224 X107.013
N4225 X105.095 Z9.969 F2500
N4226 X130.52 Y104.871 Z9.176
N4227 X130.624 Y104.686 Z9.172
N4228 X130.714 Y104.494 Z9.169
N4229 X130.79 Y104.296 Z9.165
N4230 X130.851 Y104.094 Z9.162
N4231 X130.897 Y103.887 Z9.158
N4232 X130.928 Y103.677 Z9.155
N4233 X130.944 Y103.466 Z9.151
N4234 Y103.254 Z9.148
N4235 X130.929 Y103.043 Z9.145
N4236 X130.898 Y102.833 Z9.141
N4237 X130.852 Y102.626 Z9.138
N4238 X130.791 Y102.423 Z9.134
N4239 X130.716 Y102.225 Z9.131
N4240 X130.626 Y102.033 Z9.127
N4241 X130.522 Y101.848 Z9.124
N4242 X130.405 Y101.672 Z9.12
N4243 X130.276 Y101.504 Z9.117
N4244 X130.134 Y101.346 Z9.113
N4245 X129.982 Y101.199 Z9.11
N4246 X129.819 Y101.063 Z9.107
N4247 X129.647 Y100.94 Z9.103
N4248 X129.466 Y100.829 Z9.1
N4249 X129.277 Y100.732 Z9.096
N4250 X129.082 Y100.65 Z9.093
N4251 X128.882 Y100.581 Z9.089
N4252 X128.677 Y100.527 Z9.086
N4253 X128.468 Y100.489 Z9.082
N4254 X128.258 Y100.466 Z9.079
N4255 X128.046 Y100.458 Z9.076
N4256 X123.406 Z9
N4257 X117.551 F2760
N4258 X142.055 Y60.384
