%
(25-Base)
(T2  D=6 CR=0 - ZMIN=0.2 - flat end mill)
N1 G90
N2 G21

(2D Contour11)
N3 T2
N4 S20000 M3
N5 G0 X55.73 Y88.584
N6 Z33
N7 Z23
N8 G1 Z22 F1000
N9 Z20.5
N10 X55.243 Z20.396 F2500
N11 X55.036 Y88.591 Z20.352
N12 X54.83 Y88.613 Z20.308
N13 X54.626 Y88.65 Z20.264
N14 X54.426 Y88.701 Z20.22
N15 X54.229 Y88.766 Z20.176
N16 X54.038 Y88.846 Z20.132
N17 X53.853 Y88.938 Z20.088
N18 X53.675 Y89.044 Z20.044
N19 X53.505 Y89.162 Z20
N20 X53.344 Y89.292 Z19.956
N21 X53.192 Y89.433 Z19.912
N22 X53.16 Y89.455 Z19.904
N23 X53.121 Y89.462 Z19.896
N24 X53.083 Y89.455 Z19.887
N25 X53.051 Y89.433 Z19.879
N26 X53.029 Y89.4 Z19.871
N27 X53.021 Y89.362 Z19.862
N28 X53.029 Y89.324 Z19.854
N29 X53.051 Y89.292 Z19.845
N30 X53.192 Y89.14 Z19.801
N31 X53.322 Y88.979 Z19.757
N32 X53.44 Y88.809 Z19.713
N33 X53.545 Y88.631 Z19.669
N34 X53.638 Y88.446 Z19.625
N35 X53.717 Y88.254 Z19.581
N36 X53.783 Y88.058 Z19.537
N37 X53.834 Y87.857 Z19.493
N38 X53.87 Y87.654 Z19.449
N39 X53.893 Y87.448 Z19.405
N40 X53.9 Y87.241 Z19.361
N41 Y69 Z15.484
N42 X53.893 Y68.793 Z15.44
N43 X53.87 Y68.587 Z15.396
N44 X53.834 Y68.384 Z15.352
N45 X53.783 Y68.183 Z15.308
N46 X53.717 Y67.987 Z15.264
N47 X53.638 Y67.795 Z15.22
N48 X53.545 Y67.61 Z15.176
N49 X53.44 Y67.432 Z15.132
N50 X53.322 Y67.262 Z15.088
N51 X53.192 Y67.101 Z15.044
N52 X53.051 Y66.949 Z15
N53 X52.899 Y66.808 F2760
N54 X52.738 Y66.678
N55 X52.568 Y66.56
N56 X52.39 Y66.455
N57 X52.205 Y66.362
N58 X52.013 Y66.283
N59 X51.817 Y66.217
N60 X51.616 Y66.166
N61 X51.413 Y66.13
N62 X51.207 Y66.107
N63 X51 Y66.1
N64 X32.759
N65 X32.552 Y66.107
N66 X32.347 Y66.13
N67 X32.143 Y66.166
N68 X31.942 Y66.217
N69 X31.746 Y66.283
N70 X31.555 Y66.362
N71 X31.369 Y66.455
N72 X31.191 Y66.56
N73 X31.021 Y66.678
N74 X30.86 Y66.808
N75 X30.709 Y66.949
N76 X30.676 Y66.971
N77 X30.638 Y66.979
N78 X30.6 Y66.971
N79 X30.567 Y66.949
N80 X30.546 Y66.917
N81 X30.538 Y66.879
N82 X30.546 Y66.84
N83 X30.567 Y66.808
N84 X30.708 Y66.656
N85 X30.838 Y66.495
N86 X30.956 Y66.325
N87 X31.062 Y66.147
N88 X31.155 Y65.962
N89 X31.234 Y65.771
N90 X31.299 Y65.574
N91 X31.35 Y65.374
N92 X31.387 Y65.17
N93 X31.409 Y64.964
N94 X31.417 Y64.757
N95 Y55.243
N96 X31.409 Y55.036
N97 X31.387 Y54.83
N98 X31.35 Y54.626
N99 X31.299 Y54.426
N100 X31.234 Y54.229
N101 X31.155 Y54.038
N102 X31.062 Y53.853
N103 X30.956 Y53.675
N104 X30.838 Y53.505
N105 X30.708 Y53.344
N106 X30.567 Y53.192
N107 X30.546 Y53.16
N108 X30.538 Y53.121
N109 X30.546 Y53.083
N110 X30.567 Y53.051
N111 X30.6 Y53.029
N112 X30.638 Y53.021
N113 X30.676 Y53.029
N114 X30.709 Y53.051
N115 X30.86 Y53.192
N116 X31.021 Y53.322
N117 X31.191 Y53.44
N118 X31.369 Y53.545
N119 X31.555 Y53.638
N120 X31.746 Y53.717
N121 X31.942 Y53.783
N122 X32.143 Y53.834
N123 X32.347 Y53.87
N124 X32.552 Y53.893
N125 X32.759 Y53.9
N126 X51
N127 X51.207 Y53.893
N128 X51.413 Y53.87
N129 X51.616 Y53.834
N130 X51.817 Y53.783
N131 X52.013 Y53.717
N132 X52.205 Y53.638
N133 X52.39 Y53.545
N134 X52.568 Y53.44
N135 X52.738 Y53.322
N136 X52.899 Y53.192
N137 X53.051 Y53.051
N138 X53.192 Y52.899
N139 X53.322 Y52.738
N140 X53.44 Y52.568
N141 X53.545 Y52.39
N142 X53.638 Y52.205
N143 X53.717 Y52.013
N144 X53.783 Y51.817
N145 X53.834 Y51.616
N146 X53.87 Y51.413
N147 X53.893 Y51.207
N148 X53.9 Y51
N149 Y32.759
N150 X53.893 Y32.552
N151 X53.87 Y32.346
N152 X53.834 Y32.143
N153 X53.783 Y31.942
N154 X53.717 Y31.746
N155 X53.638 Y31.554
N156 X53.545 Y31.369
N157 X53.44 Y31.191
N158 X53.322 Y31.021
N159 X53.192 Y30.86
N160 X53.051 Y30.708
N161 X53.029 Y30.676
N162 X53.021 Y30.638
N163 X53.029 Y30.6
N164 X53.051 Y30.567
N165 X53.083 Y30.545
N166 X53.121 Y30.538
N167 X53.16 Y30.545
N168 X53.192 Y30.567
N169 X53.344 Y30.708
N170 X53.505 Y30.838
N171 X53.675 Y30.956
N172 X53.853 Y31.062
N173 X54.038 Y31.154
N174 X54.229 Y31.234
N175 X54.426 Y31.299
N176 X54.626 Y31.35
N177 X54.83 Y31.387
N178 X55.036 Y31.409
N179 X55.243 Y31.417
N180 X64.757
N181 X64.964 Y31.409
N182 X65.17 Y31.387
N183 X65.374 Y31.35
N184 X65.574 Y31.299
N185 X65.771 Y31.234
N186 X65.962 Y31.154
N187 X66.147 Y31.062
N188 X66.325 Y30.956
N189 X66.495 Y30.838
N190 X66.656 Y30.708
N191 X66.808 Y30.567
N192 X66.84 Y30.545
N193 X66.879 Y30.538
N194 X66.917 Y30.545
N195 X66.949 Y30.567
N196 X66.971 Y30.6
N197 X66.979 Y30.638
N198 X66.971 Y30.676
N199 X66.949 Y30.708
N200 X66.808 Y30.86
N201 X66.678 Y31.021
N202 X66.56 Y31.191
N203 X66.455 Y31.369
N204 X66.362 Y31.554
N205 X66.283 Y31.746
N206 X66.217 Y31.942
N207 X66.166 Y32.143
N208 X66.13 Y32.346
N209 X66.107 Y32.552
N210 X66.1 Y32.759
N211 Y51
N212 X66.107 Y51.207
N213 X66.13 Y51.413
N214 X66.166 Y51.616
N215 X66.217 Y51.817
N216 X66.283 Y52.013
N217 X66.362 Y52.205
N218 X66.455 Y52.39
N219 X66.56 Y52.568
N220 X66.678 Y52.738
N221 X66.808 Y52.899
N222 X66.949 Y53.051
N223 X67.101 Y53.192
N224 X67.262 Y53.322
N225 X67.432 Y53.44
N226 X67.61 Y53.545
N227 X67.795 Y53.638
N228 X67.987 Y53.717
N229 X68.183 Y53.783
N230 X68.384 Y53.834
N231 X68.587 Y53.87
N232 X68.793 Y53.893
N233 X69 Y53.9
N234 X87.241
N235 X87.448 Y53.893
N236 X87.653 Y53.87
N237 X87.857 Y53.834
N238 X88.058 Y53.783
N239 X88.254 Y53.717
N240 X88.445 Y53.638
N241 X88.631 Y53.545
N242 X88.809 Y53.44
N243 X88.979 Y53.322
N244 X89.14 Y53.192
N245 X89.291 Y53.051
N246 X89.324 Y53.029
N247 X89.362 Y53.021
N248 X89.4 Y53.029
N249 X89.433 Y53.051
N250 X89.454 Y53.083
N251 X89.462 Y53.121
N252 X89.454 Y53.16
N253 X89.433 Y53.192
N254 X89.292 Y53.344
N255 X89.162 Y53.505
N256 X89.044 Y53.675
N257 X88.938 Y53.853
N258 X88.845 Y54.038
N259 X88.766 Y54.229
N260 X88.701 Y54.426
N261 X88.65 Y54.626
N262 X88.613 Y54.83
N263 X88.591 Y55.036
N264 X88.583 Y55.243
N265 Y64.757
N266 X88.591 Y64.964
N267 X88.613 Y65.17
N268 X88.65 Y65.374
N269 X88.701 Y65.574
N270 X88.766 Y65.771
N271 X88.845 Y65.962
N272 X88.938 Y66.147
N273 X89.044 Y66.325
N274 X89.162 Y66.495
N275 X89.292 Y66.656
N276 X89.433 Y66.808
N277 X89.454 Y66.84
N278 X89.462 Y66.879
N279 X89.454 Y66.917
N280 X89.433 Y66.949
N281 X89.4 Y66.971
N282 X89.362 Y66.979
N283 X89.324 Y66.971
N284 X89.291 Y66.949
N285 X89.14 Y66.808
N286 X88.979 Y66.678
N287 X88.809 Y66.56
N288 X88.631 Y66.455
N289 X88.445 Y66.362
N290 X88.254 Y66.283
N291 X88.058 Y66.217
N292 X87.857 Y66.166
N293 X87.653 Y66.13
N294 X87.448 Y66.107
N295 X87.241 Y66.1
N296 X69
N297 X68.793 Y66.107
N298 X68.587 Y66.13
N299 X68.384 Y66.166
N300 X68.183 Y66.217
N301 X67.987 Y66.283
N302 X67.795 Y66.362
N303 X67.61 Y66.455
N304 X67.432 Y66.56
N305 X67.262 Y66.678
N306 X67.101 Y66.808
N307 X66.949 Y66.949
N308 X66.808 Y67.101
N309 X66.678 Y67.262
N310 X66.56 Y67.432
N311 X66.455 Y67.61
N312 X66.362 Y67.795
N313 X66.283 Y67.987
N314 X66.217 Y68.183
N315 X66.166 Y68.384
N316 X66.13 Y68.587
N317 X66.107 Y68.793
N318 X66.1 Y69
N319 Y87.241
N320 X66.107 Y87.448
N321 X66.13 Y87.654
N322 X66.166 Y87.857
N323 X66.217 Y88.058
N324 X66.283 Y88.254
N325 X66.362 Y88.446
N326 X66.455 Y88.631
N327 X66.56 Y88.809
N328 X66.678 Y88.979
N329 X66.808 Y89.14
N330 X66.949 Y89.292
N331 X66.971 Y89.324
N332 X66.979 Y89.362
N333 X66.971 Y89.4
N334 X66.949 Y89.433
N335 X66.917 Y89.455
N336 X66.879 Y89.462
N337 X66.84 Y89.455
N338 X66.808 Y89.433
N339 X66.656 Y89.292
N340 X66.495 Y89.162
N341 X66.325 Y89.044
N342 X66.147 Y88.938
N343 X65.962 Y88.846
N344 X65.771 Y88.766
N345 X65.574 Y88.701
N346 X65.374 Y88.65
N347 X65.17 Y88.613
N348 X64.964 Y88.591
N349 X64.757 Y88.584
N350 X55.243
N351 X55.036 Y88.591
N352 X54.83 Y88.613
N353 X54.626 Y88.65
N354 X54.426 Y88.701
N355 X54.229 Y88.766
N356 X54.038 Y88.846
N357 X53.853 Y88.938
N358 X53.675 Y89.044
N359 X53.505 Y89.162
N360 X53.344 Y89.292
N361 X53.192 Y89.433
N362 X53.16 Y89.455
N363 X53.121 Y89.462
N364 X53.083 Y89.455
N365 X53.051 Y89.433
N366 X53.029 Y89.4
N367 X53.021 Y89.362
N368 X53.029 Y89.324
N369 X53.051 Y89.292
N370 X53.192 Y89.14
N371 X53.322 Y88.979
N372 X53.44 Y88.809
N373 X53.545 Y88.631
N374 X53.638 Y88.446
N375 X53.717 Y88.254
N376 X53.783 Y88.058
N377 X53.834 Y87.857
N378 X53.87 Y87.654
N379 X53.893 Y87.448
N380 X53.9 Y87.241
N381 Y69
N382 X53.893 Y68.793
N383 X53.87 Y68.587
N384 X53.834 Y68.384
N385 X53.783 Y68.183
N386 X53.717 Y67.987
N387 X53.638 Y67.795
N388 X53.545 Y67.61
N389 X53.44 Y67.432
N390 X53.322 Y67.262
N391 X53.192 Y67.101
N392 X53.051 Y66.949
N393 X52.899 Y66.808 Z14.985 F2500
N394 X52.738 Y66.678 Z14.971
N395 X52.568 Y66.56 Z14.956
N396 X52.39 Y66.455 Z14.942
N397 X52.205 Y66.362 Z14.927
N398 X52.013 Y66.283 Z14.912
N399 X51.817 Y66.217 Z14.898
N400 X51.616 Y66.166 Z14.883
N401 X51.413 Y66.13 Z14.869
N402 X51.207 Y66.107 Z14.854
N403 X51 Y66.1 Z14.839
N404 X32.759 Z13.554
N405 X32.552 Y66.107 Z13.539
N406 X32.347 Y66.13 Z13.524
N407 X32.143 Y66.166 Z13.51
N408 X31.942 Y66.217 Z13.495
N409 X31.746 Y66.283 Z13.481
N410 X31.555 Y66.362 Z13.466
N411 X31.369 Y66.455 Z13.451
N412 X31.191 Y66.56 Z13.437
N413 X31.021 Y66.678 Z13.422
N414 X30.86 Y66.808 Z13.408
N415 X30.709 Y66.949 Z13.393
N416 X30.676 Y66.971 Z13.39
N417 X30.638 Y66.979 Z13.388
N418 X30.6 Y66.971 Z13.385
N419 X30.567 Y66.949 Z13.382
N420 X30.546 Y66.917 Z13.379
N421 X30.538 Y66.879 Z13.376
N422 X30.546 Y66.84 Z13.374
N423 X30.567 Y66.808 Z13.371
N424 X30.708 Y66.656 Z13.356
N425 X30.838 Y66.495 Z13.342
N426 X30.956 Y66.325 Z13.327
N427 X31.062 Y66.147 Z13.313
N428 X31.155 Y65.962 Z13.298
N429 X31.234 Y65.771 Z13.283
N430 X31.299 Y65.574 Z13.269
N431 X31.35 Y65.374 Z13.254
N432 X31.387 Y65.17 Z13.24
N433 X31.409 Y64.964 Z13.225
N434 X31.417 Y64.757 Z13.21
N435 Y55.243 Z12.54
N436 X31.409 Y55.036 Z12.525
N437 X31.387 Y54.83 Z12.51
N438 X31.35 Y54.626 Z12.496
N439 X31.299 Y54.426 Z12.481
N440 X31.234 Y54.229 Z12.467
N441 X31.155 Y54.038 Z12.452
N442 X31.062 Y53.853 Z12.437
N443 X30.956 Y53.675 Z12.423
N444 X30.838 Y53.505 Z12.408
N445 X30.708 Y53.344 Z12.394
N446 X30.567 Y53.192 Z12.379
N447 X30.546 Y53.16 Z12.376
N448 X30.538 Y53.121 Z12.374
N449 X30.546 Y53.083 Z12.371
N450 X30.567 Y53.051 Z12.368
N451 X30.6 Y53.029 Z12.365
N452 X30.638 Y53.021 Z12.362
N453 X30.676 Y53.029 Z12.36
N454 X30.709 Y53.051 Z12.357
N455 X30.86 Y53.192 Z12.342
N456 X31.021 Y53.322 Z12.328
N457 X31.191 Y53.44 Z12.313
N458 X31.369 Y53.545 Z12.299
N459 X31.555 Y53.638 Z12.284
N460 X31.746 Y53.717 Z12.269
N461 X31.942 Y53.783 Z12.255
N462 X32.143 Y53.834 Z12.24
N463 X32.347 Y53.87 Z12.226
N464 X32.552 Y53.893 Z12.211
N465 X32.759 Y53.9 Z12.196
N466 X35.545 Z12
N467 X51 F2760
N468 X51.207 Y53.893
N469 X51.413 Y53.87
N470 X51.616 Y53.834
N471 X51.817 Y53.783
N472 X52.013 Y53.717
N473 X52.205 Y53.638
N474 X52.39 Y53.545
N475 X52.568 Y53.44
N476 X52.738 Y53.322
N477 X52.899 Y53.192
N478 X53.051 Y53.051
N479 X53.192 Y52.899
N480 X53.322 Y52.738
N481 X53.44 Y52.568
N482 X53.545 Y52.39
N483 X53.638 Y52.205
N484 X53.717 Y52.013
N485 X53.783 Y51.817
N486 X53.834 Y51.616
N487 X53.87 Y51.413
N488 X53.893 Y51.207
N489 X53.9 Y51
N490 Y32.759
N491 X53.893 Y32.552
N492 X53.87 Y32.346
N493 X53.834 Y32.143
N494 X53.783 Y31.942
N495 X53.717 Y31.746
N496 X53.638 Y31.554
N497 X53.545 Y31.369
N498 X53.44 Y31.191
N499 X53.322 Y31.021
N500 X53.192 Y30.86
N501 X53.051 Y30.708
N502 X53.029 Y30.676
N503 X53.021 Y30.638
N504 X53.029 Y30.6
N505 X53.051 Y30.567
N506 X53.083 Y30.545
N507 X53.121 Y30.538
N508 X53.16 Y30.545
N509 X53.192 Y30.567
N510 X53.344 Y30.708
N511 X53.505 Y30.838
N512 X53.675 Y30.956
N513 X53.853 Y31.062
N514 X54.038 Y31.154
N515 X54.229 Y31.234
N516 X54.426 Y31.299
N517 X54.626 Y31.35
N518 X54.83 Y31.387
N519 X55.036 Y31.409
N520 X55.243 Y31.417
N521 X64.757
N522 X64.964 Y31.409
N523 X65.17 Y31.387
N524 X65.374 Y31.35
N525 X65.574 Y31.299
N526 X65.771 Y31.234
N527 X65.962 Y31.154
N528 X66.147 Y31.062
N529 X66.325 Y30.956
N530 X66.495 Y30.838
N531 X66.656 Y30.708
N532 X66.808 Y30.567
N533 X66.84 Y30.545
N534 X66.879 Y30.538
N535 X66.917 Y30.545
N536 X66.949 Y30.567
N537 X66.971 Y30.6
N538 X66.979 Y30.638
N539 X66.971 Y30.676
N540 X66.949 Y30.708
N541 X66.808 Y30.86
N542 X66.678 Y31.021
N543 X66.56 Y31.191
N544 X66.455 Y31.369
N545 X66.362 Y31.554
N546 X66.283 Y31.746
N547 X66.217 Y31.942
N548 X66.166 Y32.143
N549 X66.13 Y32.346
N550 X66.107 Y32.552
N551 X66.1 Y32.759
N552 Y51
N553 X66.107 Y51.207
N554 X66.13 Y51.413
N555 X66.166 Y51.616
N556 X66.217 Y51.817
N557 X66.283 Y52.013
N558 X66.362 Y52.205
N559 X66.455 Y52.39
N560 X66.56 Y52.568
N561 X66.678 Y52.738
N562 X66.808 Y52.899
N563 X66.949 Y53.051
N564 X67.101 Y53.192
N565 X67.262 Y53.322
N566 X67.432 Y53.44
N567 X67.61 Y53.545
N568 X67.795 Y53.638
N569 X67.987 Y53.717
N570 X68.183 Y53.783
N571 X68.384 Y53.834
N572 X68.587 Y53.87
N573 X68.793 Y53.893
N574 X69 Y53.9
N575 X87.241
N576 X87.448 Y53.893
N577 X87.653 Y53.87
N578 X87.857 Y53.834
N579 X88.058 Y53.783
N580 X88.254 Y53.717
N581 X88.445 Y53.638
N582 X88.631 Y53.545
N583 X88.809 Y53.44
N584 X88.979 Y53.322
N585 X89.14 Y53.192
N586 X89.291 Y53.051
N587 X89.324 Y53.029
N588 X89.362 Y53.021
N589 X89.4 Y53.029
N590 X89.433 Y53.051
N591 X89.454 Y53.083
N592 X89.462 Y53.121
N593 X89.454 Y53.16
N594 X89.433 Y53.192
N595 X89.292 Y53.344
N596 X89.162 Y53.505
N597 X89.044 Y53.675
N598 X88.938 Y53.853
N599 X88.845 Y54.038
N600 X88.766 Y54.229
N601 X88.701 Y54.426
N602 X88.65 Y54.626
N603 X88.613 Y54.83
N604 X88.591 Y55.036
N605 X88.583 Y55.243
N606 Y64.757
N607 X88.591 Y64.964
N608 X88.613 Y65.17
N609 X88.65 Y65.374
N610 X88.701 Y65.574
N611 X88.766 Y65.771
N612 X88.845 Y65.962
N613 X88.938 Y66.147
N614 X89.044 Y66.325
N615 X89.162 Y66.495
N616 X89.292 Y66.656
N617 X89.433 Y66.808
N618 X89.454 Y66.84
N619 X89.462 Y66.879
N620 X89.454 Y66.917
N621 X89.433 Y66.949
N622 X89.4 Y66.971
N623 X89.362 Y66.979
N624 X89.324 Y66.971
N625 X89.291 Y66.949
N626 X89.14 Y66.808
N627 X88.979 Y66.678
N628 X88.809 Y66.56
N629 X88.631 Y66.455
N630 X88.445 Y66.362
N631 X88.254 Y66.283
N632 X88.058 Y66.217
N633 X87.857 Y66.166
N634 X87.653 Y66.13
N635 X87.448 Y66.107
N636 X87.241 Y66.1
N637 X69
N638 X68.793 Y66.107
N639 X68.587 Y66.13
N640 X68.384 Y66.166
N641 X68.183 Y66.217
N642 X67.987 Y66.283
N643 X67.795 Y66.362
N644 X67.61 Y66.455
N645 X67.432 Y66.56
N646 X67.262 Y66.678
N647 X67.101 Y66.808
N648 X66.949 Y66.949
N649 X66.808 Y67.101
N650 X66.678 Y67.262
N651 X66.56 Y67.432
N652 X66.455 Y67.61
N653 X66.362 Y67.795
N654 X66.283 Y67.987
N655 X66.217 Y68.183
N656 X66.166 Y68.384
N657 X66.13 Y68.587
N658 X66.107 Y68.793
N659 X66.1 Y69
N660 Y87.241
N661 X66.107 Y87.448
N662 X66.13 Y87.654
N663 X66.166 Y87.857
N664 X66.217 Y88.058
N665 X66.283 Y88.254
N666 X66.362 Y88.446
N667 X66.455 Y88.631
N668 X66.56 Y88.809
N669 X66.678 Y88.979
N670 X66.808 Y89.14
N671 X66.949 Y89.292
N672 X66.971 Y89.324
N673 X66.979 Y89.362
N674 X66.971 Y89.4
N675 X66.949 Y89.433
N676 X66.917 Y89.455
N677 X66.879 Y89.462
N678 X66.84 Y89.455
N679 X66.808 Y89.433
N680 X66.656 Y89.292
N681 X66.495 Y89.162
N682 X66.325 Y89.044
N683 X66.147 Y88.938
N684 X65.962 Y88.846
N685 X65.771 Y88.766
N686 X65.574 Y88.701
N687 X65.374 Y88.65
N688 X65.17 Y88.613
N689 X64.964 Y88.591
N690 X64.757 Y88.584
N691 X55.243
N692 X55.036 Y88.591
N693 X54.83 Y88.613
N694 X54.626 Y88.65
N695 X54.426 Y88.701
N696 X54.229 Y88.766
N697 X54.038 Y88.846
N698 X53.853 Y88.938
N699 X53.675 Y89.044
N700 X53.505 Y89.162
N701 X53.344 Y89.292
N702 X53.192 Y89.433
N703 X53.16 Y89.455
N704 X53.121 Y89.462
N705 X53.083 Y89.455
N706 X53.051 Y89.433
N707 X53.029 Y89.4
N708 X53.021 Y89.362
N709 X53.029 Y89.324
N710 X53.051 Y89.292
N711 X53.192 Y89.14
N712 X53.322 Y88.979
N713 X53.44 Y88.809
N714 X53.545 Y88.631
N715 X53.638 Y88.446
N716 X53.717 Y88.254
N717 X53.783 Y88.058
N718 X53.834 Y87.857
N719 X53.87 Y87.654
N720 X53.893 Y87.448
N721 X53.9 Y87.241
N722 Y69
N723 X53.893 Y68.793
N724 X53.87 Y68.587
N725 X53.834 Y68.384
N726 X53.783 Y68.183
N727 X53.717 Y67.987
N728 X53.638 Y67.795
N729 X53.545 Y67.61
N730 X53.44 Y67.432
N731 X53.322 Y67.262
N732 X53.192 Y67.101
N733 X53.051 Y66.949
N734 X52.899 Y66.808
N735 X52.738 Y66.678
N736 X52.568 Y66.56
N737 X52.39 Y66.455
N738 X52.205 Y66.362
N739 X52.013 Y66.283
N740 X51.817 Y66.217
N741 X51.616 Y66.166
N742 X51.413 Y66.13
N743 X51.207 Y66.107
N744 X51 Y66.1
N745 X32.759
N746 X32.552 Y66.107
N747 X32.347 Y66.13
N748 X32.143 Y66.166
N749 X31.942 Y66.217
N750 X31.746 Y66.283
N751 X31.555 Y66.362
N752 X31.369 Y66.455
N753 X31.191 Y66.56
N754 X31.021 Y66.678
N755 X30.86 Y66.808
N756 X30.709 Y66.949
N757 X30.676 Y66.971
N758 X30.638 Y66.979
N759 X30.6 Y66.971
N760 X30.567 Y66.949
N761 X30.546 Y66.917
N762 X30.538 Y66.879
N763 X30.546 Y66.84
N764 X30.567 Y66.808
N765 X30.708 Y66.656
N766 X30.838 Y66.495
N767 X30.956 Y66.325
N768 X31.062 Y66.147
N769 X31.155 Y65.962
N770 X31.234 Y65.771
N771 X31.299 Y65.574
N772 X31.35 Y65.374
N773 X31.387 Y65.17
N774 X31.409 Y64.964
N775 X31.417 Y64.757
N776 Y55.243
N777 X31.409 Y55.036
N778 X31.387 Y54.83
N779 X31.35 Y54.626
N780 X31.299 Y54.426
N781 X31.234 Y54.229
N782 X31.155 Y54.038
N783 X31.062 Y53.853
N784 X30.956 Y53.675
N785 X30.838 Y53.505
N786 X30.708 Y53.344
N787 X30.567 Y53.192
N788 X30.546 Y53.16
N789 X30.538 Y53.121
N790 X30.546 Y53.083
N791 X30.567 Y53.051
N792 X30.6 Y53.029
N793 X30.638 Y53.021
N794 X30.676 Y53.029
N795 X30.709 Y53.051
N796 X30.86 Y53.192
N797 X31.021 Y53.322
N798 X31.191 Y53.44
N799 X31.369 Y53.545
N800 X31.555 Y53.638
N801 X31.746 Y53.717
N802 X31.942 Y53.783
N803 X32.143 Y53.834
N804 X32.347 Y53.87
N805 X32.552 Y53.893
N806 X32.759 Y53.9
N807 X35.545
N808 X51 Z10.911 F2500
N809 X51.207 Y53.893 Z10.896
N810 X51.413 Y53.87 Z10.881
N811 X51.616 Y53.834 Z10.867
N812 X51.817 Y53.783 Z10.852
N813 X52.013 Y53.717 Z10.838
N814 X52.205 Y53.638 Z10.823
N815 X52.39 Y53.545 Z10.808
N816 X52.568 Y53.44 Z10.794
N817 X52.738 Y53.322 Z10.779
N818 X52.899 Y53.192 Z10.765
N819 X53.051 Y53.051 Z10.75
N820 X53.192 Y52.899 Z10.735
N821 X53.322 Y52.738 Z10.721
N822 X53.44 Y52.568 Z10.706
N823 X53.545 Y52.39 Z10.692
N824 X53.638 Y52.205 Z10.677
N825 X53.717 Y52.013 Z10.662
N826 X53.783 Y51.817 Z10.648
N827 X53.834 Y51.616 Z10.633
N828 X53.87 Y51.413 Z10.619
N829 X53.893 Y51.207 Z10.604
N830 X53.9 Y51 Z10.589
N831 Y32.759 Z9.304
N832 X53.893 Y32.552 Z9.289
N833 X53.87 Y32.346 Z9.274
N834 X53.834 Y32.143 Z9.26
N835 X53.783 Y31.942 Z9.245
N836 X53.717 Y31.746 Z9.231
N837 X53.638 Y31.554 Z9.216
N838 X53.545 Y31.369 Z9.201
N839 X53.44 Y31.191 Z9.187
N840 X53.322 Y31.021 Z9.172
N841 X53.192 Y30.86 Z9.158
N842 X53.051 Y30.708 Z9.143
N843 X53.029 Y30.676 Z9.14
N844 X53.021 Y30.638 Z9.138
N845 X53.029 Y30.6 Z9.135
N846 X53.051 Y30.567 Z9.132
N847 X53.083 Y30.545 Z9.129
N848 X53.121 Y30.538 Z9.126
N849 X53.16 Y30.545 Z9.124
N850 X53.192 Y30.567 Z9.121
N851 X53.349 Y30.713 Z9.106
N852 X53.517 Y30.847 Z9.091
N853 X53.693 Y30.968 Z9.076
N854 X53.879 Y31.076 Z9.06
N855 X54.071 Y31.17 Z9.045
N856 X54.271 Y31.249 Z9.03
N857 X54.475 Y31.313 Z9.015
N858 X54.684 Y31.362 Z9
N859 X54.869 Y31.392 F2760
N860 X55.055 Y31.41
N861 X55.243 Y31.417
N862 X64.757
N863 X64.964 Y31.409
N864 X65.17 Y31.387
N865 X65.374 Y31.35
N866 X65.574 Y31.299
N867 X65.771 Y31.234
N868 X65.962 Y31.154
N869 X66.147 Y31.062
N870 X66.325 Y30.956
N871 X66.495 Y30.838
N872 X66.656 Y30.708
N873 X66.808 Y30.567
N874 X66.84 Y30.545
N875 X66.879 Y30.538
N876 X66.917 Y30.545
N877 X66.949 Y30.567
N878 X66.971 Y30.6
N879 X66.979 Y30.638
N880 X66.971 Y30.676
N881 X66.949 Y30.708
N882 X66.808 Y30.86
N883 X66.678 Y31.021
N884 X66.56 Y31.191
N885 X66.455 Y31.369
N886 X66.362 Y31.554
N887 X66.283 Y31.746
N888 X66.217 Y31.942
N889 X66.166 Y32.143
N890 X66.13 Y32.346
N891 X66.107 Y32.552
N892 X66.1 Y32.759
N893 Y51
N894 X66.107 Y51.207
N895 X66.13 Y51.413
N896 X66.166 Y51.616
N897 X66.217 Y51.817
N898 X66.283 Y52.013
N899 X66.362 Y52.205
N900 X66.455 Y52.39
N901 X66.56 Y52.568
N902 X66.678 Y52.738
N903 X66.808 Y52.899
N904 X66.949 Y53.051
N905 X67.101 Y53.192
N906 X67.262 Y53.322
N907 X67.432 Y53.44
N908 X67.61 Y53.545
N909 X67.795 Y53.638
N910 X67.987 Y53.717
N911 X68.183 Y53.783
N912 X68.384 Y53.834
N913 X68.587 Y53.87
N914 X68.793 Y53.893
N915 X69 Y53.9
N916 X87.241
N917 X87.448 Y53.893
N918 X87.653 Y53.87
N919 X87.857 Y53.834
N920 X88.058 Y53.783
N921 X88.254 Y53.717
N922 X88.445 Y53.638
N923 X88.631 Y53.545
N924 X88.809 Y53.44
N925 X88.979 Y53.322
N926 X89.14 Y53.192
N927 X89.291 Y53.051
N928 X89.324 Y53.029
N929 X89.362 Y53.021
N930 X89.4 Y53.029
N931 X89.433 Y53.051
N932 X89.454 Y53.083
N933 X89.462 Y53.121
N934 X89.454 Y53.16
N935 X89.433 Y53.192
N936 X89.292 Y53.344
N937 X89.162 Y53.505
N938 X89.044 Y53.675
N939 X88.938 Y53.853
N940 X88.845 Y54.038
N941 X88.766 Y54.229
N942 X88.701 Y54.426
N943 X88.65 Y54.626
N944 X88.613 Y54.83
N945 X88.591 Y55.036
N946 X88.583 Y55.243
N947 Y64.757
N948 X88.591 Y64.964
N949 X88.613 Y65.17
N950 X88.65 Y65.374
N951 X88.701 Y65.574
N952 X88.766 Y65.771
N953 X88.845 Y65.962
N954 X88.938 Y66.147
N955 X89.044 Y66.325
N956 X89.162 Y66.495
N957 X89.292 Y66.656
N958 X89.433 Y66.808
N959 X89.454 Y66.84
N960 X89.462 Y66.879
N961 X89.454 Y66.917
N962 X89.433 Y66.949
N963 X89.4 Y66.971
N964 X89.362 Y66.979
N965 X89.324 Y66.971
N966 X89.291 Y66.949
N967 X89.14 Y66.808
N968 X88.979 Y66.678
N969 X88.809 Y66.56
N970 X88.631 Y66.455
N971 X88.445 Y66.362
N972 X88.254 Y66.283
N973 X88.058 Y66.217
N974 X87.857 Y66.166
N975 X87.653 Y66.13
N976 X87.448 Y66.107
N977 X87.241 Y66.1
N978 X69
N979 X68.793 Y66.107
N980 X68.587 Y66.13
N981 X68.384 Y66.166
N982 X68.183 Y66.217
N983 X67.987 Y66.283
N984 X67.795 Y66.362
N985 X67.61 Y66.455
N986 X67.432 Y66.56
N987 X67.262 Y66.678
N988 X67.101 Y66.808
N989 X66.949 Y66.949
N990 X66.808 Y67.101
N991 X66.678 Y67.262
N992 X66.56 Y67.432
N993 X66.455 Y67.61
N994 X66.362 Y67.795
N995 X66.283 Y67.987
N996 X66.217 Y68.183
N997 X66.166 Y68.384
N998 X66.13 Y68.587
N999 X66.107 Y68.793
N1000 X66.1 Y69
N1001 Y87.241
N1002 X66.107 Y87.448
N1003 X66.13 Y87.654
N1004 X66.166 Y87.857
N1005 X66.217 Y88.058
N1006 X66.283 Y88.254
N1007 X66.362 Y88.446
N1008 X66.455 Y88.631
N1009 X66.56 Y88.809
N1010 X66.678 Y88.979
N1011 X66.808 Y89.14
N1012 X66.949 Y89.292
N1013 X66.971 Y89.324
N1014 X66.979 Y89.362
N1015 X66.971 Y89.4
N1016 X66.949 Y89.433
N1017 X66.917 Y89.455
N1018 X66.879 Y89.462
N1019 X66.84 Y89.455
N1020 X66.808 Y89.433
N1021 X66.656 Y89.292
N1022 X66.495 Y89.162
N1023 X66.325 Y89.044
N1024 X66.147 Y88.938
N1025 X65.962 Y88.846
N1026 X65.771 Y88.766
N1027 X65.574 Y88.701
N1028 X65.374 Y88.65
N1029 X65.17 Y88.613
N1030 X64.964 Y88.591
N1031 X64.757 Y88.584
N1032 X55.243
N1033 X55.036 Y88.591
N1034 X54.83 Y88.613
N1035 X54.626 Y88.65
N1036 X54.426 Y88.701
N1037 X54.229 Y88.766
N1038 X54.038 Y88.846
N1039 X53.853 Y88.938
N1040 X53.675 Y89.044
N1041 X53.505 Y89.162
N1042 X53.344 Y89.292
N1043 X53.192 Y89.433
N1044 X53.16 Y89.455
N1045 X53.121 Y89.462
N1046 X53.083 Y89.455
N1047 X53.051 Y89.433
N1048 X53.029 Y89.4
N1049 X53.021 Y89.362
N1050 X53.029 Y89.324
N1051 X53.051 Y89.292
N1052 X53.192 Y89.14
N1053 X53.322 Y88.979
N1054 X53.44 Y88.809
N1055 X53.545 Y88.631
N1056 X53.638 Y88.446
N1057 X53.717 Y88.254
N1058 X53.783 Y88.058
N1059 X53.834 Y87.857
N1060 X53.87 Y87.654
N1061 X53.893 Y87.448
N1062 X53.9 Y87.241
N1063 Y69
N1064 X53.893 Y68.793
N1065 X53.87 Y68.587
N1066 X53.834 Y68.384
N1067 X53.783 Y68.183
N1068 X53.717 Y67.987
N1069 X53.638 Y67.795
N1070 X53.545 Y67.61
N1071 X53.44 Y67.432
N1072 X53.322 Y67.262
N1073 X53.192 Y67.101
N1074 X53.051 Y66.949
N1075 X52.899 Y66.808
N1076 X52.738 Y66.678
N1077 X52.568 Y66.56
N1078 X52.39 Y66.455
N1079 X52.205 Y66.362
N1080 X52.013 Y66.283
N1081 X51.817 Y66.217
N1082 X51.616 Y66.166
N1083 X51.413 Y66.13
N1084 X51.207 Y66.107
N1085 X51 Y66.1
N1086 X32.759
N1087 X32.552 Y66.107
N1088 X32.347 Y66.13
N1089 X32.143 Y66.166
N1090 X31.942 Y66.217
N1091 X31.746 Y66.283
N1092 X31.555 Y66.362
N1093 X31.369 Y66.455
N1094 X31.191 Y66.56
N1095 X31.021 Y66.678
N1096 X30.86 Y66.808
N1097 X30.709 Y66.949
N1098 X30.676 Y66.971
N1099 X30.638 Y66.979
N1100 X30.6 Y66.971
N1101 X30.567 Y66.949
N1102 X30.546 Y66.917
N1103 X30.538 Y66.879
N1104 X30.546 Y66.84
N1105 X30.567 Y66.808
N1106 X30.708 Y66.656
N1107 X30.838 Y66.495
N1108 X30.956 Y66.325
N1109 X31.062 Y66.147
N1110 X31.155 Y65.962
N1111 X31.234 Y65.771
N1112 X31.299 Y65.574
N1113 X31.35 Y65.374
N1114 X31.387 Y65.17
N1115 X31.409 Y64.964
N1116 X31.417 Y64.757
N1117 Y55.243
N1118 X31.409 Y55.036
N1119 X31.387 Y54.83
N1120 X31.35 Y54.626
N1121 X31.299 Y54.426
N1122 X31.234 Y54.229
N1123 X31.155 Y54.038
N1124 X31.062 Y53.853
N1125 X30.956 Y53.675
N1126 X30.838 Y53.505
N1127 X30.708 Y53.344
N1128 X30.567 Y53.192
N1129 X30.546 Y53.16
N1130 X30.538 Y53.121
N1131 X30.546 Y53.083
N1132 X30.567 Y53.051
N1133 X30.6 Y53.029
N1134 X30.638 Y53.021
N1135 X30.676 Y53.029
N1136 X30.709 Y53.051
N1137 X30.86 Y53.192
N1138 X31.021 Y53.322
N1139 X31.191 Y53.44
N1140 X31.369 Y53.545
N1141 X31.555 Y53.638
N1142 X31.746 Y53.717
N1143 X31.942 Y53.783
N1144 X32.143 Y53.834
N1145 X32.347 Y53.87
N1146 X32.552 Y53.893
N1147 X32.759 Y53.9
N1148 X51
N1149 X51.207 Y53.893
N1150 X51.413 Y53.87
N1151 X51.616 Y53.834
N1152 X51.817 Y53.783
N1153 X52.013 Y53.717
N1154 X52.205 Y53.638
N1155 X52.39 Y53.545
N1156 X52.568 Y53.44
N1157 X52.738 Y53.322
N1158 X52.899 Y53.192
N1159 X53.051 Y53.051
N1160 X53.192 Y52.899
N1161 X53.322 Y52.738
N1162 X53.44 Y52.568
N1163 X53.545 Y52.39
N1164 X53.638 Y52.205
N1165 X53.717 Y52.013
N1166 X53.783 Y51.817
N1167 X53.834 Y51.616
N1168 X53.87 Y51.413
N1169 X53.893 Y51.207
N1170 X53.9 Y51
N1171 Y32.759
N1172 X53.893 Y32.552
N1173 X53.87 Y32.346
N1174 X53.834 Y32.143
N1175 X53.783 Y31.942
N1176 X53.717 Y31.746
N1177 X53.638 Y31.554
N1178 X53.545 Y31.369
N1179 X53.44 Y31.191
N1180 X53.322 Y31.021
N1181 X53.192 Y30.86
N1182 X53.051 Y30.708
N1183 X53.029 Y30.676
N1184 X53.021 Y30.638
N1185 X53.029 Y30.6
N1186 X53.051 Y30.567
N1187 X53.083 Y30.545
N1188 X53.121 Y30.538
N1189 X53.16 Y30.545
N1190 X53.192 Y30.567
N1191 X53.349 Y30.713
N1192 X53.517 Y30.847
N1193 X53.693 Y30.968
N1194 X53.879 Y31.076
N1195 X54.071 Y31.17
N1196 X54.271 Y31.249
N1197 X54.475 Y31.313
N1198 X54.684 Y31.362
N1199 X54.869 Y31.392 Z8.987 F2500
N1200 X55.055 Y31.41 Z8.974
N1201 X55.243 Y31.417 Z8.96
N1202 X64.757 Z8.29
N1203 X64.964 Y31.409 Z8.275
N1204 X65.17 Y31.387 Z8.26
N1205 X65.374 Y31.35 Z8.246
N1206 X65.574 Y31.299 Z8.231
N1207 X65.771 Y31.234 Z8.217
N1208 X65.962 Y31.154 Z8.202
N1209 X66.147 Y31.062 Z8.187
N1210 X66.325 Y30.956 Z8.173
N1211 X66.495 Y30.838 Z8.158
N1212 X66.656 Y30.708 Z8.144
N1213 X66.808 Y30.567 Z8.129
N1214 X66.84 Y30.545 Z8.126
N1215 X66.879 Y30.538 Z8.124
N1216 X66.917 Y30.545 Z8.121
N1217 X66.949 Y30.567 Z8.118
N1218 X66.971 Y30.6 Z8.115
N1219 X66.979 Y30.638 Z8.112
N1220 X66.971 Y30.676 Z8.11
N1221 X66.949 Y30.708 Z8.107
N1222 X66.808 Y30.86 Z8.092
N1223 X66.678 Y31.021 Z8.078
N1224 X66.56 Y31.191 Z8.063
N1225 X66.455 Y31.369 Z8.049
N1226 X66.362 Y31.554 Z8.034
N1227 X66.283 Y31.746 Z8.019
N1228 X66.217 Y31.942 Z8.005
N1229 X66.166 Y32.143 Z7.99
N1230 X66.13 Y32.346 Z7.976
N1231 X66.107 Y32.552 Z7.961
N1232 X66.1 Y32.759 Z7.946
N1233 Y51 Z6.661
N1234 X66.107 Y51.207 Z6.646
N1235 X66.13 Y51.413 Z6.631
N1236 X66.166 Y51.616 Z6.617
N1237 X66.217 Y51.817 Z6.602
N1238 X66.283 Y52.013 Z6.588
N1239 X66.362 Y52.205 Z6.573
N1240 X66.455 Y52.39 Z6.558
N1241 X66.56 Y52.568 Z6.544
N1242 X66.678 Y52.738 Z6.529
N1243 X66.808 Y52.899 Z6.515
N1244 X66.949 Y53.051 Z6.5
N1245 X67.101 Y53.192 Z6.485
N1246 X67.262 Y53.322 Z6.471
N1247 X67.432 Y53.44 Z6.456
N1248 X67.61 Y53.545 Z6.442
N1249 X67.795 Y53.638 Z6.427
N1250 X67.987 Y53.717 Z6.412
N1251 X68.183 Y53.783 Z6.398
N1252 X68.384 Y53.834 Z6.383
N1253 X68.587 Y53.87 Z6.369
N1254 X68.793 Y53.893 Z6.354
N1255 X69 Y53.9 Z6.339
N1256 X73.815 Z6
N1257 X87.241 F2760
N1258 X87.448 Y53.893
N1259 X87.653 Y53.87
N1260 X87.857 Y53.834
N1261 X88.058 Y53.783
N1262 X88.254 Y53.717
N1263 X88.445 Y53.638
N1264 X88.631 Y53.545
N1265 X88.809 Y53.44
N1266 X88.979 Y53.322
N1267 X89.14 Y53.192
N1268 X89.291 Y53.051
N1269 X89.324 Y53.029
N1270 X89.362 Y53.021
N1271 X89.4 Y53.029
N1272 X89.433 Y53.051
N1273 X89.454 Y53.083
N1274 X89.462 Y53.121
N1275 X89.454 Y53.16
N1276 X89.433 Y53.192
N1277 X89.292 Y53.344
N1278 X89.162 Y53.505
N1279 X89.044 Y53.675
N1280 X88.938 Y53.853
N1281 X88.845 Y54.038
N1282 X88.766 Y54.229
N1283 X88.701 Y54.426
N1284 X88.65 Y54.626
N1285 X88.613 Y54.83
N1286 X88.591 Y55.036
N1287 X88.583 Y55.243
N1288 Y64.757
N1289 X88.591 Y64.964
N1290 X88.613 Y65.17
N1291 X88.65 Y65.374
N1292 X88.701 Y65.574
N1293 X88.766 Y65.771
N1294 X88.845 Y65.962
N1295 X88.938 Y66.147
N1296 X89.044 Y66.325
N1297 X89.162 Y66.495
N1298 X89.292 Y66.656
N1299 X89.433 Y66.808
N1300 X89.454 Y66.84
N1301 X89.462 Y66.879
N1302 X89.454 Y66.917
N1303 X89.433 Y66.949
N1304 X89.4 Y66.971
N1305 X89.362 Y66.979
N1306 X89.324 Y66.971
N1307 X89.291 Y66.949
N1308 X89.14 Y66.808
N1309 X88.979 Y66.678
N1310 X88.809 Y66.56
N1311 X88.631 Y66.455
N1312 X88.445 Y66.362
N1313 X88.254 Y66.283
N1314 X88.058 Y66.217
N1315 X87.857 Y66.166
N1316 X87.653 Y66.13
N1317 X87.448 Y66.107
N1318 X87.241 Y66.1
N1319 X69
N1320 X68.793 Y66.107
N1321 X68.587 Y66.13
N1322 X68.384 Y66.166
N1323 X68.183 Y66.217
N1324 X67.987 Y66.283
N1325 X67.795 Y66.362
N1326 X67.61 Y66.455
N1327 X67.432 Y66.56
N1328 X67.262 Y66.678
N1329 X67.101 Y66.808
N1330 X66.949 Y66.949
N1331 X66.808 Y67.101
N1332 X66.678 Y67.262
N1333 X66.56 Y67.432
N1334 X66.455 Y67.61
N1335 X66.362 Y67.795
N1336 X66.283 Y67.987
N1337 X66.217 Y68.183
N1338 X66.166 Y68.384
N1339 X66.13 Y68.587
N1340 X66.107 Y68.793
N1341 X66.1 Y69
N1342 Y87.241
N1343 X66.107 Y87.448
N1344 X66.13 Y87.654
N1345 X66.166 Y87.857
N1346 X66.217 Y88.058
N1347 X66.283 Y88.254
N1348 X66.362 Y88.446
N1349 X66.455 Y88.631
N1350 X66.56 Y88.809
N1351 X66.678 Y88.979
N1352 X66.808 Y89.14
N1353 X66.949 Y89.292
N1354 X66.971 Y89.324
N1355 X66.979 Y89.362
N1356 X66.971 Y89.4
N1357 X66.949 Y89.433
N1358 X66.917 Y89.455
N1359 X66.879 Y89.462
N1360 X66.84 Y89.455
N1361 X66.808 Y89.433
N1362 X66.656 Y89.292
N1363 X66.495 Y89.162
N1364 X66.325 Y89.044
N1365 X66.147 Y88.938
N1366 X65.962 Y88.846
N1367 X65.771 Y88.766
N1368 X65.574 Y88.701
N1369 X65.374 Y88.65
N1370 X65.17 Y88.613
N1371 X64.964 Y88.591
N1372 X64.757 Y88.584
N1373 X55.243
N1374 X55.036 Y88.591
N1375 X54.83 Y88.613
N1376 X54.626 Y88.65
N1377 X54.426 Y88.701
N1378 X54.229 Y88.766
N1379 X54.038 Y88.846
N1380 X53.853 Y88.938
N1381 X53.675 Y89.044
N1382 X53.505 Y89.162
N1383 X53.344 Y89.292
N1384 X53.192 Y89.433
N1385 X53.16 Y89.455
N1386 X53.121 Y89.462
N1387 X53.083 Y89.455
N1388 X53.051 Y89.433
N1389 X53.029 Y89.4
N1390 X53.021 Y89.362
N1391 X53.029 Y89.324
N1392 X53.051 Y89.292
N1393 X53.192 Y89.14
N1394 X53.322 Y88.979
N1395 X53.44 Y88.809
N1396 X53.545 Y88.631
N1397 X53.638 Y88.446
N1398 X53.717 Y88.254
N1399 X53.783 Y88.058
N1400 X53.834 Y87.857
N1401 X53.87 Y87.654
N1402 X53.893 Y87.448
N1403 X53.9 Y87.241
N1404 Y69
N1405 X53.893 Y68.793
N1406 X53.87 Y68.587
N1407 X53.834 Y68.384
N1408 X53.783 Y68.183
N1409 X53.717 Y67.987
N1410 X53.638 Y67.795
N1411 X53.545 Y67.61
N1412 X53.44 Y67.432
N1413 X53.322 Y67.262
N1414 X53.192 Y67.101
N1415 X53.051 Y66.949
N1416 X52.899 Y66.808
N1417 X52.738 Y66.678
N1418 X52.568 Y66.56
N1419 X52.39 Y66.455
N1420 X52.205 Y66.362
N1421 X52.013 Y66.283
N1422 X51.817 Y66.217
N1423 X51.616 Y66.166
N1424 X51.413 Y66.13
N1425 X51.207 Y66.107
N1426 X51 Y66.1
N1427 X32.759
N1428 X32.552 Y66.107
N1429 X32.347 Y66.13
N1430 X32.143 Y66.166
N1431 X31.942 Y66.217
N1432 X31.746 Y66.283
N1433 X31.555 Y66.362
N1434 X31.369 Y66.455
N1435 X31.191 Y66.56
N1436 X31.021 Y66.678
N1437 X30.86 Y66.808
N1438 X30.709 Y66.949
N1439 X30.676 Y66.971
N1440 X30.638 Y66.979
N1441 X30.6 Y66.971
N1442 X30.567 Y66.949
N1443 X30.546 Y66.917
N1444 X30.538 Y66.879
N1445 X30.546 Y66.84
N1446 X30.567 Y66.808
N1447 X30.708 Y66.656
N1448 X30.838 Y66.495
N1449 X30.956 Y66.325
N1450 X31.062 Y66.147
N1451 X31.155 Y65.962
N1452 X31.234 Y65.771
N1453 X31.299 Y65.574
N1454 X31.35 Y65.374
N1455 X31.387 Y65.17
N1456 X31.409 Y64.964
N1457 X31.417 Y64.757
N1458 Y55.243
N1459 X31.409 Y55.036
N1460 X31.387 Y54.83
N1461 X31.35 Y54.626
N1462 X31.299 Y54.426
N1463 X31.234 Y54.229
N1464 X31.155 Y54.038
N1465 X31.062 Y53.853
N1466 X30.956 Y53.675
N1467 X30.838 Y53.505
N1468 X30.708 Y53.344
N1469 X30.567 Y53.192
N1470 X30.546 Y53.16
N1471 X30.538 Y53.121
N1472 X30.546 Y53.083
N1473 X30.567 Y53.051
N1474 X30.6 Y53.029
N1475 X30.638 Y53.021
N1476 X30.676 Y53.029
N1477 X30.709 Y53.051
N1478 X30.86 Y53.192
N1479 X31.021 Y53.322
N1480 X31.191 Y53.44
N1481 X31.369 Y53.545
N1482 X31.555 Y53.638
N1483 X31.746 Y53.717
N1484 X31.942 Y53.783
N1485 X32.143 Y53.834
N1486 X32.347 Y53.87
N1487 X32.552 Y53.893
N1488 X32.759 Y53.9
N1489 X51
N1490 X51.207 Y53.893
N1491 X51.413 Y53.87
N1492 X51.616 Y53.834
N1493 X51.817 Y53.783
N1494 X52.013 Y53.717
N1495 X52.205 Y53.638
N1496 X52.39 Y53.545
N1497 X52.568 Y53.44
N1498 X52.738 Y53.322
N1499 X52.899 Y53.192
N1500 X53.051 Y53.051
N1501 X53.192 Y52.899
N1502 X53.322 Y52.738
N1503 X53.44 Y52.568
N1504 X53.545 Y52.39
N1505 X53.638 Y52.205
N1506 X53.717 Y52.013
N1507 X53.783 Y51.817
N1508 X53.834 Y51.616
N1509 X53.87 Y51.413
N1510 X53.893 Y51.207
N1511 X53.9 Y51
N1512 Y32.759
N1513 X53.893 Y32.552
N1514 X53.87 Y32.346
N1515 X53.834 Y32.143
N1516 X53.783 Y31.942
N1517 X53.717 Y31.746
N1518 X53.638 Y31.554
N1519 X53.545 Y31.369
N1520 X53.44 Y31.191
N1521 X53.322 Y31.021
N1522 X53.192 Y30.86
N1523 X53.051 Y30.708
N1524 X53.029 Y30.676
N1525 X53.021 Y30.638
N1526 X53.029 Y30.6
N1527 X53.051 Y30.567
N1528 X53.083 Y30.545
N1529 X53.121 Y30.538
N1530 X53.16 Y30.545
N1531 X53.192 Y30.567
N1532 X53.344 Y30.708
N1533 X53.505 Y30.838
N1534 X53.675 Y30.956
N1535 X53.853 Y31.062
N1536 X54.038 Y31.154
N1537 X54.229 Y31.234
N1538 X54.426 Y31.299
N1539 X54.626 Y31.35
N1540 X54.83 Y31.387
N1541 X55.036 Y31.409
N1542 X55.243 Y31.417
N1543 X64.757
N1544 X64.964 Y31.409
N1545 X65.17 Y31.387
N1546 X65.374 Y31.35
N1547 X65.574 Y31.299
N1548 X65.771 Y31.234
N1549 X65.962 Y31.154
N1550 X66.147 Y31.062
N1551 X66.325 Y30.956
N1552 X66.495 Y30.838
N1553 X66.656 Y30.708
N1554 X66.808 Y30.567
N1555 X66.84 Y30.545
N1556 X66.879 Y30.538
N1557 X66.917 Y30.545
N1558 X66.949 Y30.567
N1559 X66.971 Y30.6
N1560 X66.979 Y30.638
N1561 X66.971 Y30.676
N1562 X66.949 Y30.708
N1563 X66.808 Y30.86
N1564 X66.678 Y31.021
N1565 X66.56 Y31.191
N1566 X66.455 Y31.369
N1567 X66.362 Y31.554
N1568 X66.283 Y31.746
N1569 X66.217 Y31.942
N1570 X66.166 Y32.143
N1571 X66.13 Y32.346
N1572 X66.107 Y32.552
N1573 X66.1 Y32.759
N1574 Y51
N1575 X66.107 Y51.207
N1576 X66.13 Y51.413
N1577 X66.166 Y51.616
N1578 X66.217 Y51.817
N1579 X66.283 Y52.013
N1580 X66.362 Y52.205
N1581 X66.455 Y52.39
N1582 X66.56 Y52.568
N1583 X66.678 Y52.738
N1584 X66.808 Y52.899
N1585 X66.949 Y53.051
N1586 X67.101 Y53.192
N1587 X67.262 Y53.322
N1588 X67.432 Y53.44
N1589 X67.61 Y53.545
N1590 X67.795 Y53.638
N1591 X67.987 Y53.717
N1592 X68.183 Y53.783
N1593 X68.384 Y53.834
N1594 X68.587 Y53.87
N1595 X68.793 Y53.893
N1596 X69 Y53.9
N1597 X73.815
N1598 X87.241 Z5.054 F2500
N1599 X87.448 Y53.893 Z5.039
N1600 X87.653 Y53.87 Z5.024
N1601 X87.857 Y53.834 Z5.01
N1602 X88.058 Y53.783 Z4.995
N1603 X88.254 Y53.717 Z4.981
N1604 X88.445 Y53.638 Z4.966
N1605 X88.631 Y53.545 Z4.951
N1606 X88.809 Y53.44 Z4.937
N1607 X88.979 Y53.322 Z4.922
N1608 X89.14 Y53.192 Z4.908
N1609 X89.291 Y53.051 Z4.893
N1610 X89.324 Y53.029 Z4.89
N1611 X89.362 Y53.021 Z4.888
N1612 X89.4 Y53.029 Z4.885
N1613 X89.433 Y53.051 Z4.882
N1614 X89.454 Y53.083 Z4.879
N1615 X89.462 Y53.121 Z4.876
N1616 X89.454 Y53.16 Z4.874
N1617 X89.433 Y53.192 Z4.871
N1618 X89.292 Y53.344 Z4.856
N1619 X89.162 Y53.505 Z4.842
N1620 X89.044 Y53.675 Z4.827
N1621 X88.938 Y53.853 Z4.813
N1622 X88.845 Y54.038 Z4.798
N1623 X88.766 Y54.229 Z4.783
N1624 X88.701 Y54.426 Z4.769
N1625 X88.65 Y54.626 Z4.754
N1626 X88.613 Y54.83 Z4.74
N1627 X88.591 Y55.036 Z4.725
N1628 X88.583 Y55.243 Z4.71
N1629 Y64.757 Z4.04
N1630 X88.591 Y64.964 Z4.025
N1631 X88.613 Y65.17 Z4.01
N1632 X88.65 Y65.374 Z3.996
N1633 X88.701 Y65.574 Z3.981
N1634 X88.766 Y65.771 Z3.967
N1635 X88.845 Y65.962 Z3.952
N1636 X88.938 Y66.147 Z3.937
N1637 X89.044 Y66.325 Z3.923
N1638 X89.162 Y66.495 Z3.908
N1639 X89.292 Y66.656 Z3.894
N1640 X89.433 Y66.808 Z3.879
N1641 X89.454 Y66.84 Z3.876
N1642 X89.462 Y66.879 Z3.874
N1643 X89.454 Y66.917 Z3.871
N1644 X89.433 Y66.949 Z3.868
N1645 X89.4 Y66.971 Z3.865
N1646 X89.362 Y66.979 Z3.862
N1647 X89.324 Y66.971 Z3.86
N1648 X89.291 Y66.949 Z3.857
N1649 X89.14 Y66.808 Z3.842
N1650 X88.979 Y66.678 Z3.828
N1651 X88.809 Y66.56 Z3.813
N1652 X88.631 Y66.455 Z3.799
N1653 X88.445 Y66.362 Z3.784
N1654 X88.254 Y66.283 Z3.769
N1655 X88.058 Y66.217 Z3.755
N1656 X87.857 Y66.166 Z3.74
N1657 X87.653 Y66.13 Z3.726
N1658 X87.448 Y66.107 Z3.711
N1659 X87.241 Y66.1 Z3.696
N1660 X77.362 Z3
N1661 X69 F2760
N1662 X68.793 Y66.107
N1663 X68.587 Y66.13
N1664 X68.384 Y66.166
N1665 X68.183 Y66.217
N1666 X67.987 Y66.283
N1667 X67.795 Y66.362
N1668 X67.61 Y66.455
N1669 X67.432 Y66.56
N1670 X67.262 Y66.678
N1671 X67.101 Y66.808
N1672 X66.949 Y66.949
N1673 X66.808 Y67.101
N1674 X66.678 Y67.262
N1675 X66.56 Y67.432
N1676 X66.455 Y67.61
N1677 X66.362 Y67.795
N1678 X66.283 Y67.987
N1679 X66.217 Y68.183
N1680 X66.166 Y68.384
N1681 X66.13 Y68.587
N1682 X66.107 Y68.793
N1683 X66.1 Y69
N1684 Y87.241
N1685 X66.107 Y87.448
N1686 X66.13 Y87.654
N1687 X66.166 Y87.857
N1688 X66.217 Y88.058
N1689 X66.283 Y88.254
N1690 X66.362 Y88.446
N1691 X66.455 Y88.631
N1692 X66.56 Y88.809
N1693 X66.678 Y88.979
N1694 X66.808 Y89.14
N1695 X66.949 Y89.292
N1696 X66.971 Y89.324
N1697 X66.979 Y89.362
N1698 X66.971 Y89.4
N1699 X66.949 Y89.433
N1700 X66.917 Y89.455
N1701 X66.879 Y89.462
N1702 X66.84 Y89.455
N1703 X66.808 Y89.433
N1704 X66.656 Y89.292
N1705 X66.495 Y89.162
N1706 X66.325 Y89.044
N1707 X66.147 Y88.938
N1708 X65.962 Y88.846
N1709 X65.771 Y88.766
N1710 X65.574 Y88.701
N1711 X65.374 Y88.65
N1712 X65.17 Y88.613
N1713 X64.964 Y88.591
N1714 X64.757 Y88.584
N1715 X55.243
N1716 X55.036 Y88.591
N1717 X54.83 Y88.613
N1718 X54.626 Y88.65
N1719 X54.426 Y88.701
N1720 X54.229 Y88.766
N1721 X54.038 Y88.846
N1722 X53.853 Y88.938
N1723 X53.675 Y89.044
N1724 X53.505 Y89.162
N1725 X53.344 Y89.292
N1726 X53.192 Y89.433
N1727 X53.16 Y89.455
N1728 X53.121 Y89.462
N1729 X53.083 Y89.455
N1730 X53.051 Y89.433
N1731 X53.029 Y89.4
N1732 X53.021 Y89.362
N1733 X53.029 Y89.324
N1734 X53.051 Y89.292
N1735 X53.192 Y89.14
N1736 X53.322 Y88.979
N1737 X53.44 Y88.809
N1738 X53.545 Y88.631
N1739 X53.638 Y88.446
N1740 X53.717 Y88.254
N1741 X53.783 Y88.058
N1742 X53.834 Y87.857
N1743 X53.87 Y87.654
N1744 X53.893 Y87.448
N1745 X53.9 Y87.241
N1746 Y69
N1747 X53.893 Y68.793
N1748 X53.87 Y68.587
N1749 X53.834 Y68.384
N1750 X53.783 Y68.183
N1751 X53.717 Y67.987
N1752 X53.638 Y67.795
N1753 X53.545 Y67.61
N1754 X53.44 Y67.432
N1755 X53.322 Y67.262
N1756 X53.192 Y67.101
N1757 X53.051 Y66.949
N1758 X52.899 Y66.808
N1759 X52.738 Y66.678
N1760 X52.568 Y66.56
N1761 X52.39 Y66.455
N1762 X52.205 Y66.362
N1763 X52.013 Y66.283
N1764 X51.817 Y66.217
N1765 X51.616 Y66.166
N1766 X51.413 Y66.13
N1767 X51.207 Y66.107
N1768 X51 Y66.1
N1769 X32.759
N1770 X32.552 Y66.107
N1771 X32.347 Y66.13
N1772 X32.143 Y66.166
N1773 X31.942 Y66.217
N1774 X31.746 Y66.283
N1775 X31.555 Y66.362
N1776 X31.369 Y66.455
N1777 X31.191 Y66.56
N1778 X31.021 Y66.678
N1779 X30.86 Y66.808
N1780 X30.709 Y66.949
N1781 X30.676 Y66.971
N1782 X30.638 Y66.979
N1783 X30.6 Y66.971
N1784 X30.567 Y66.949
N1785 X30.546 Y66.917
N1786 X30.538 Y66.879
N1787 X30.546 Y66.84
N1788 X30.567 Y66.808
N1789 X30.708 Y66.656
N1790 X30.838 Y66.495
N1791 X30.956 Y66.325
N1792 X31.062 Y66.147
N1793 X31.155 Y65.962
N1794 X31.234 Y65.771
N1795 X31.299 Y65.574
N1796 X31.35 Y65.374
N1797 X31.387 Y65.17
N1798 X31.409 Y64.964
N1799 X31.417 Y64.757
N1800 Y55.243
N1801 X31.409 Y55.036
N1802 X31.387 Y54.83
N1803 X31.35 Y54.626
N1804 X31.299 Y54.426
N1805 X31.234 Y54.229
N1806 X31.155 Y54.038
N1807 X31.062 Y53.853
N1808 X30.956 Y53.675
N1809 X30.838 Y53.505
N1810 X30.708 Y53.344
N1811 X30.567 Y53.192
N1812 X30.546 Y53.16
N1813 X30.538 Y53.121
N1814 X30.546 Y53.083
N1815 X30.567 Y53.051
N1816 X30.6 Y53.029
N1817 X30.638 Y53.021
N1818 X30.676 Y53.029
N1819 X30.709 Y53.051
N1820 X30.86 Y53.192
N1821 X31.021 Y53.322
N1822 X31.191 Y53.44
N1823 X31.369 Y53.545
N1824 X31.555 Y53.638
N1825 X31.746 Y53.717
N1826 X31.942 Y53.783
N1827 X32.143 Y53.834
N1828 X32.347 Y53.87
N1829 X32.552 Y53.893
N1830 X32.759 Y53.9
N1831 X51
N1832 X51.207 Y53.893
N1833 X51.413 Y53.87
N1834 X51.616 Y53.834
N1835 X51.817 Y53.783
N1836 X52.013 Y53.717
N1837 X52.205 Y53.638
N1838 X52.39 Y53.545
N1839 X52.568 Y53.44
N1840 X52.738 Y53.322
N1841 X52.899 Y53.192
N1842 X53.051 Y53.051
N1843 X53.192 Y52.899
N1844 X53.322 Y52.738
N1845 X53.44 Y52.568
N1846 X53.545 Y52.39
N1847 X53.638 Y52.205
N1848 X53.717 Y52.013
N1849 X53.783 Y51.817
N1850 X53.834 Y51.616
N1851 X53.87 Y51.413
N1852 X53.893 Y51.207
N1853 X53.9 Y51
N1854 Y32.759
N1855 X53.893 Y32.552
N1856 X53.87 Y32.346
N1857 X53.834 Y32.143
N1858 X53.783 Y31.942
N1859 X53.717 Y31.746
N1860 X53.638 Y31.554
N1861 X53.545 Y31.369
N1862 X53.44 Y31.191
N1863 X53.322 Y31.021
N1864 X53.192 Y30.86
N1865 X53.051 Y30.708
N1866 X53.029 Y30.676
N1867 X53.021 Y30.638
N1868 X53.029 Y30.6
N1869 X53.051 Y30.567
N1870 X53.083 Y30.545
N1871 X53.121 Y30.538
N1872 X53.16 Y30.545
N1873 X53.192 Y30.567
N1874 X53.344 Y30.708
N1875 X53.505 Y30.838
N1876 X53.675 Y30.956
N1877 X53.853 Y31.062
N1878 X54.038 Y31.154
N1879 X54.229 Y31.234
N1880 X54.426 Y31.299
N1881 X54.626 Y31.35
N1882 X54.83 Y31.387
N1883 X55.036 Y31.409
N1884 X55.243 Y31.417
N1885 X64.757
N1886 X64.964 Y31.409
N1887 X65.17 Y31.387
N1888 X65.374 Y31.35
N1889 X65.574 Y31.299
N1890 X65.771 Y31.234
N1891 X65.962 Y31.154
N1892 X66.147 Y31.062
N1893 X66.325 Y30.956
N1894 X66.495 Y30.838
N1895 X66.656 Y30.708
N1896 X66.808 Y30.567
N1897 X66.84 Y30.545
N1898 X66.879 Y30.538
N1899 X66.917 Y30.545
N1900 X66.949 Y30.567
N1901 X66.971 Y30.6
N1902 X66.979 Y30.638
N1903 X66.971 Y30.676
N1904 X66.949 Y30.708
N1905 X66.808 Y30.86
N1906 X66.678 Y31.021
N1907 X66.56 Y31.191
N1908 X66.455 Y31.369
N1909 X66.362 Y31.554
N1910 X66.283 Y31.746
N1911 X66.217 Y31.942
N1912 X66.166 Y32.143
N1913 X66.13 Y32.346
N1914 X66.107 Y32.552
N1915 X66.1 Y32.759
N1916 Y51
N1917 X66.107 Y51.207
N1918 X66.13 Y51.413
N1919 X66.166 Y51.616
N1920 X66.217 Y51.817
N1921 X66.283 Y52.013
N1922 X66.362 Y52.205
N1923 X66.455 Y52.39
N1924 X66.56 Y52.568
N1925 X66.678 Y52.738
N1926 X66.808 Y52.899
N1927 X66.949 Y53.051
N1928 X67.101 Y53.192
N1929 X67.262 Y53.322
N1930 X67.432 Y53.44
N1931 X67.61 Y53.545
N1932 X67.795 Y53.638
N1933 X67.987 Y53.717
N1934 X68.183 Y53.783
N1935 X68.384 Y53.834
N1936 X68.587 Y53.87
N1937 X68.793 Y53.893
N1938 X69 Y53.9
N1939 X87.241
N1940 X87.448 Y53.893
N1941 X87.653 Y53.87
N1942 X87.857 Y53.834
N1943 X88.058 Y53.783
N1944 X88.254 Y53.717
N1945 X88.445 Y53.638
N1946 X88.631 Y53.545
N1947 X88.809 Y53.44
N1948 X88.979 Y53.322
N1949 X89.14 Y53.192
N1950 X89.291 Y53.051
N1951 X89.324 Y53.029
N1952 X89.362 Y53.021
N1953 X89.4 Y53.029
N1954 X89.433 Y53.051
N1955 X89.454 Y53.083
N1956 X89.462 Y53.121
N1957 X89.454 Y53.16
N1958 X89.433 Y53.192
N1959 X89.292 Y53.344
N1960 X89.162 Y53.505
N1961 X89.044 Y53.675
N1962 X88.938 Y53.853
N1963 X88.845 Y54.038
N1964 X88.766 Y54.229
N1965 X88.701 Y54.426
N1966 X88.65 Y54.626
N1967 X88.613 Y54.83
N1968 X88.591 Y55.036
N1969 X88.583 Y55.243
N1970 Y64.757
N1971 X88.591 Y64.964
N1972 X88.613 Y65.17
N1973 X88.65 Y65.374
N1974 X88.701 Y65.574
N1975 X88.766 Y65.771
N1976 X88.845 Y65.962
N1977 X88.938 Y66.147
N1978 X89.044 Y66.325
N1979 X89.162 Y66.495
N1980 X89.292 Y66.656
N1981 X89.433 Y66.808
N1982 X89.454 Y66.84
N1983 X89.462 Y66.879
N1984 X89.454 Y66.917
N1985 X89.433 Y66.949
N1986 X89.4 Y66.971
N1987 X89.362 Y66.979
N1988 X89.324 Y66.971
N1989 X89.291 Y66.949
N1990 X89.14 Y66.808
N1991 X88.979 Y66.678
N1992 X88.809 Y66.56
N1993 X88.631 Y66.455
N1994 X88.445 Y66.362
N1995 X88.254 Y66.283
N1996 X88.058 Y66.217
N1997 X87.857 Y66.166
N1998 X87.653 Y66.13
N1999 X87.448 Y66.107
N2000 X87.241 Y66.1
N2001 X77.362
N2002 X69 Z2.411 F2500
N2003 X68.793 Y66.107 Z2.396
N2004 X68.587 Y66.13 Z2.381
N2005 X68.384 Y66.166 Z2.367
N2006 X68.183 Y66.217 Z2.352
N2007 X67.987 Y66.283 Z2.338
N2008 X67.795 Y66.362 Z2.323
N2009 X67.61 Y66.455 Z2.308
N2010 X67.432 Y66.56 Z2.294
N2011 X67.262 Y66.678 Z2.279
N2012 X67.101 Y66.808 Z2.265
N2013 X66.949 Y66.949 Z2.25
N2014 X66.808 Y67.101 Z2.235
N2015 X66.678 Y67.262 Z2.221
N2016 X66.56 Y67.432 Z2.206
N2017 X66.455 Y67.61 Z2.192
N2018 X66.362 Y67.795 Z2.177
N2019 X66.283 Y67.987 Z2.162
N2020 X66.217 Y68.183 Z2.148
N2021 X66.166 Y68.384 Z2.133
N2022 X66.13 Y68.587 Z2.119
N2023 X66.107 Y68.793 Z2.104
N2024 X66.1 Y69 Z2.089
N2025 Y87.241 Z0.804
N2026 X66.107 Y87.448 Z0.789
N2027 X66.13 Y87.654 Z0.774
N2028 X66.166 Y87.857 Z0.76
N2029 X66.217 Y88.058 Z0.745
N2030 X66.283 Y88.254 Z0.731
N2031 X66.362 Y88.446 Z0.716
N2032 X66.455 Y88.631 Z0.701
N2033 X66.56 Y88.809 Z0.687
N2034 X66.678 Y88.979 Z0.672
N2035 X66.808 Y89.14 Z0.658
N2036 X66.949 Y89.292 Z0.643
N2037 X66.971 Y89.324 Z0.64
N2038 X66.979 Y89.362 Z0.638
N2039 X66.971 Y89.4 Z0.635
N2040 X66.949 Y89.433 Z0.632
N2041 X66.917 Y89.455 Z0.629
N2042 X66.879 Y89.462 Z0.626
N2043 X66.84 Y89.455 Z0.624
N2044 X66.808 Y89.433 Z0.621
N2045 X66.656 Y89.292 Z0.606
N2046 X66.495 Y89.162 Z0.592
N2047 X66.325 Y89.044 Z0.577
N2048 X66.147 Y88.938 Z0.563
N2049 X65.962 Y88.846 Z0.548
N2050 X65.771 Y88.766 Z0.533
N2051 X65.574 Y88.701 Z0.519
N2052 X65.374 Y88.65 Z0.504
N2053 X65.17 Y88.613 Z0.49
N2054 X64.964 Y88.591 Z0.475
N2055 X64.757 Y88.584 Z0.46
N2056 X61.064 Z0.2
N2057 X55.243 F2760
N2058 X55.036 Y88.591
N2059 X54.83 Y88.613
N2060 X54.626 Y88.65
N2061 X54.426 Y88.701
N2062 X54.229 Y88.766
N2063 X54.038 Y88.846
N2064 X53.853 Y88.938
N2065 X53.675 Y89.044
N2066 X53.505 Y89.162
N2067 X53.344 Y89.292
N2068 X53.192 Y89.433
N2069 X53.16 Y89.455
N2070 X53.121 Y89.462
N2071 X53.083 Y89.455
N2072 X53.051 Y89.433
N2073 X53.029 Y89.4
N2074 X53.021 Y89.362
N2075 X53.029 Y89.324
N2076 X53.051 Y89.292
N2077 X53.192 Y89.14
N2078 X53.322 Y88.979
N2079 X53.44 Y88.809
N2080 X53.545 Y88.631
N2081 X53.638 Y88.446
N2082 X53.717 Y88.254
N2083 X53.783 Y88.058
N2084 X53.834 Y87.857
N2085 X53.87 Y87.654
N2086 X53.893 Y87.448
N2087 X53.9 Y87.241
N2088 Y69
N2089 X53.893 Y68.793
N2090 X53.87 Y68.587
N2091 X53.834 Y68.384
N2092 X53.783 Y68.183
N2093 X53.717 Y67.987
N2094 X53.638 Y67.795
N2095 X53.545 Y67.61
N2096 X53.44 Y67.432
N2097 X53.322 Y67.262
N2098 X53.192 Y67.101
N2099 X53.051 Y66.949
N2100 X52.899 Y66.808
N2101 X52.738 Y66.678
N2102 X52.568 Y66.56
N2103 X52.39 Y66.455
N2104 X52.205 Y66.362
N2105 X52.013 Y66.283
N2106 X51.817 Y66.217
N2107 X51.616 Y66.166
N2108 X51.413 Y66.13
N2109 X51.207 Y66.107
N2110 X51 Y66.1
N2111 X32.759
N2112 X32.552 Y66.107
N2113 X32.347 Y66.13
N2114 X32.143 Y66.166
N2115 X31.942 Y66.217
N2116 X31.746 Y66.283
N2117 X31.555 Y66.362
N2118 X31.369 Y66.455
N2119 X31.191 Y66.56
N2120 X31.021 Y66.678
N2121 X30.86 Y66.808
N2122 X30.709 Y66.949
N2123 X30.676 Y66.971
N2124 X30.638 Y66.979
N2125 X30.6 Y66.971
N2126 X30.567 Y66.949
N2127 X30.546 Y66.917
N2128 X30.538 Y66.879
N2129 X30.546 Y66.84
N2130 X30.567 Y66.808
N2131 X30.708 Y66.656
N2132 X30.838 Y66.495
N2133 X30.956 Y66.325
N2134 X31.062 Y66.147
N2135 X31.155 Y65.962
N2136 X31.234 Y65.771
N2137 X31.299 Y65.574
N2138 X31.35 Y65.374
N2139 X31.387 Y65.17
N2140 X31.409 Y64.964
N2141 X31.417 Y64.757
N2142 Y55.243
N2143 X31.409 Y55.036
N2144 X31.387 Y54.83
N2145 X31.35 Y54.626
N2146 X31.299 Y54.426
N2147 X31.234 Y54.229
N2148 X31.155 Y54.038
N2149 X31.062 Y53.853
N2150 X30.956 Y53.675
N2151 X30.838 Y53.505
N2152 X30.708 Y53.344
N2153 X30.567 Y53.192
N2154 X30.546 Y53.16
N2155 X30.538 Y53.121
N2156 X30.546 Y53.083
N2157 X30.567 Y53.051
N2158 X30.6 Y53.029
N2159 X30.638 Y53.021
N2160 X30.676 Y53.029
N2161 X30.709 Y53.051
N2162 X30.86 Y53.192
N2163 X31.021 Y53.322
N2164 X31.191 Y53.44
N2165 X31.369 Y53.545
N2166 X31.555 Y53.638
N2167 X31.746 Y53.717
N2168 X31.942 Y53.783
N2169 X32.143 Y53.834
N2170 X32.347 Y53.87
N2171 X32.552 Y53.893
N2172 X32.759 Y53.9
N2173 X51
N2174 X51.207 Y53.893
N2175 X51.413 Y53.87
N2176 X51.616 Y53.834
N2177 X51.817 Y53.783
N2178 X52.013 Y53.717
N2179 X52.205 Y53.638
N2180 X52.39 Y53.545
N2181 X52.568 Y53.44
N2182 X52.738 Y53.322
N2183 X52.899 Y53.192
N2184 X53.051 Y53.051
N2185 X53.192 Y52.899
N2186 X53.322 Y52.738
N2187 X53.44 Y52.568
N2188 X53.545 Y52.39
N2189 X53.638 Y52.205
N2190 X53.717 Y52.013
N2191 X53.783 Y51.817
N2192 X53.834 Y51.616
N2193 X53.87 Y51.413
N2194 X53.893 Y51.207
N2195 X53.9 Y51
N2196 Y32.759
N2197 X53.893 Y32.552
N2198 X53.87 Y32.346
N2199 X53.834 Y32.143
N2200 X53.783 Y31.942
N2201 X53.717 Y31.746
N2202 X53.638 Y31.554
N2203 X53.545 Y31.369
N2204 X53.44 Y31.191
N2205 X53.322 Y31.021
N2206 X53.192 Y30.86
N2207 X53.051 Y30.708
N2208 X53.029 Y30.676
N2209 X53.021 Y30.638
N2210 X53.029 Y30.6
N2211 X53.051 Y30.567
N2212 X53.083 Y30.545
N2213 X53.121 Y30.538
N2214 X53.16 Y30.545
N2215 X53.192 Y30.567
N2216 X53.344 Y30.708
N2217 X53.505 Y30.838
N2218 X53.675 Y30.956
N2219 X53.853 Y31.062
N2220 X54.038 Y31.154
N2221 X54.229 Y31.234
N2222 X54.426 Y31.299
N2223 X54.626 Y31.35
N2224 X54.83 Y31.387
N2225 X55.036 Y31.409
N2226 X55.243 Y31.417
N2227 X64.757
N2228 X64.964 Y31.409
N2229 X65.17 Y31.387
N2230 X65.374 Y31.35
N2231 X65.574 Y31.299
N2232 X65.771 Y31.234
N2233 X65.962 Y31.154
N2234 X66.147 Y31.062
N2235 X66.325 Y30.956
N2236 X66.495 Y30.838
N2237 X66.656 Y30.708
N2238 X66.808 Y30.567
N2239 X66.84 Y30.545
N2240 X66.879 Y30.538
N2241 X66.917 Y30.545
N2242 X66.949 Y30.567
N2243 X66.971 Y30.6
N2244 X66.979 Y30.638
N2245 X66.971 Y30.676
N2246 X66.949 Y30.708
N2247 X66.808 Y30.86
N2248 X66.678 Y31.021
N2249 X66.56 Y31.191
N2250 X66.455 Y31.369
N2251 X66.362 Y31.554
N2252 X66.283 Y31.746
N2253 X66.217 Y31.942
N2254 X66.166 Y32.143
N2255 X66.13 Y32.346
N2256 X66.107 Y32.552
N2257 X66.1 Y32.759
N2258 Y51
N2259 X66.107 Y51.207
N2260 X66.13 Y51.413
N2261 X66.166 Y51.616
N2262 X66.217 Y51.817
N2263 X66.283 Y52.013
N2264 X66.362 Y52.205
N2265 X66.455 Y52.39
N2266 X66.56 Y52.568
N2267 X66.678 Y52.738
N2268 X66.808 Y52.899
N2269 X66.949 Y53.051
N2270 X67.101 Y53.192
N2271 X67.262 Y53.322
N2272 X67.432 Y53.44
N2273 X67.61 Y53.545
N2274 X67.795 Y53.638
N2275 X67.987 Y53.717
N2276 X68.183 Y53.783
N2277 X68.384 Y53.834
N2278 X68.587 Y53.87
N2279 X68.793 Y53.893
N2280 X69 Y53.9
N2281 X87.241
N2282 X87.448 Y53.893
N2283 X87.653 Y53.87
N2284 X87.857 Y53.834
N2285 X88.058 Y53.783
N2286 X88.254 Y53.717
N2287 X88.445 Y53.638
N2288 X88.631 Y53.545
N2289 X88.809 Y53.44
N2290 X88.979 Y53.322
N2291 X89.14 Y53.192
N2292 X89.291 Y53.051
N2293 X89.324 Y53.029
N2294 X89.362 Y53.021
N2295 X89.4 Y53.029
N2296 X89.433 Y53.051
N2297 X89.454 Y53.083
N2298 X89.462 Y53.121
N2299 X89.454 Y53.16
N2300 X89.433 Y53.192
N2301 X89.292 Y53.344
N2302 X89.162 Y53.505
N2303 X89.044 Y53.675
N2304 X88.938 Y53.853
N2305 X88.845 Y54.038
N2306 X88.766 Y54.229
N2307 X88.701 Y54.426
N2308 X88.65 Y54.626
N2309 X88.613 Y54.83
N2310 X88.591 Y55.036
N2311 X88.583 Y55.243
N2312 Y64.757
N2313 X88.591 Y64.964
N2314 X88.613 Y65.17
N2315 X88.65 Y65.374
N2316 X88.701 Y65.574
N2317 X88.766 Y65.771
N2318 X88.845 Y65.962
N2319 X88.938 Y66.147
N2320 X89.044 Y66.325
N2321 X89.162 Y66.495
N2322 X89.292 Y66.656
N2323 X89.433 Y66.808
N2324 X89.454 Y66.84
N2325 X89.462 Y66.879
N2326 X89.454 Y66.917
N2327 X89.433 Y66.949
N2328 X89.4 Y66.971
N2329 X89.362 Y66.979
N2330 X89.324 Y66.971
N2331 X89.291 Y66.949
N2332 X89.14 Y66.808
N2333 X88.979 Y66.678
N2334 X88.809 Y66.56
N2335 X88.631 Y66.455
N2336 X88.445 Y66.362
N2337 X88.254 Y66.283
N2338 X88.058 Y66.217
N2339 X87.857 Y66.166
N2340 X87.653 Y66.13
N2341 X87.448 Y66.107
N2342 X87.241 Y66.1
N2343 X77.362
N2344 X69
N2345 X68.793 Y66.107
N2346 X68.587 Y66.13
N2347 X68.384 Y66.166
N2348 X68.183 Y66.217
N2349 X67.987 Y66.283
N2350 X67.795 Y66.362
N2351 X67.61 Y66.455
N2352 X67.432 Y66.56
N2353 X67.262 Y66.678
N2354 X67.101 Y66.808
N2355 X66.949 Y66.949
N2356 X66.808 Y67.101
N2357 X66.678 Y67.262
N2358 X66.56 Y67.432
N2359 X66.455 Y67.61
N2360 X66.362 Y67.795
N2361 X66.283 Y67.987
N2362 X66.217 Y68.183
N2363 X66.166 Y68.384
N2364 X66.13 Y68.587
N2365 X66.107 Y68.793
N2366 X66.1 Y69
N2367 Y87.241
N2368 X66.107 Y87.448
N2369 X66.13 Y87.654
N2370 X66.166 Y87.857
N2371 X66.217 Y88.058
N2372 X66.283 Y88.254
N2373 X66.362 Y88.446
N2374 X66.455 Y88.631
N2375 X66.56 Y88.809
N2376 X66.678 Y88.979
N2377 X66.808 Y89.14
N2378 X66.949 Y89.292
N2379 X66.971 Y89.324
N2380 X66.979 Y89.362
N2381 X66.971 Y89.4
N2382 X66.949 Y89.433
N2383 X66.917 Y89.455
N2384 X66.879 Y89.462
N2385 X66.84 Y89.455
N2386 X66.808 Y89.433
N2387 X66.656 Y89.292
N2388 X66.495 Y89.162
N2389 X66.325 Y89.044
N2390 X66.147 Y88.938
N2391 X65.962 Y88.846
N2392 X65.771 Y88.766
N2393 X65.574 Y88.701
N2394 X65.374 Y88.65
N2395 X65.17 Y88.613
N2396 X64.964 Y88.591
N2397 X64.757 Y88.584
N2398 X61.064
N2399 G0 Z33

(2D Contour12)
N2400 X117.76 Y85.154
N2401 Z33
N2402 Z23
N2403 G1 Z22 F1000
N2404 Z20.5
N2405 X118.151 Y84.239 Z20.288 F2500
N2406 X118.526 Y83.317 Z20.077
N2407 X118.887 Y82.39 Z19.865
N2408 X119.234 Y81.457 Z19.654
N2409 X119.565 Y80.518 Z19.442
N2410 X119.882 Y79.575 Z19.231
N2411 X120.184 Y78.626 Z19.019
N2412 X120.47 Y77.673 Z18.808
N2413 X120.742 Y76.716 Z18.596
N2414 X120.998 Y75.754 Z18.385
N2415 X121.24 Y74.789 Z18.173
N2416 X121.466 Y73.82 Z17.962
N2417 X121.676 Y72.847 Z17.75
N2418 X121.871 Y71.871 Z17.538
N2419 X122.051 Y70.892 Z17.327
N2420 X122.216 Y69.911 Z17.115
N2421 X122.364 Y68.927 Z16.904
N2422 X122.498 Y67.941 Z16.692
N2423 X122.615 Y66.952 Z16.481
N2424 X122.717 Y65.962 Z16.269
N2425 X122.804 Y64.971 Z16.058
N2426 X122.874 Y63.978 Z15.846
N2427 X122.929 Y62.985 Z15.635
N2428 X122.969 Y61.99 Z15.423
N2429 X122.992 Y60.995 Z15.212
N2430 X123 Y60 Z15
N2431 X122.992 Y58.998 F2760
N2432 X122.968 Y57.996
N2433 X122.928 Y56.995
N2434 X122.873 Y55.994
N2435 X122.801 Y54.995
N2436 X122.713 Y53.996
N2437 X122.61 Y53
N2438 X122.491 Y52.005
N2439 X122.356 Y51.012
N2440 X122.205 Y50.021
N2441 X122.038 Y49.033
N2442 X121.856 Y48.047
N2443 X121.658 Y47.065
N2444 X121.444 Y46.086
N2445 X121.215 Y45.11
N2446 X120.971 Y44.138
N2447 X120.711 Y43.171
N2448 X120.435 Y42.207
N2449 X120.145 Y41.248
N2450 X119.839 Y40.294
N2451 X119.518 Y39.345
N2452 X119.182 Y38.4
N2453 X118.831 Y37.462
N2454 X118.465 Y36.529
N2455 X118.084 Y35.602
N2456 X117.688 Y34.681
N2457 X117.278 Y33.767
N2458 X116.854 Y32.859
N2459 X116.415 Y31.958
N2460 X115.962 Y31.064
N2461 X115.494 Y30.178
N2462 X115.013 Y29.299
N2463 X114.518 Y28.428
N2464 X114.009 Y27.565
N2465 X113.486 Y26.71
N2466 X112.95 Y25.863
N2467 X112.4 Y25.025
N2468 X111.837 Y24.196
N2469 X111.261 Y23.376
N2470 X110.672 Y22.565
N2471 X110.07 Y21.764
N2472 X109.456 Y20.972
N2473 X108.829 Y20.191
N2474 X108.189 Y19.419
N2475 X107.538 Y18.658
N2476 X106.874 Y17.907
N2477 X106.198 Y17.167
N2478 X105.511 Y16.437
N2479 X104.813 Y15.719
N2480 X104.103 Y15.012
N2481 X103.381 Y14.316
N2482 X102.649 Y13.632
N2483 X101.906 Y12.959
N2484 X101.153 Y12.298
N2485 X100.389 Y11.65
N2486 X99.615 Y11.014
N2487 X98.831 Y10.39
N2488 X98.037 Y9.778
N2489 X97.233 Y9.18
N2490 X96.42 Y8.594
N2491 X95.598 Y8.021
N2492 X94.766 Y7.461
N2493 X93.926 Y6.915
N2494 X93.077 Y6.382
N2495 X92.22 Y5.863
N2496 X91.355 Y5.357
N2497 X90.482 Y4.865
N2498 X89.601 Y4.387
N2499 X88.713 Y3.924
N2500 X87.817 Y3.474
N2501 X86.915 Y3.039
N2502 X86.005 Y2.618
N2503 X85.089 Y2.211
N2504 X84.167 Y1.82
N2505 X83.238 Y1.443
N2506 X82.304 Y1.08
N2507 X81.364 Y0.733
N2508 X80.419 Y0.401
N2509 X79.468 Y0.083
N2510 X78.513 Y-0.219
N2511 X77.552 Y-0.505
N2512 X76.588 Y-0.777
N2513 X75.619 Y-1.033
N2514 X74.646 Y-1.274
N2515 X73.67 Y-1.499
N2516 X72.69 Y-1.709
N2517 X71.707 Y-1.903
N2518 X70.72 Y-2.081
N2519 X69.732 Y-2.244
N2520 X68.74 Y-2.391
N2521 X67.747 Y-2.522
N2522 X66.751 Y-2.637
N2523 X65.754 Y-2.737
N2524 X64.756 Y-2.82
N2525 X63.756 Y-2.888
N2526 X62.755 Y-2.94
N2527 X61.753 Y-2.976
N2528 X60.752 Y-2.996
N2529 X59.749 Y-3
N2530 X58.747 Y-2.988
N2531 X57.746 Y-2.96
N2532 X56.745 Y-2.916
N2533 X55.744 Y-2.856
N2534 X54.745 Y-2.78
N2535 X53.747 Y-2.689
N2536 X52.751 Y-2.582
N2537 X51.756 Y-2.458
N2538 X50.764 Y-2.319
N2539 X49.774 Y-2.164
N2540 X48.786 Y-1.994
N2541 X47.801 Y-1.808
N2542 X46.82 Y-1.606
N2543 X45.842 Y-1.388
N2544 X44.867 Y-1.155
N2545 X43.896 Y-0.907
N2546 X42.929 Y-0.643
N2547 X41.967 Y-0.364
N2548 X41.009 Y-0.07
N2549 X40.056 Y0.24
N2550 X39.108 Y0.565
N2551 X38.165 Y0.905
N2552 X37.228 Y1.26
N2553 X36.297 Y1.629
N2554 X35.371 Y2.014
N2555 X34.452 Y2.413
N2556 X33.539 Y2.826
N2557 X32.633 Y3.254
N2558 X31.734 Y3.697
N2559 X30.842 Y4.154
N2560 X29.957 Y4.625
N2561 X29.08 Y5.109
N2562 X28.211 Y5.608
N2563 X27.35 Y6.121
N2564 X26.497 Y6.647
N2565 X25.653 Y7.187
N2566 X24.817 Y7.74
N2567 X23.99 Y8.306
N2568 X23.173 Y8.885
N2569 X22.364 Y9.477
N2570 X21.565 Y10.082
N2571 X20.776 Y10.7
N2572 X19.997 Y11.33
N2573 X19.228 Y11.973
N2574 X18.469 Y12.627
N2575 X17.721 Y13.294
N2576 X16.983 Y13.972
N2577 X16.257 Y14.662
N2578 X15.541 Y15.364
N2579 X14.837 Y16.077
N2580 X14.144 Y16.801
N2581 X13.462 Y17.535
N2582 X12.793 Y18.281
N2583 X12.135 Y19.037
N2584 X11.49 Y19.804
N2585 X10.856 Y20.58
N2586 X10.236 Y21.367
N2587 X9.627 Y22.164
N2588 X9.032 Y22.97
N2589 X8.449 Y23.785
N2590 X7.88 Y24.609
N2591 X7.324 Y25.443
N2592 X6.781 Y26.285
N2593 X6.251 Y27.136
N2594 X5.735 Y27.995
N2595 X5.233 Y28.862
N2596 X4.744 Y29.737
N2597 X4.27 Y30.62
N2598 X3.81 Y31.51
N2599 X3.364 Y32.408
N2600 X2.932 Y33.312
N2601 X2.515 Y34.223
N2602 X2.112 Y35.141
N2603 X1.724 Y36.065
N2604 X1.351 Y36.995
N2605 X0.992 Y37.93
N2606 X0.649 Y38.872
N2607 X0.32 Y39.819
N2608 X0.006 Y40.77
N2609 X-0.292 Y41.727
N2610 X-0.575 Y42.688
N2611 X-0.843 Y43.654
N2612 X-1.095 Y44.624
N2613 X-1.332 Y45.598
N2614 X-1.553 Y46.575
N2615 X-1.759 Y47.556
N2616 X-1.949 Y48.54
N2617 X-2.123 Y49.527
N2618 X-2.282 Y50.516
N2619 X-2.425 Y51.508
N2620 X-2.552 Y52.502
N2621 X-2.664 Y53.498
N2622 X-2.759 Y54.495
N2623 X-2.839 Y55.494
N2624 X-2.902 Y56.494
N2625 X-2.95 Y57.495
N2626 X-2.982 Y58.497
N2627 X-2.998 Y59.499
N2628 Y60.501
N2629 X-2.982 Y61.503
N2630 X-2.95 Y62.505
N2631 X-2.902 Y63.506
N2632 X-2.839 Y64.506
N2633 X-2.759 Y65.505
N2634 X-2.664 Y66.502
N2635 X-2.552 Y67.498
N2636 X-2.425 Y68.492
N2637 X-2.282 Y69.484
N2638 X-2.123 Y70.473
N2639 X-1.949 Y71.46
N2640 X-1.759 Y72.444
N2641 X-1.553 Y73.425
N2642 X-1.332 Y74.402
N2643 X-1.095 Y75.376
N2644 X-0.843 Y76.346
N2645 X-0.575 Y77.312
N2646 X-0.292 Y78.273
N2647 X0.006 Y79.23
N2648 X0.32 Y80.181
N2649 X0.649 Y81.128
N2650 X0.992 Y82.07
N2651 X1.351 Y83.005
N2652 X1.724 Y83.935
N2653 X2.112 Y84.859
N2654 X2.515 Y85.777
N2655 X2.932 Y86.688
N2656 X3.364 Y87.592
N2657 X3.81 Y88.49
N2658 X4.27 Y89.38
N2659 X4.744 Y90.263
N2660 X5.233 Y91.138
N2661 X5.735 Y92.005
N2662 X6.251 Y92.864
N2663 X6.781 Y93.715
N2664 X7.324 Y94.557
N2665 X7.88 Y95.391
N2666 X8.449 Y96.215
N2667 X9.032 Y97.03
N2668 X9.627 Y97.836
N2669 X10.236 Y98.633
N2670 X10.856 Y99.42
N2671 X11.49 Y100.196
N2672 X12.135 Y100.963
N2673 X12.793 Y101.719
N2674 X13.462 Y102.465
N2675 X14.144 Y103.199
N2676 X14.837 Y103.923
N2677 X15.541 Y104.636
N2678 X16.257 Y105.338
N2679 X16.983 Y106.028
N2680 X17.721 Y106.706
N2681 X18.469 Y107.373
N2682 X19.228 Y108.027
N2683 X19.997 Y108.67
N2684 X20.776 Y109.3
N2685 X21.565 Y109.918
N2686 X22.364 Y110.523
N2687 X23.173 Y111.115
N2688 X23.99 Y111.694
N2689 X24.817 Y112.26
N2690 X25.653 Y112.813
N2691 X26.497 Y113.353
N2692 X27.35 Y113.879
N2693 X28.211 Y114.392
N2694 X29.08 Y114.891
N2695 X29.957 Y115.375
N2696 X30.842 Y115.846
N2697 X31.734 Y116.303
N2698 X32.633 Y116.746
N2699 X33.539 Y117.174
N2700 X34.452 Y117.587
N2701 X35.371 Y117.986
N2702 X36.297 Y118.371
N2703 X37.228 Y118.74
N2704 X38.165 Y119.095
N2705 X39.108 Y119.435
N2706 X40.056 Y119.76
N2707 X41.009 Y120.07
N2708 X41.967 Y120.364
N2709 X42.929 Y120.643
N2710 X43.896 Y120.907
N2711 X44.867 Y121.155
N2712 X45.842 Y121.388
N2713 X46.82 Y121.606
N2714 X47.801 Y121.808
N2715 X48.786 Y121.994
N2716 X49.774 Y122.164
N2717 X50.764 Y122.319
N2718 X51.756 Y122.458
N2719 X52.751 Y122.582
N2720 X53.747 Y122.689
N2721 X54.745 Y122.78
N2722 X55.744 Y122.856
N2723 X56.745 Y122.916
N2724 X57.746 Y122.96
N2725 X58.747 Y122.988
N2726 X59.749 Y123
N2727 X60.752 Y122.996
N2728 X61.753 Y122.976
N2729 X62.755 Y122.94
N2730 X63.756 Y122.888
N2731 X64.756 Y122.82
N2732 X65.754 Y122.737
N2733 X66.751 Y122.637
N2734 X67.747 Y122.522
N2735 X68.74 Y122.391
N2736 X69.732 Y122.244
N2737 X70.72 Y122.081
N2738 X71.707 Y121.903
N2739 X72.69 Y121.709
N2740 X73.67 Y121.499
N2741 X74.646 Y121.274
N2742 X75.619 Y121.033
N2743 X76.588 Y120.777
N2744 X77.552 Y120.505
N2745 X78.513 Y120.219
N2746 X79.468 Y119.917
N2747 X80.419 Y119.599
N2748 X81.364 Y119.267
N2749 X82.304 Y118.92
N2750 X83.238 Y118.557
N2751 X84.167 Y118.18
N2752 X85.089 Y117.789
N2753 X86.005 Y117.382
N2754 X86.915 Y116.961
N2755 X87.817 Y116.526
N2756 X88.713 Y116.076
N2757 X89.601 Y115.613
N2758 X90.482 Y115.135
N2759 X91.355 Y114.643
N2760 X92.22 Y114.137
N2761 X93.077 Y113.618
N2762 X93.926 Y113.085
N2763 X94.766 Y112.539
N2764 X95.598 Y111.979
N2765 X96.42 Y111.406
N2766 X97.233 Y110.82
N2767 X98.037 Y110.222
N2768 X98.831 Y109.61
N2769 X99.615 Y108.986
N2770 X100.389 Y108.35
N2771 X101.153 Y107.702
N2772 X101.906 Y107.041
N2773 X102.649 Y106.368
N2774 X103.381 Y105.684
N2775 X104.103 Y104.988
N2776 X104.813 Y104.281
N2777 X105.511 Y103.563
N2778 X106.198 Y102.833
N2779 X106.874 Y102.093
N2780 X107.538 Y101.342
N2781 X108.189 Y100.581
N2782 X108.829 Y99.809
N2783 X109.456 Y99.028
N2784 X110.07 Y98.236
N2785 X110.672 Y97.435
N2786 X111.261 Y96.624
N2787 X111.837 Y95.804
N2788 X112.4 Y94.975
N2789 X112.95 Y94.137
N2790 X113.486 Y93.29
N2791 X114.009 Y92.435
N2792 X114.518 Y91.572
N2793 X115.013 Y90.701
N2794 X115.494 Y89.822
N2795 X115.962 Y88.936
N2796 X116.415 Y88.042
N2797 X116.854 Y87.141
N2798 X117.278 Y86.233
N2799 X117.688 Y85.319
N2800 X118.084 Y84.398
N2801 X118.465 Y83.471
N2802 X118.831 Y82.538
N2803 X119.182 Y81.6
N2804 X119.518 Y80.655
N2805 X119.839 Y79.706
N2806 X120.145 Y78.752
N2807 X120.435 Y77.793
N2808 X120.711 Y76.829
N2809 X120.971 Y75.862
N2810 X121.215 Y74.89
N2811 X121.444 Y73.914
N2812 X121.658 Y72.935
N2813 X121.856 Y71.953
N2814 X122.038 Y70.967
N2815 X122.205 Y69.979
N2816 X122.356 Y68.988
N2817 X122.491 Y67.995
N2818 X122.61 Y67
N2819 X122.713 Y66.004
N2820 X122.801 Y65.005
N2821 X122.873 Y64.006
N2822 X122.928 Y63.005
N2823 X122.968 Y62.004
N2824 X122.992 Y61.002
N2825 X123 Y60
N2826 X122.992 Y59.002 Z14.957 F2500
N2827 X122.968 Y58.004 Z14.914
N2828 X122.929 Y57.007 Z14.871
N2829 X122.874 Y56.011 Z14.829
N2830 X122.803 Y55.016 Z14.786
N2831 X122.716 Y54.022 Z14.743
N2832 X122.613 Y53.029 Z14.7
N2833 X122.495 Y52.038 Z14.657
N2834 X122.361 Y51.049 Z14.614
N2835 X122.211 Y50.063 Z14.571
N2836 X122.046 Y49.078 Z14.529
N2837 X121.865 Y48.097 Z14.486
N2838 X121.669 Y47.119 Z14.443
N2839 X121.457 Y46.143 Z14.4
N2840 X121.23 Y45.172 Z14.357
N2841 X120.988 Y44.204 Z14.314
N2842 X120.73 Y43.24 Z14.271
N2843 X120.457 Y42.28 Z14.229
N2844 X120.168 Y41.324 Z14.186
N2845 X119.865 Y40.374 Z14.143
N2846 X119.547 Y39.428 Z14.1
N2847 X119.213 Y38.487 Z14.057
N2848 X118.865 Y37.552 Z14.014
N2849 X118.502 Y36.623 Z13.971
N2850 X118.125 Y35.699 Z13.929
N2851 X117.732 Y34.781 Z13.886
N2852 X117.326 Y33.87 Z13.843
N2853 X116.905 Y32.965 Z13.8
N2854 X116.469 Y32.067 Z13.757
N2855 X116.02 Y31.177 Z13.714
N2856 X115.556 Y30.293 Z13.671
N2857 X115.079 Y29.417 Z13.629
N2858 X114.587 Y28.548 Z13.586
N2859 X114.082 Y27.687 Z13.543
N2860 X113.564 Y26.835 Z13.5
N2861 X113.032 Y25.991 Z13.457
N2862 X112.486 Y25.155 Z13.414
N2863 X111.928 Y24.328 Z13.371
N2864 X111.356 Y23.51 Z13.329
N2865 X110.772 Y22.701 Z13.286
N2866 X110.175 Y21.901 Z13.243
N2867 X109.565 Y21.111 Z13.2
N2868 X108.943 Y20.331 Z13.157
N2869 X108.308 Y19.561 Z13.114
N2870 X107.662 Y18.801 Z13.071
N2871 X107.003 Y18.051 Z13.029
N2872 X106.333 Y17.312 Z12.986
N2873 X105.651 Y16.583 Z12.943
N2874 X104.957 Y15.866 Z12.9
N2875 X104.253 Y15.159 Z12.857
N2876 X103.537 Y14.464 Z12.814
N2877 X102.81 Y13.78 Z12.771
N2878 X102.073 Y13.108 Z12.729
N2879 X101.325 Y12.447 Z12.686
N2880 X100.566 Y11.799 Z12.643
N2881 X99.798 Y11.162 Z12.6
N2882 X99.019 Y10.538 Z12.557
N2883 X98.231 Y9.926 Z12.514
N2884 X97.433 Y9.327 Z12.471
N2885 X96.626 Y8.74 Z12.429
N2886 X95.809 Y8.167 Z12.386
N2887 X94.984 Y7.606 Z12.343
N2888 X94.149 Y7.058 Z12.3
N2889 X93.307 Y6.524 Z12.257
N2890 X92.455 Y6.003 Z12.214
N2891 X91.596 Y5.496 Z12.171
N2892 X90.729 Y5.002 Z12.129
N2893 X89.854 Y4.522 Z12.086
N2894 X88.971 Y4.057 Z12.043
N2895 X88.082 Y3.605 Z12
N2896 X87.181 Y3.165 F2760
N2897 X86.273 Y2.74
N2898 X85.359 Y2.329
N2899 X84.439 Y1.933
N2900 X83.512 Y1.552
N2901 X82.579 Y1.185
N2902 X81.641 Y0.834
N2903 X80.697 Y0.497
N2904 X79.748 Y0.175
N2905 X78.794 Y-0.131
N2906 X77.835 Y-0.423
N2907 X76.872 Y-0.699
N2908 X75.904 Y-0.959
N2909 X74.933 Y-1.205
N2910 X73.957 Y-1.434
N2911 X72.978 Y-1.649
N2912 X71.996 Y-1.847
N2913 X71.011 Y-2.03
N2914 X70.023 Y-2.198
N2915 X69.032 Y-2.349
N2916 X68.039 Y-2.485
N2917 X67.044 Y-2.605
N2918 X66.048 Y-2.709
N2919 X65.049 Y-2.797
N2920 X64.05 Y-2.87
N2921 X63.049 Y-2.926
N2922 X62.048 Y-2.967
N2923 X61.046 Y-2.991
N2924 X60.044 Y-3
N2925 X59.042 Y-2.993
N2926 X58.04 Y-2.97
N2927 X57.039 Y-2.93
N2928 X56.038 Y-2.875
N2929 X55.039 Y-2.804
N2930 X54.04 Y-2.717
N2931 X53.044 Y-2.615
N2932 X52.048 Y-2.496
N2933 X51.055 Y-2.362
N2934 X50.065 Y-2.212
N2935 X49.076 Y-2.046
N2936 X48.091 Y-1.864
N2937 X47.108 Y-1.667
N2938 X46.129 Y-1.454
N2939 X45.153 Y-1.226
N2940 X44.181 Y-0.982
N2941 X43.213 Y-0.722
N2942 X42.25 Y-0.448
N2943 X41.29 Y-0.158
N2944 X40.336 Y0.148
N2945 X39.386 Y0.468
N2946 X38.442 Y0.803
N2947 X37.503 Y1.154
N2948 X36.57 Y1.519
N2949 X35.643 Y1.899
N2950 X34.722 Y2.294
N2951 X33.807 Y2.703
N2952 X32.899 Y3.127
N2953 X31.998 Y3.565
N2954 X31.104 Y4.018
N2955 X30.217 Y4.485
N2956 X29.337 Y4.965
N2957 X28.466 Y5.46
N2958 X27.602 Y5.969
N2959 X26.747 Y6.491
N2960 X25.9 Y7.026
N2961 X25.062 Y7.575
N2962 X24.232 Y8.138
N2963 X23.412 Y8.713
N2964 X22.601 Y9.302
N2965 X21.799 Y9.903
N2966 X21.007 Y10.517
N2967 X20.225 Y11.144
N2968 X19.453 Y11.782
N2969 X18.691 Y12.433
N2970 X17.94 Y13.097
N2971 X17.199 Y13.771
N2972 X16.469 Y14.458
N2973 X15.75 Y15.156
N2974 X15.043 Y15.866
N2975 X14.346 Y16.586
N2976 X13.661 Y17.318
N2977 X12.988 Y18.061
N2978 X12.327 Y18.814
N2979 X11.678 Y19.577
N2980 X11.041 Y20.351
N2981 X10.417 Y21.135
N2982 X9.805 Y21.928
N2983 X9.206 Y22.731
N2984 X8.619 Y23.544
N2985 X8.046 Y24.366
N2986 X7.486 Y25.197
N2987 X6.939 Y26.037
N2988 X6.405 Y26.885
N2989 X5.885 Y27.742
N2990 X5.379 Y28.606
N2991 X4.887 Y29.479
N2992 X4.408 Y30.36
N2993 X3.944 Y31.248
N2994 X3.493 Y32.143
N2995 X3.058 Y33.045
N2996 X2.636 Y33.954
N2997 X2.229 Y34.87
N2998 X1.837 Y35.792
N2999 X1.459 Y36.72
N3000 X1.096 Y37.655
N3001 X0.748 Y38.594
N3002 X0.415 Y39.54
N3003 X0.097 Y40.49
N3004 X-0.206 Y41.445
N3005 X-0.493 Y42.405
N3006 X-0.765 Y43.37
N3007 X-1.022 Y44.338
N3008 X-1.264 Y45.311
N3009 X-1.49 Y46.287
N3010 X-1.7 Y47.267
N3011 X-1.895 Y48.25
N3012 X-2.074 Y49.236
N3013 X-2.237 Y50.225
N3014 X-2.385 Y51.216
N3015 X-2.516 Y52.209
N3016 X-2.632 Y53.205
N3017 X-2.733 Y54.202
N3018 X-2.817 Y55.2
N3019 X-2.885 Y56.2
N3020 X-2.938 Y57.201
N3021 X-2.974 Y58.202
N3022 X-2.995 Y59.204
N3023 X-3 Y60.206
N3024 X-2.988 Y61.208
N3025 X-2.961 Y62.21
N3026 X-2.918 Y63.211
N3027 X-2.859 Y64.212
N3028 X-2.784 Y65.211
N3029 X-2.693 Y66.209
N3030 X-2.587 Y67.205
N3031 X-2.464 Y68.2
N3032 X-2.326 Y69.193
N3033 X-2.172 Y70.183
N3034 X-2.002 Y71.17
N3035 X-1.816 Y72.155
N3036 X-1.615 Y73.137
N3037 X-1.398 Y74.115
N3038 X-1.166 Y75.09
N3039 X-0.918 Y76.061
N3040 X-0.655 Y77.028
N3041 X-0.377 Y77.991
N3042 X-0.083 Y78.949
N3043 X0.226 Y79.902
N3044 X0.55 Y80.85
N3045 X0.889 Y81.793
N3046 X1.244 Y82.731
N3047 X1.613 Y83.662
N3048 X1.996 Y84.588
N3049 X2.395 Y85.508
N3050 X2.808 Y86.421
N3051 X3.235 Y87.327
N3052 X3.677 Y88.227
N3053 X4.133 Y89.119
N3054 X4.603 Y90.004
N3055 X5.088 Y90.881
N3056 X5.586 Y91.751
N3057 X6.098 Y92.612
N3058 X6.623 Y93.465
N3059 X7.162 Y94.31
N3060 X7.715 Y95.146
N3061 X8.28 Y95.974
N3062 X8.859 Y96.792
N3063 X9.451 Y97.6
N3064 X10.055 Y98.4
N3065 X10.673 Y99.189
N3066 X11.302 Y99.969
N3067 X11.944 Y100.738
N3068 X12.598 Y101.498
N3069 X13.264 Y102.246
N3070 X13.942 Y102.984
N3071 X14.632 Y103.712
N3072 X15.333 Y104.428
N3073 X16.045 Y105.133
N3074 X16.768 Y105.826
N3075 X17.503 Y106.508
N3076 X18.248 Y107.178
N3077 X19.004 Y107.836
N3078 X19.77 Y108.482
N3079 X20.546 Y109.116
N3080 X21.332 Y109.737
N3081 X22.128 Y110.346
N3082 X22.934 Y110.942
N3083 X23.749 Y111.525
N3084 X24.573 Y112.095
N3085 X25.406 Y112.652
N3086 X26.248 Y113.196
N3087 X27.098 Y113.726
N3088 X27.957 Y114.242
N3089 X28.824 Y114.745
N3090 X29.699 Y115.234
N3091 X30.581 Y115.709
N3092 X31.471 Y116.17
N3093 X32.368 Y116.617
N3094 X33.272 Y117.049
N3095 X34.183 Y117.467
N3096 X35.1 Y117.871
N3097 X36.024 Y118.259
N3098 X36.953 Y118.633
N3099 X37.889 Y118.992
N3100 X38.83 Y119.337
N3101 X39.777 Y119.666
N3102 X40.728 Y119.98
N3103 X41.685 Y120.279
N3104 X42.646 Y120.563
N3105 X43.611 Y120.831
N3106 X44.581 Y121.084
N3107 X45.555 Y121.322
N3108 X46.532 Y121.544
N3109 X47.512 Y121.75
N3110 X48.496 Y121.941
N3111 X49.483 Y122.116
N3112 X50.472 Y122.275
N3113 X51.464 Y122.419
N3114 X52.458 Y122.547
N3115 X53.454 Y122.659
N3116 X54.451 Y122.755
N3117 X55.45 Y122.835
N3118 X56.45 Y122.9
N3119 X57.451 Y122.948
N3120 X58.453 Y122.981
N3121 X59.455 Y122.998
N3122 X60.457
N3123 X61.459 Y122.983
N3124 X62.46 Y122.952
N3125 X63.461 Y122.905
N3126 X64.462 Y122.842
N3127 X65.461 Y122.763
N3128 X66.458 Y122.668
N3129 X67.454 Y122.557
N3130 X68.448 Y122.431
N3131 X69.44 Y122.289
N3132 X70.43 Y122.131
N3133 X71.417 Y121.957
N3134 X72.401 Y121.767
N3135 X73.382 Y121.562
N3136 X74.359 Y121.342
N3137 X75.333 Y121.106
N3138 X76.303 Y120.854
N3139 X77.269 Y120.587
N3140 X78.231 Y120.305
N3141 X79.188 Y120.007
N3142 X80.14 Y119.694
N3143 X81.087 Y119.366
N3144 X82.028 Y119.023
N3145 X82.964 Y118.666
N3146 X83.894 Y118.293
N3147 X84.819 Y117.905
N3148 X85.737 Y117.503
N3149 X86.648 Y117.087
N3150 X87.553 Y116.656
N3151 X88.45 Y116.21
N3152 X89.341 Y115.751
N3153 X90.224 Y115.277
N3154 X91.099 Y114.789
N3155 X91.967 Y114.287
N3156 X92.826 Y113.772
N3157 X93.677 Y113.243
N3158 X94.52 Y112.701
N3159 X95.354 Y112.145
N3160 X96.179 Y111.576
N3161 X96.995 Y110.994
N3162 X97.801 Y110.399
N3163 X98.598 Y109.792
N3164 X99.385 Y109.171
N3165 X100.162 Y108.539
N3166 X100.929 Y107.894
N3167 X101.686 Y107.237
N3168 X102.432 Y106.567
N3169 X103.167 Y105.887
N3170 X103.892 Y105.194
N3171 X104.605 Y104.49
N3172 X105.307 Y103.775
N3173 X105.998 Y103.049
N3174 X106.677 Y102.312
N3175 X107.344 Y101.564
N3176 X107.999 Y100.806
N3177 X108.642 Y100.037
N3178 X109.272 Y99.258
N3179 X109.891 Y98.47
N3180 X110.496 Y97.671
N3181 X111.089 Y96.863
N3182 X111.669 Y96.046
N3183 X112.236 Y95.22
N3184 X112.789 Y94.384
N3185 X113.33 Y93.54
N3186 X113.856 Y92.688
N3187 X114.369 Y91.827
N3188 X114.869 Y90.958
N3189 X115.354 Y90.082
N3190 X115.826 Y89.197
N3191 X116.283 Y88.306
N3192 X116.726 Y87.407
N3193 X117.155 Y86.501
N3194 X117.569 Y85.589
N3195 X117.969 Y84.67
N3196 X118.354 Y83.744
N3197 X118.724 Y82.813
N3198 X119.08 Y81.876
N3199 X119.42 Y80.934
N3200 X119.746 Y79.986
N3201 X120.056 Y79.033
N3202 X120.351 Y78.075
N3203 X120.631 Y77.113
N3204 X120.896 Y76.147
N3205 X121.145 Y75.176
N3206 X121.378 Y74.201
N3207 X121.597 Y73.223
N3208 X121.799 Y72.242
N3209 X121.986 Y71.257
N3210 X122.157 Y70.27
N3211 X122.313 Y69.28
N3212 X122.452 Y68.288
N3213 X122.576 Y67.293
N3214 X122.685 Y66.297
N3215 X122.777 Y65.299
N3216 X122.853 Y64.3
N3217 X122.914 Y63.3
N3218 X122.958 Y62.298
N3219 X122.987 Y61.297
N3220 X122.999 Y60.295
N3221 X122.996 Y59.293
N3222 X122.977 Y58.291
N3223 X122.942 Y57.289
N3224 X122.891 Y56.288
N3225 X122.824 Y55.289
N3226 X122.741 Y54.29
N3227 X122.642 Y53.293
N3228 X122.527 Y52.297
N3229 X122.397 Y51.303
N3230 X122.251 Y50.312
N3231 X122.089 Y49.323
N3232 X121.911 Y48.337
N3233 X121.718 Y47.354
N3234 X121.509 Y46.373
N3235 X121.284 Y45.397
N3236 X121.044 Y44.424
N3237 X120.789 Y43.455
N3238 X120.518 Y42.49
N3239 X120.232 Y41.53
N3240 X119.93 Y40.574
N3241 X119.614 Y39.623
N3242 X119.282 Y38.678
N3243 X118.935 Y37.737
N3244 X118.574 Y36.803
N3245 X118.197 Y35.874
N3246 X117.806 Y34.951
N3247 X117.401 Y34.035
N3248 X116.98 Y33.125
N3249 X116.546 Y32.222
N3250 X116.097 Y31.326
N3251 X115.633 Y30.438
N3252 X115.156 Y29.557
N3253 X114.665 Y28.683
N3254 X114.16 Y27.818
N3255 X113.641 Y26.96
N3256 X113.109 Y26.111
N3257 X112.563 Y25.271
N3258 X112.004 Y24.439
N3259 X111.432 Y23.616
N3260 X110.847 Y22.803
N3261 X110.248 Y21.999
N3262 X109.638 Y21.204
N3263 X109.014 Y20.42
N3264 X108.378 Y19.645
N3265 X107.73 Y18.881
N3266 X107.07 Y18.127
N3267 X106.398 Y17.383
N3268 X105.715 Y16.651
N3269 X105.019 Y15.929
N3270 X104.313 Y15.218
N3271 X103.595 Y14.519
N3272 X102.866 Y13.832
N3273 X102.126 Y13.156
N3274 X101.376 Y12.491
N3275 X100.615 Y11.839
N3276 X99.843 Y11.199
N3277 X99.062 Y10.572
N3278 X98.271 Y9.957
N3279 X97.47 Y9.354
N3280 X96.66 Y8.765
N3281 X95.84 Y8.188
N3282 X95.012 Y7.625
N3283 X94.174 Y7.074
N3284 X93.328 Y6.537
N3285 X92.473 Y6.014
N3286 X91.611 Y5.504
N3287 X90.74 Y5.008
N3288 X89.861 Y4.526
N3289 X88.975 Y4.059
N3290 X88.082 Y3.605
N3291 X87.185 Y3.167 Z11.957 F2500
N3292 X86.281 Y2.744 Z11.914
N3293 X85.371 Y2.334 Z11.871
N3294 X84.454 Y1.94 Z11.829
N3295 X83.532 Y1.56 Z11.786
N3296 X82.603 Y1.194 Z11.743
N3297 X81.669 Y0.844 Z11.7
N3298 X80.729 Y0.508 Z11.657
N3299 X79.784 Y0.187 Z11.614
N3300 X78.834 Y-0.119 Z11.571
N3301 X77.88 Y-0.41 Z11.529
N3302 X76.921 Y-0.685 Z11.486
N3303 X75.957 Y-0.946 Z11.443
N3304 X74.99 Y-1.191 Z11.4
N3305 X74.019 Y-1.42 Z11.357
N3306 X73.044 Y-1.635 Z11.314
N3307 X72.066 Y-1.834 Z11.271
N3308 X71.085 Y-2.017 Z11.229
N3309 X70.102 Y-2.185 Z11.186
N3310 X69.115 Y-2.337 Z11.143
N3311 X68.127 Y-2.474 Z11.1
N3312 X67.136 Y-2.595 Z11.057
N3313 X66.144 Y-2.7 Z11.014
N3314 X65.15 Y-2.789 Z10.971
N3315 X64.155 Y-2.863 Z10.929
N3316 X63.159 Y-2.921 Z10.886
N3317 X62.162 Y-2.963 Z10.843
N3318 X61.164 Y-2.989 Z10.8
N3319 X60.166 Y-3 Z10.757
N3320 X59.168 Y-2.995 Z10.714
N3321 X58.171 Y-2.973 Z10.671
N3322 X57.174 Y-2.937 Z10.629
N3323 X56.177 Y-2.884 Z10.586
N3324 X55.181 Y-2.815 Z10.543
N3325 X54.187 Y-2.731 Z10.5
N3326 X53.194 Y-2.631 Z10.457
N3327 X52.203 Y-2.516 Z10.414
N3328 X51.214 Y-2.384 Z10.371
N3329 X50.227 Y-2.237 Z10.329
N3330 X49.242 Y-2.075 Z10.286
N3331 X48.26 Y-1.897 Z10.243
N3332 X47.281 Y-1.703 Z10.2
N3333 X46.306 Y-1.494 Z10.157
N3334 X45.333 Y-1.269 Z10.114
N3335 X44.365 Y-1.029 Z10.071
N3336 X43.4 Y-0.774 Z10.029
N3337 X42.44 Y-0.503 Z9.986
N3338 X41.483 Y-0.217 Z9.943
N3339 X40.532 Y0.083 Z9.9
N3340 X39.585 Y0.399 Z9.857
N3341 X38.644 Y0.73 Z9.814
N3342 X37.708 Y1.076 Z9.771
N3343 X36.777 Y1.436 Z9.729
N3344 X35.853 Y1.812 Z9.686
N3345 X34.934 Y2.201 Z9.643
N3346 X34.022 Y2.606 Z9.6
N3347 X33.116 Y3.024 Z9.557
N3348 X32.217 Y3.457 Z9.514
N3349 X31.325 Y3.904 Z9.471
N3350 X30.44 Y4.366 Z9.429
N3351 X29.562 Y4.841 Z9.386
N3352 X28.692 Y5.33 Z9.343
N3353 X27.83 Y5.833 Z9.3
N3354 X26.976 Y6.349 Z9.257
N3355 X26.131 Y6.879 Z9.214
N3356 X25.293 Y7.422 Z9.171
N3357 X24.465 Y7.978 Z9.129
N3358 X23.646 Y8.548 Z9.086
N3359 X22.835 Y9.13 Z9.043
N3360 X22.034 Y9.725 Z9
N3361 X21.239 Y10.335 F2760
N3362 X20.454 Y10.958
N3363 X19.679 Y11.593
N3364 X18.914 Y12.241
N3365 X18.16 Y12.9
N3366 X17.416 Y13.572
N3367 X16.683 Y14.255
N3368 X15.961 Y14.95
N3369 X15.25 Y15.656
N3370 X14.55 Y16.373
N3371 X13.862 Y17.102
N3372 X13.185 Y17.841
N3373 X12.521 Y18.591
N3374 X11.868 Y19.352
N3375 X11.227 Y20.122
N3376 X10.599 Y20.903
N3377 X9.984 Y21.694
N3378 X9.381 Y22.494
N3379 X8.79 Y23.304
N3380 X8.213 Y24.123
N3381 X7.649 Y24.952
N3382 X7.098 Y25.789
N3383 X6.561 Y26.635
N3384 X6.037 Y27.489
N3385 X5.527 Y28.351
N3386 X5.03 Y29.222
N3387 X4.547 Y30.1
N3388 X4.079 Y30.986
N3389 X3.624 Y31.879
N3390 X3.184 Y32.779
N3391 X2.758 Y33.686
N3392 X2.347 Y34.6
N3393 X1.95 Y35.52
N3394 X1.568 Y36.447
N3395 X1.201 Y37.379
N3396 X0.849 Y38.317
N3397 X0.511 Y39.261
N3398 X0.189 Y40.21
N3399 X-0.118 Y41.164
N3400 X-0.41 Y42.122
N3401 X-0.687 Y43.085
N3402 X-0.948 Y44.053
N3403 X-1.194 Y45.024
N3404 X-1.425 Y46
N3405 X-1.64 Y46.978
N3406 X-1.839 Y47.961
N3407 X-2.023 Y48.946
N3408 X-2.191 Y49.934
N3409 X-2.343 Y50.924
N3410 X-2.479 Y51.917
N3411 X-2.6 Y52.912
N3412 X-2.705 Y53.908
N3413 X-2.794 Y54.907
N3414 X-2.867 Y55.906
N3415 X-2.924 Y56.906
N3416 X-2.965 Y57.908
N3417 X-2.991 Y58.91
N3418 X-3 Y59.912
N3419 X-2.993 Y60.914
N3420 X-2.971 Y61.916
N3421 X-2.932 Y62.917
N3422 X-2.878 Y63.918
N3423 X-2.808 Y64.917
N3424 X-2.722 Y65.916
N3425 X-2.62 Y66.913
N3426 X-2.502 Y67.908
N3427 X-2.368 Y68.901
N3428 X-2.219 Y69.892
N3429 X-2.053 Y70.88
N3430 X-1.872 Y71.866
N3431 X-1.676 Y72.848
N3432 X-1.464 Y73.828
N3433 X-1.236 Y74.804
N3434 X-0.993 Y75.776
N3435 X-0.734 Y76.744
N3436 X-0.46 Y77.708
N3437 X-0.171 Y78.667
N3438 X0.134 Y79.622
N3439 X0.453 Y80.572
N3440 X0.788 Y81.516
N3441 X1.138 Y82.456
N3442 X1.503 Y83.389
N3443 X1.882 Y84.317
N3444 X2.276 Y85.238
N3445 X2.685 Y86.153
N3446 X3.108 Y87.061
N3447 X3.546 Y87.963
N3448 X3.998 Y88.857
N3449 X4.464 Y89.744
N3450 X4.944 Y90.624
N3451 X5.438 Y91.496
N3452 X5.946 Y92.36
N3453 X6.467 Y93.215
N3454 X7.002 Y94.063
N3455 X7.551 Y94.901
N3456 X8.113 Y95.731
N3457 X8.688 Y96.552
N3458 X9.276 Y97.364
N3459 X9.876 Y98.166
N3460 X10.49 Y98.958
N3461 X11.116 Y99.741
N3462 X11.754 Y100.513
N3463 X12.404 Y101.275
N3464 X13.067 Y102.027
N3465 X13.741 Y102.769
N3466 X14.428 Y103.499
N3467 X15.125 Y104.218
N3468 X15.834 Y104.926
N3469 X16.554 Y105.623
N3470 X17.286 Y106.309
N3471 X18.028 Y106.982
N3472 X18.78 Y107.644
N3473 X19.543 Y108.293
N3474 X20.317 Y108.931
N3475 X21.1 Y109.556
N3476 X21.893 Y110.168
N3477 X22.696 Y110.768
N3478 X23.508 Y111.355
N3479 X24.33 Y111.929
N3480 X25.16 Y112.49
N3481 X25.999 Y113.037
N3482 X26.847 Y113.571
N3483 X27.704 Y114.092
N3484 X28.568 Y114.599
N3485 X29.441 Y115.092
N3486 X30.321 Y115.571
N3487 X31.208 Y116.036
N3488 X32.103 Y116.487
N3489 X33.005 Y116.924
N3490 X33.914 Y117.346
N3491 X34.83 Y117.753
N3492 X35.751 Y118.146
N3493 X36.679 Y118.525
N3494 X37.613 Y118.888
N3495 X38.553 Y119.237
N3496 X39.498 Y119.571
N3497 X40.448 Y119.889
N3498 X41.403 Y120.193
N3499 X42.363 Y120.481
N3500 X43.327 Y120.754
N3501 X44.295 Y121.011
N3502 X45.268 Y121.253
N3503 X46.244 Y121.48
N3504 X47.224 Y121.691
N3505 X48.207 Y121.886
N3506 X49.192 Y122.066
N3507 X50.181 Y122.23
N3508 X51.172 Y122.378
N3509 X52.165 Y122.511
N3510 X53.161 Y122.628
N3511 X54.158 Y122.729
N3512 X55.156 Y122.814
N3513 X56.156 Y122.883
N3514 X57.157 Y122.936
N3515 X58.158 Y122.973
N3516 X59.16 Y122.994
N3517 X60.162 Y123
N3518 X61.164 Y122.989
N3519 X62.166 Y122.963
N3520 X63.167 Y122.92
N3521 X64.168 Y122.862
N3522 X65.167 Y122.788
N3523 X66.165 Y122.698
N3524 X67.161 Y122.592
N3525 X68.156 Y122.47
N3526 X69.149 Y122.332
N3527 X70.139 Y122.179
N3528 X71.127 Y122.01
N3529 X72.112 Y121.825
N3530 X73.094 Y121.624
N3531 X74.072 Y121.408
N3532 X75.047 Y121.177
N3533 X76.018 Y120.93
N3534 X76.985 Y120.667
N3535 X77.948 Y120.389
N3536 X78.907 Y120.096
N3537 X79.86 Y119.788
N3538 X80.809 Y119.464
N3539 X81.752 Y119.126
N3540 X82.689 Y118.772
N3541 X83.621 Y118.404
N3542 X84.547 Y118.021
N3543 X85.467 Y117.623
N3544 X86.381 Y117.211
N3545 X87.287 Y116.784
N3546 X88.187 Y116.343
N3547 X89.08 Y115.887
N3548 X89.965 Y115.418
N3549 X90.843 Y114.934
N3550 X91.712 Y114.436
N3551 X92.574 Y113.925
N3552 X93.428 Y113.4
N3553 X94.273 Y112.862
N3554 X95.11 Y112.31
N3555 X95.937 Y111.745
N3556 X96.756 Y111.167
N3557 X97.565 Y110.575
N3558 X98.365 Y109.972
N3559 X99.155 Y109.355
N3560 X99.935 Y108.726
N3561 X100.705 Y108.085
N3562 X101.464 Y107.431
N3563 X102.214 Y106.765
N3564 X102.952 Y106.088
N3565 X103.68 Y105.399
N3566 X104.396 Y104.699
N3567 X105.102 Y103.987
N3568 X105.796 Y103.264
N3569 X106.478 Y102.53
N3570 X107.149 Y101.785
N3571 X107.807 Y101.03
N3572 X108.454 Y100.264
N3573 X109.088 Y99.489
N3574 X109.71 Y98.703
N3575 X110.319 Y97.907
N3576 X110.916 Y97.102
N3577 X111.5 Y96.287
N3578 X112.07 Y95.464
N3579 X112.628 Y94.631
N3580 X113.172 Y93.789
N3581 X113.703 Y92.939
N3582 X114.22 Y92.081
N3583 X114.723 Y91.215
N3584 X115.213 Y90.34
N3585 X115.689 Y89.458
N3586 X116.15 Y88.569
N3587 X116.597 Y87.672
N3588 X117.03 Y86.768
N3589 X117.449 Y85.858
N3590 X117.853 Y84.94
N3591 X118.242 Y84.017
N3592 X118.617 Y83.088
N3593 X118.977 Y82.152
N3594 X119.322 Y81.211
N3595 X119.652 Y80.265
N3596 X119.966 Y79.314
N3597 X120.266 Y78.358
N3598 X120.55 Y77.397
N3599 X120.82 Y76.431
N3600 X121.073 Y75.462
N3601 X121.311 Y74.488
N3602 X121.534 Y73.511
N3603 X121.741 Y72.531
N3604 X121.933 Y71.547
N3605 X122.109 Y70.561
N3606 X122.269 Y69.571
N3607 X122.413 Y68.58
N3608 X122.542 Y67.586
N3609 X122.654 Y66.59
N3610 X122.751 Y65.593
N3611 X122.832 Y64.594
N3612 X122.897 Y63.594
N3613 X122.947 Y62.593
N3614 X122.98 Y61.591
N3615 X122.997 Y60.589
N3616 X122.999 Y59.587
N3617 X122.984 Y58.585
N3618 X122.954 Y57.584
N3619 X122.907 Y56.583
N3620 X122.845 Y55.582
N3621 X122.767 Y54.583
N3622 X122.673 Y53.586
N3623 X122.563 Y52.59
N3624 X122.437 Y51.595
N3625 X122.295 Y50.603
N3626 X122.138 Y49.614
N3627 X121.965 Y48.627
N3628 X121.776 Y47.642
N3629 X121.572 Y46.661
N3630 X121.352 Y45.684
N3631 X121.116 Y44.71
N3632 X120.865 Y43.739
N3633 X120.599 Y42.773
N3634 X120.317 Y41.812
N3635 X120.02 Y40.855
N3636 X119.708 Y39.902
N3637 X119.381 Y38.955
N3638 X119.039 Y38.013
N3639 X118.682 Y37.077
N3640 X118.31 Y36.146
N3641 X117.923 Y35.222
N3642 X117.521 Y34.304
N3643 X117.105 Y33.392
N3644 X116.675 Y32.487
N3645 X116.23 Y31.589
N3646 X115.771 Y30.698
N3647 X115.298 Y29.815
N3648 X114.811 Y28.939
N3649 X114.31 Y28.071
N3650 X113.795 Y27.211
N3651 X113.267 Y26.36
N3652 X112.725 Y25.517
N3653 X112.17 Y24.683
N3654 X111.601 Y23.857
N3655 X111.02 Y23.041
N3656 X110.426 Y22.234
N3657 X109.819 Y21.437
N3658 X109.199 Y20.649
N3659 X108.567 Y19.872
N3660 X107.922 Y19.104
N3661 X107.266 Y18.347
N3662 X106.597 Y17.601
N3663 X105.917 Y16.865
N3664 X105.225 Y16.14
N3665 X104.522 Y15.426
N3666 X103.807 Y14.724
N3667 X103.081 Y14.033
N3668 X102.345 Y13.353
N3669 X101.597 Y12.686
N3670 X100.84 Y12.03
N3671 X100.071 Y11.386
N3672 X99.293 Y10.755
N3673 X98.505 Y10.136
N3674 X97.707 Y9.53
N3675 X96.899 Y8.937
N3676 X96.082 Y8.356
N3677 X95.256 Y7.789
N3678 X94.421 Y7.235
N3679 X93.578 Y6.694
N3680 X92.726 Y6.167
N3681 X91.865 Y5.653
N3682 X90.997 Y5.153
N3683 X90.12 Y4.667
N3684 X89.236 Y4.195
N3685 X88.345 Y3.737
N3686 X87.447 Y3.293
N3687 X86.541 Y2.864
N3688 X85.629 Y2.449
N3689 X84.71 Y2.048
N3690 X83.785 Y1.663
N3691 X82.854 Y1.292
N3692 X81.918 Y0.935
N3693 X80.975 Y0.594
N3694 X80.028 Y0.268
N3695 X79.075 Y-0.043
N3696 X78.118 Y-0.339
N3697 X77.156 Y-0.619
N3698 X76.189 Y-0.884
N3699 X75.219 Y-1.134
N3700 X74.245 Y-1.369
N3701 X73.267 Y-1.587
N3702 X72.285 Y-1.791
N3703 X71.301 Y-1.978
N3704 X70.314 Y-2.15
N3705 X69.324 Y-2.306
N3706 X68.332 Y-2.447
N3707 X67.337 Y-2.571
N3708 X66.341 Y-2.68
N3709 X65.343 Y-2.773
N3710 X64.344 Y-2.85
N3711 X63.344 Y-2.911
N3712 X62.343 Y-2.956
N3713 X61.341 Y-2.986
N3714 X60.339 Y-2.999
N3715 X59.337 Y-2.997
N3716 X58.335 Y-2.978
N3717 X57.333 Y-2.944
N3718 X56.333 Y-2.893
N3719 X55.333 Y-2.827
N3720 X54.334 Y-2.745
N3721 X53.337 Y-2.647
N3722 X52.341 Y-2.533
N3723 X51.347 Y-2.403
N3724 X50.356 Y-2.257
N3725 X49.367 Y-2.096
N3726 X48.38 Y-1.919
N3727 X47.397 Y-1.727
N3728 X46.417 Y-1.518
N3729 X45.44 Y-1.294
N3730 X44.467 Y-1.055
N3731 X43.498 Y-0.8
N3732 X42.533 Y-0.53
N3733 X41.572 Y-0.245
N3734 X40.616 Y0.056
N3735 X39.665 Y0.372
N3736 X38.719 Y0.703
N3737 X37.779 Y1.049
N3738 X36.844 Y1.41
N3739 X35.915 Y1.786
N3740 X34.992 Y2.176
N3741 X34.075 Y2.581
N3742 X33.165 Y3.001
N3743 X32.262 Y3.435
N3744 X31.366 Y3.883
N3745 X30.477 Y4.346
N3746 X29.595 Y4.823
N3747 X28.721 Y5.313
N3748 X27.856 Y5.818
N3749 X26.998 Y6.336
N3750 X26.148 Y6.867
N3751 X25.308 Y7.413
N3752 X24.475 Y7.971
N3753 X23.652 Y8.543
N3754 X22.839 Y9.127
N3755 X22.034 Y9.725
N3756 X21.242 Y10.333 Z8.957 F2500
N3757 X20.461 Y10.953 Z8.914
N3758 X19.689 Y11.585 Z8.871
N3759 X18.927 Y12.23 Z8.829
N3760 X18.175 Y12.886 Z8.786
N3761 X17.434 Y13.555 Z8.743
N3762 X16.704 Y14.235 Z8.7
N3763 X15.985 Y14.926 Z8.657
N3764 X15.276 Y15.629 Z8.614
N3765 X14.579 Y16.343 Z8.571
N3766 X13.893 Y17.068 Z8.529
N3767 X13.219 Y17.804 Z8.486
N3768 X12.556 Y18.55 Z8.443
N3769 X11.906 Y19.307 Z8.4
N3770 X11.267 Y20.073 Z8.357
N3771 X10.641 Y20.85 Z8.314
N3772 X10.027 Y21.637 Z8.271
N3773 X9.426 Y22.433 Z8.229
N3774 X8.837 Y23.239 Z8.186
N3775 X8.261 Y24.054 Z8.143
N3776 X7.698 Y24.878 Z8.1
N3777 X7.149 Y25.711 Z8.057
N3778 X6.612 Y26.552 Z8.014
N3779 X6.089 Y27.402 Z7.971
N3780 X5.58 Y28.26 Z7.929
N3781 X5.084 Y29.126 Z7.886
N3782 X4.601 Y30 Z7.843
N3783 X4.133 Y30.881 Z7.8
N3784 X3.679 Y31.77 Z7.757
N3785 X3.239 Y32.665 Z7.714
N3786 X2.813 Y33.568 Z7.671
N3787 X2.402 Y34.477 Z7.629
N3788 X2.005 Y35.392 Z7.586
N3789 X1.622 Y36.314 Z7.543
N3790 X1.254 Y37.242 Z7.5
N3791 X0.901 Y38.175 Z7.457
N3792 X0.563 Y39.114 Z7.414
N3793 X0.24 Y40.058 Z7.371
N3794 X-0.069 Y41.007 Z7.329
N3795 X-0.362 Y41.961 Z7.286
N3796 X-0.64 Y42.919 Z7.243
N3797 X-0.903 Y43.882 Z7.2
N3798 X-1.151 Y44.849 Z7.157
N3799 X-1.383 Y45.819 Z7.114
N3800 X-1.6 Y46.793 Z7.071
N3801 X-1.802 Y47.77 Z7.029
N3802 X-1.988 Y48.751 Z6.986
N3803 X-2.158 Y49.734 Z6.943
N3804 X-2.313 Y50.72 Z6.9
N3805 X-2.452 Y51.708 Z6.857
N3806 X-2.575 Y52.698 Z6.814
N3807 X-2.683 Y53.69 Z6.771
N3808 X-2.775 Y54.684 Z6.729
N3809 X-2.852 Y55.679 Z6.686
N3810 X-2.912 Y56.675 Z6.643
N3811 X-2.957 Y57.672 Z6.6
N3812 X-2.986 Y58.67 Z6.557
N3813 X-2.999 Y59.667 Z6.514
N3814 X-2.996 Y60.665 Z6.471
N3815 X-2.978 Y61.663 Z6.429
N3816 X-2.944 Y62.66 Z6.386
N3817 X-2.894 Y63.657 Z6.343
N3818 X-2.828 Y64.653 Z6.3
N3819 X-2.746 Y65.647 Z6.257
N3820 X-2.649 Y66.64 Z6.214
N3821 X-2.536 Y67.632 Z6.171
N3822 X-2.407 Y68.621 Z6.129
N3823 X-2.263 Y69.609 Z6.086
N3824 X-2.103 Y70.594 Z6.043
N3825 X-1.927 Y71.576 Z6
N3826 X-1.735 Y72.56 F2760
N3827 X-1.528 Y73.54
N3828 X-1.305 Y74.517
N3829 X-1.066 Y75.49
N3830 X-0.812 Y76.46
N3831 X-0.542 Y77.425
N3832 X-0.257 Y78.386
N3833 X0.043 Y79.342
N3834 X0.358 Y80.293
N3835 X0.688 Y81.239
N3836 X1.033 Y82.18
N3837 X1.394 Y83.115
N3838 X1.769 Y84.044
N3839 X2.159 Y84.968
N3840 X2.563 Y85.884
N3841 X2.982 Y86.795
N3842 X3.416 Y87.698
N3843 X3.863 Y88.595
N3844 X4.325 Y89.484
N3845 X4.801 Y90.366
N3846 X5.291 Y91.24
N3847 X5.795 Y92.106
N3848 X6.313 Y92.965
N3849 X6.844 Y93.814
N3850 X7.388 Y94.656
N3851 X7.946 Y95.488
N3852 X8.517 Y96.311
N3853 X9.101 Y97.126
N3854 X9.698 Y97.931
N3855 X10.308 Y98.726
N3856 X10.93 Y99.512
N3857 X11.565 Y100.287
N3858 X12.212 Y101.052
N3859 X12.871 Y101.807
N3860 X13.542 Y102.552
N3861 X14.225 Y103.285
N3862 X14.919 Y104.008
N3863 X15.625 Y104.719
N3864 X16.341 Y105.42
N3865 X17.069 Y106.108
N3866 X17.808 Y106.785
N3867 X18.558 Y107.45
N3868 X19.318 Y108.104
N3869 X20.088 Y108.745
N3870 X20.868 Y109.373
N3871 X21.659 Y109.989
N3872 X22.459 Y110.593
N3873 X23.268 Y111.184
N3874 X24.087 Y111.762
N3875 X24.915 Y112.326
N3876 X25.752 Y112.878
N3877 X26.597 Y113.416
N3878 X27.451 Y113.94
N3879 X28.313 Y114.451
N3880 X29.183 Y114.948
N3881 X30.061 Y115.432
N3882 X30.947 Y115.901
N3883 X31.839 Y116.356
N3884 X32.739 Y116.797
N3885 X33.646 Y117.223
N3886 X34.56 Y117.635
N3887 X35.48 Y118.032
N3888 X36.406 Y118.415
N3889 X37.338 Y118.783
N3890 X38.276 Y119.136
N3891 X39.219 Y119.474
N3892 X40.168 Y119.797
N3893 X41.122 Y120.105
N3894 X42.08 Y120.398
N3895 X43.043 Y120.675
N3896 X44.01 Y120.937
N3897 X44.981 Y121.184
N3898 X45.957 Y121.415
N3899 X46.935 Y121.63
N3900 X47.917 Y121.83
N3901 X48.902 Y122.015
N3902 X49.89 Y122.183
N3903 X50.88 Y122.336
N3904 X51.873 Y122.474
N3905 X52.868 Y122.595
N3906 X53.864 Y122.701
N3907 X54.862 Y122.79
N3908 X55.862 Y122.864
N3909 X56.862 Y122.922
N3910 X57.864 Y122.964
N3911 X58.865 Y122.99
N3912 X59.867 Y123
N3913 X60.869 Y122.994
N3914 X61.871 Y122.972
N3915 X62.873 Y122.934
N3916 X63.873 Y122.881
N3917 X64.873 Y122.811
N3918 X65.872 Y122.726
N3919 X66.869 Y122.624
N3920 X67.864 Y122.507
N3921 X68.857 Y122.374
N3922 X69.848 Y122.226
N3923 X70.837 Y122.061
N3924 X71.822 Y121.881
N3925 X72.805 Y121.685
N3926 X73.785 Y121.473
N3927 X74.761 Y121.246
N3928 X75.733 Y121.004
N3929 X76.701 Y120.746
N3930 X77.666 Y120.473
N3931 X78.625 Y120.184
N3932 X79.58 Y119.88
N3933 X80.53 Y119.561
N3934 X81.475 Y119.227
N3935 X82.414 Y118.878
N3936 X83.348 Y118.514
N3937 X84.276 Y118.135
N3938 X85.197 Y117.742
N3939 X86.113 Y117.334
N3940 X87.021 Y116.911
N3941 X87.923 Y116.474
N3942 X88.818 Y116.023
N3943 X89.705 Y115.557
N3944 X90.585 Y115.078
N3945 X91.457 Y114.584
N3946 X92.322 Y114.077
N3947 X93.178 Y113.556
N3948 X94.025 Y113.021
N3949 X94.864 Y112.473
N3950 X95.695 Y111.912
N3951 X96.516 Y111.338
N3952 X97.328 Y110.751
N3953 X98.13 Y110.15
N3954 X98.923 Y109.538
N3955 X99.706 Y108.912
N3956 X100.479 Y108.274
N3957 X101.242 Y107.625
N3958 X101.994 Y106.962
N3959 X102.736 Y106.289
N3960 X103.467 Y105.603
N3961 X104.187 Y104.906
N3962 X104.895 Y104.197
N3963 X105.593 Y103.478
N3964 X106.279 Y102.747
N3965 X106.953 Y102.005
N3966 X107.615 Y101.253
N3967 X108.265 Y100.491
N3968 X108.903 Y99.718
N3969 X109.529 Y98.935
N3970 X110.142 Y98.142
N3971 X110.742 Y97.34
N3972 X111.329 Y96.528
N3973 X111.904 Y95.707
N3974 X112.465 Y94.877
N3975 X113.013 Y94.038
N3976 X113.548 Y93.19
N3977 X114.069 Y92.334
N3978 X114.577 Y91.47
N3979 X115.07 Y90.598
N3980 X115.55 Y89.718
N3981 X116.016 Y88.831
N3982 X116.467 Y87.936
N3983 X116.905 Y87.035
N3984 X117.327 Y86.126
N3985 X117.736 Y85.211
N3986 X118.129 Y84.289
N3987 X118.508 Y83.362
N3988 X118.873 Y82.428
N3989 X119.222 Y81.489
N3990 X119.556 Y80.544
N3991 X119.875 Y79.594
N3992 X120.18 Y78.639
N3993 X120.468 Y77.68
N3994 X120.742 Y76.716
N3995 X121 Y75.747
N3996 X121.243 Y74.775
N3997 X121.47 Y73.799
N3998 X121.682 Y72.82
N3999 X121.878 Y71.837
N4000 X122.058 Y70.851
N4001 X122.223 Y69.863
N4002 X122.372 Y68.872
N4003 X122.505 Y67.878
N4004 X122.623 Y66.883
N4005 X122.724 Y65.886
N4006 X122.81 Y64.888
N4007 X122.88 Y63.888
N4008 X122.934 Y62.887
N4009 X122.972 Y61.886
N4010 X122.994 Y60.884
N4011 X123 Y59.882
N4012 X122.99 Y58.88
N4013 X122.964 Y57.878
N4014 X122.923 Y56.877
N4015 X122.865 Y55.877
N4016 X122.791 Y54.877
N4017 X122.702 Y53.879
N4018 X122.597 Y52.882
N4019 X122.476 Y51.888
N4020 X122.339 Y50.895
N4021 X122.186 Y49.905
N4022 X122.017 Y48.917
N4023 X121.833 Y47.932
N4024 X121.633 Y46.95
N4025 X121.418 Y45.971
N4026 X121.187 Y44.996
N4027 X120.941 Y44.024
N4028 X120.679 Y43.057
N4029 X120.402 Y42.094
N4030 X120.109 Y41.136
N4031 X119.802 Y40.182
N4032 X119.479 Y39.233
N4033 X119.141 Y38.29
N4034 X118.788 Y37.352
N4035 X118.421 Y36.42
N4036 X118.038 Y35.493
N4037 X117.641 Y34.573
N4038 X117.229 Y33.66
N4039 X116.803 Y32.753
N4040 X116.362 Y31.853
N4041 X115.908 Y30.96
N4042 X115.439 Y30.074
N4043 X114.956 Y29.196
N4044 X114.459 Y28.326
N4045 X113.948 Y27.464
N4046 X113.424 Y26.61
N4047 X112.886 Y25.764
N4048 X112.334 Y24.927
N4049 X111.77 Y24.099
N4050 X111.192 Y23.28
N4051 X110.602 Y22.471
N4052 X109.998 Y21.67
N4053 X109.382 Y20.88
N4054 X108.754 Y20.099
N4055 X108.113 Y19.329
N4056 X107.46 Y18.569
N4057 X106.795 Y17.819
N4058 X106.118 Y17.08
N4059 X105.43 Y16.352
N4060 X104.73 Y15.635
N4061 X104.018 Y14.929
N4062 X103.296 Y14.235
N4063 X102.562 Y13.552
N4064 X101.818 Y12.881
N4065 X101.064 Y12.221
N4066 X100.298 Y11.574
N4067 X99.523 Y10.939
N4068 X98.738 Y10.317
N4069 X97.942 Y9.707
N4070 X97.138 Y9.11
N4071 X96.324 Y8.526
N4072 X95.5 Y7.954
N4073 X94.668 Y7.396
N4074 X93.827 Y6.852
N4075 X92.977 Y6.32
N4076 X92.119 Y5.803
N4077 X91.253 Y5.298
N4078 X90.379 Y4.808
N4079 X89.497 Y4.332
N4080 X88.608 Y3.87
N4081 X87.712 Y3.422
N4082 X86.808 Y2.988
N4083 X85.898 Y2.569
N4084 X84.981 Y2.164
N4085 X84.058 Y1.774
N4086 X83.129 Y1.399
N4087 X82.194 Y1.039
N4088 X81.253 Y0.693
N4089 X80.307 Y0.363
N4090 X79.356 Y0.047
N4091 X78.4 Y-0.253
N4092 X77.439 Y-0.538
N4093 X76.474 Y-0.808
N4094 X75.505 Y-1.062
N4095 X74.531 Y-1.301
N4096 X73.555 Y-1.525
N4097 X72.574 Y-1.732
N4098 X71.591 Y-1.925
N4099 X70.604 Y-2.101
N4100 X69.615 Y-2.262
N4101 X68.624 Y-2.407
N4102 X67.63 Y-2.536
N4103 X66.634 Y-2.65
N4104 X65.637 Y-2.747
N4105 X64.638 Y-2.829
N4106 X63.638 Y-2.895
N4107 X62.637 Y-2.945
N4108 X61.636 Y-2.979
N4109 X60.634 Y-2.997
N4110 X59.632 Y-2.999
N4111 X58.63 Y-2.985
N4112 X57.628 Y-2.955
N4113 X56.627 Y-2.91
N4114 X55.627 Y-2.848
N4115 X54.627 Y-2.771
N4116 X53.63 Y-2.677
N4117 X52.634 Y-2.568
N4118 X51.639 Y-2.443
N4119 X50.647 Y-2.302
N4120 X49.657 Y-2.145
N4121 X48.67 Y-1.973
N4122 X47.686 Y-1.785
N4123 X46.705 Y-1.581
N4124 X45.727 Y-1.362
N4125 X44.753 Y-1.127
N4126 X43.782 Y-0.877
N4127 X42.816 Y-0.611
N4128 X41.854 Y-0.33
N4129 X40.897 Y-0.034
N4130 X39.944 Y0.278
N4131 X38.997 Y0.604
N4132 X38.055 Y0.946
N4133 X37.118 Y1.302
N4134 X36.187 Y1.674
N4135 X35.263 Y2.06
N4136 X34.344 Y2.461
N4137 X33.432 Y2.876
N4138 X32.527 Y3.306
N4139 X31.629 Y3.75
N4140 X30.737 Y4.208
N4141 X29.854 Y4.681
N4142 X28.978 Y5.167
N4143 X28.109 Y5.668
N4144 X27.249 Y6.182
N4145 X26.397 Y6.71
N4146 X25.554 Y7.251
N4147 X24.719 Y7.805
N4148 X23.894 Y8.373
N4149 X23.077 Y8.954
N4150 X22.27 Y9.548
N4151 X21.472 Y10.154
N4152 X20.684 Y10.774
N4153 X19.906 Y11.405
N4154 X19.138 Y12.049
N4155 X18.38 Y12.705
N4156 X17.633 Y13.373
N4157 X16.897 Y14.053
N4158 X16.172 Y14.744
N4159 X15.457 Y15.447
N4160 X14.754 Y16.161
N4161 X14.063 Y16.886
N4162 X13.383 Y17.623
N4163 X12.715 Y18.369
N4164 X12.059 Y19.127
N4165 X11.414 Y19.895
N4166 X10.783 Y20.672
N4167 X10.163 Y21.46
N4168 X9.557 Y22.258
N4169 X8.963 Y23.065
N4170 X8.382 Y23.881
N4171 X7.814 Y24.707
N4172 X7.259 Y25.542
N4173 X6.718 Y26.385
N4174 X6.19 Y27.237
N4175 X5.675 Y28.097
N4176 X5.175 Y28.965
N4177 X4.688 Y29.841
N4178 X4.215 Y30.724
N4179 X3.757 Y31.615
N4180 X3.312 Y32.514
N4181 X2.882 Y33.419
N4182 X2.467 Y34.331
N4183 X2.066 Y35.249
N4184 X1.679 Y36.174
N4185 X1.308 Y37.104
N4186 X0.951 Y38.041
N4187 X0.609 Y38.983
N4188 X0.282 Y39.93
N4189 X-0.029 Y40.883
N4190 X-0.326 Y41.84
N4191 X-0.607 Y42.802
N4192 X-0.873 Y43.768
N4193 X-1.123 Y44.738
N4194 X-1.358 Y45.712
N4195 X-1.578 Y46.69
N4196 X-1.782 Y47.671
N4197 X-1.97 Y48.656
N4198 X-2.143 Y49.643
N4199 X-2.3 Y50.633
N4200 X-2.441 Y51.625
N4201 X-2.566 Y52.619
N4202 X-2.676 Y53.615
N4203 X-2.769 Y54.613
N4204 X-2.847 Y55.612
N4205 X-2.909 Y56.612
N4206 X-2.955 Y57.613
N4207 X-2.985 Y58.615
N4208 X-2.999 Y59.617
N4209 X-2.997 Y60.619
N4210 X-2.979 Y61.621
N4211 X-2.945 Y62.622
N4212 X-2.896 Y63.623
N4213 X-2.83 Y64.623
N4214 X-2.749 Y65.622
N4215 X-2.651 Y66.619
N4216 X-2.538 Y67.615
N4217 X-2.409 Y68.609
N4218 X-2.264 Y69.601
N4219 X-2.104 Y70.59
N4220 X-1.927 Y71.576
N4221 X-1.736 Y72.556 Z5.957 F2500
N4222 X-1.53 Y73.532 Z5.914
N4223 X-1.308 Y74.505 Z5.871
N4224 X-1.07 Y75.474 Z5.829
N4225 X-0.817 Y76.439 Z5.786
N4226 X-0.549 Y77.401 Z5.743
N4227 X-0.266 Y78.358 Z5.7
N4228 X0.032 Y79.31 Z5.657
N4229 X0.346 Y80.257 Z5.614
N4230 X0.674 Y81.2 Z5.571
N4231 X1.017 Y82.137 Z5.529
N4232 X1.375 Y83.068 Z5.486
N4233 X1.748 Y83.994 Z5.443
N4234 X2.135 Y84.913 Z5.4
N4235 X2.537 Y85.827 Z5.357
N4236 X2.953 Y86.734 Z5.314
N4237 X3.384 Y87.634 Z5.271
N4238 X3.829 Y88.527 Z5.229
N4239 X4.288 Y89.413 Z5.186
N4240 X4.761 Y90.292 Z5.143
N4241 X5.247 Y91.163 Z5.1
N4242 X5.748 Y92.027 Z5.057
N4243 X6.262 Y92.882 Z5.014
N4244 X6.79 Y93.729 Z4.971
N4245 X7.33 Y94.568 Z4.929
N4246 X7.885 Y95.397 Z4.886
N4247 X8.452 Y96.219 Z4.843
N4248 X9.032 Y97.03 Z4.8
N4249 X9.625 Y97.833 Z4.757
N4250 X10.23 Y98.626 Z4.714
N4251 X10.848 Y99.41 Z4.671
N4252 X11.479 Y100.183 Z4.629
N4253 X12.121 Y100.947 Z4.586
N4254 X12.776 Y101.7 Z4.543
N4255 X13.442 Y102.443 Z4.5
N4256 X14.121 Y103.175 Z4.457
N4257 X14.81 Y103.896 Z4.414
N4258 X15.511 Y104.606 Z4.371
N4259 X16.223 Y105.306 Z4.329
N4260 X16.946 Y105.993 Z4.286
N4261 X17.68 Y106.669 Z4.243
N4262 X18.425 Y107.334 Z4.2
N4263 X19.18 Y107.986 Z4.157
N4264 X19.945 Y108.627 Z4.114
N4265 X20.72 Y109.255 Z4.071
N4266 X21.505 Y109.871 Z4.029
