%
(25-B)
(T2  D=6 CR=0 - ZMIN=0.2 - flat end mill)
N1 G90
N2 G21

(2D Contour10)
N3 T2
N4 S20000 M3
N5 G0 X146.413 Y28.438
N6 Z33
N7 Z23
N8 G1 Z20.5 F1000
N9 X154.523 Y15.174 Z17.195 F2500
N10 X154.614 Y15.014 Z17.156
N11 X154.695 Y14.849 Z17.117
N12 X154.764 Y14.679 Z17.078
N13 X154.824 Y14.505 Z17.039
N14 X154.871 Y14.327 Z17
N15 X154.912 Y14.122 F2760
N16 X154.938 Y13.915
N17 X154.949 Y13.706
N18 X154.944 Y13.497
N19 X154.925 Y13.289
N20 X154.891 Y13.082
N21 X154.842 Y12.879
N22 X154.778 Y12.68
N23 X154.7 Y12.486
N24 X154.609 Y12.298
N25 X154.504 Y12.117
N26 X154.386 Y11.944
N27 X154.257 Y11.78
N28 X154.115 Y11.626
N29 X153.964 Y11.483
N30 X153.802 Y11.35
N31 X153.631 Y11.23
N32 X153.451 Y11.122
N33 X153.265 Y11.028
N34 X153.072 Y10.947
N35 X152.874 Y10.881
N36 X152.671 Y10.828
N37 X152.466 Y10.791
N38 X152.258 Y10.768
N39 X152.049 Y10.761
N40 X110.408
N41 Y0
N42 X110.401 Y-0.207
N43 X110.378 Y-0.413
N44 X110.342 Y-0.616
N45 X110.291 Y-0.817
N46 X110.225 Y-1.013
N47 X110.146 Y-1.205
N48 X110.053 Y-1.39
N49 X109.948 Y-1.568
N50 X109.83 Y-1.738
N51 X109.7 Y-1.899
N52 X109.559 Y-2.051
N53 X109.407 Y-2.192
N54 X109.246 Y-2.322
N55 X109.076 Y-2.44
N56 X108.898 Y-2.545
N57 X108.713 Y-2.638
N58 X108.521 Y-2.717
N59 X108.325 Y-2.783
N60 X108.124 Y-2.834
N61 X107.921 Y-2.87
N62 X107.715 Y-2.893
N63 X107.508 Y-2.9
N64 X44.541
N65 X44.334 Y-2.893
N66 X44.128 Y-2.87
N67 X43.925 Y-2.834
N68 X43.724 Y-2.783
N69 X43.528 Y-2.717
N70 X43.336 Y-2.638
N71 X43.151 Y-2.545
N72 X42.973 Y-2.44
N73 X42.803 Y-2.322
N74 X42.642 Y-2.192
N75 X42.49 Y-2.051
N76 X42.349 Y-1.899
N77 X42.22 Y-1.738
N78 X42.101 Y-1.568
N79 X41.996 Y-1.39
N80 X41.903 Y-1.205
N81 X41.824 Y-1.013
N82 X41.759 Y-0.817
N83 X41.707 Y-0.616
N84 X41.671 Y-0.413
N85 X41.648 Y-0.207
N86 X41.641 Y0
N87 Y10.761
N88 X0
N89 X-0.212 Y10.769
N90 X-0.422 Y10.792
N91 X-0.631 Y10.83
N92 X-0.836 Y10.884
N93 X-1.036 Y10.952
N94 X-1.231 Y11.035
N95 X-1.42 Y11.132
N96 X-1.601 Y11.243
N97 X-1.773 Y11.366
N98 X-1.936 Y11.502
N99 X-2.088 Y11.649
N100 X-2.23 Y11.807
N101 X-2.359 Y11.974
N102 X-2.476 Y12.151
N103 X-2.58 Y12.336
N104 X-2.67 Y12.528
N105 X-2.745 Y12.726
N106 X-2.806 Y12.929
N107 X-2.852 Y13.136
N108 X-2.883 Y13.345
N109 X-2.898 Y13.557
N110 Y13.769
N111 X-2.882 Y13.98
N112 X-2.851 Y14.19
N113 X-2.805 Y14.396
N114 X-2.744 Y14.599
N115 X-2.668 Y14.797
N116 X-2.578 Y14.989
N117 X-2.474 Y15.174
N118 X22.472 Y55.971
N119 X12.467
N120 X12.256 Y55.979
N121 X12.045 Y56.002
N122 X11.837 Y56.04
N123 X11.632 Y56.094
N124 X11.431 Y56.163
N125 X11.236 Y56.245
N126 X11.048 Y56.342
N127 X10.867 Y56.453
N128 X10.694 Y56.576
N129 X10.532 Y56.712
N130 X10.379 Y56.859
N131 X10.238 Y57.017
N132 X10.108 Y57.185
N133 X9.991 Y57.361
N134 X9.888 Y57.546
N135 X9.798 Y57.738
N136 X9.722 Y57.936
N137 X9.661 Y58.139
N138 X9.615 Y58.346
N139 X9.585 Y58.556
N140 X9.569 Y58.767
N141 X9.57 Y58.979
N142 X9.585 Y59.19
N143 X9.616 Y59.4
N144 X9.662 Y59.607
N145 X9.724 Y59.809
N146 X9.799 Y60.007
N147 X9.89 Y60.199
N148 X9.993 Y60.384
N149 X34.498 Y100.458
N150 X24.003
N151 X23.792 Y100.466
N152 X23.581 Y100.489
N153 X23.373 Y100.527
N154 X23.167 Y100.581
N155 X22.967 Y100.65
N156 X22.772 Y100.732
N157 X22.583 Y100.829
N158 X22.403 Y100.94
N159 X22.23 Y101.063
N160 X22.067 Y101.199
N161 X21.915 Y101.346
N162 X21.774 Y101.504
N163 X21.644 Y101.672
N164 X21.527 Y101.848
N165 X21.424 Y102.033
N166 X21.334 Y102.225
N167 X21.258 Y102.423
N168 X21.197 Y102.626
N169 X21.151 Y102.833
N170 X21.121 Y103.043
N171 X21.105 Y103.254
N172 Y103.466
N173 X21.121 Y103.677
N174 X21.152 Y103.887
N175 X21.198 Y104.094
N176 X21.259 Y104.296
N177 X21.335 Y104.494
N178 X21.425 Y104.686
N179 X21.529 Y104.871
N180 X46.953 Y146.45
N181 X37.479
N182 X37.267 Y146.458
N183 X37.056 Y146.481
N184 X36.847 Y146.52
N185 X36.642 Y146.573
N186 X36.441 Y146.642
N187 X36.245 Y146.725
N188 X36.057 Y146.823
N189 X35.876 Y146.933
N190 X35.703 Y147.057
N191 X35.54 Y147.193
N192 X35.388 Y147.341
N193 X35.246 Y147.499
N194 X35.117 Y147.667
N195 X35 Y147.844
N196 X34.897 Y148.03
N197 X34.807 Y148.222
N198 X34.732 Y148.421
N199 X34.671 Y148.624
N200 X34.625 Y148.831
N201 X34.595 Y149.041
N202 X34.58 Y149.253
N203 X34.581 Y149.465
N204 X34.597 Y149.677
N205 X34.629 Y149.887
N206 X34.676 Y150.094
N207 X34.738 Y150.297
N208 X34.814 Y150.495
N209 X34.905 Y150.687
N210 X56.138 Y191.564
N211 X49.489
N212 X49.277 Y191.572
N213 X49.065 Y191.595
N214 X48.856 Y191.634
N215 X48.65 Y191.688
N216 X48.449 Y191.757
N217 X48.253 Y191.841
N218 X48.064 Y191.938
N219 X47.883 Y192.05
N220 X47.71 Y192.174
N221 X47.547 Y192.311
N222 X47.394 Y192.459
N223 X47.253 Y192.618
N224 X47.123 Y192.787
N225 X47.007 Y192.965
N226 X46.903 Y193.151
N227 X46.814 Y193.344
N228 X46.739 Y193.544
N229 X46.679 Y193.748
N230 X46.634 Y193.956
N231 X46.605 Y194.166
N232 X46.591 Y194.379
N233 X46.592 Y194.592
N234 X46.609 Y194.804
N235 X46.642 Y195.014
N236 X46.69 Y195.221
N237 X46.753 Y195.425
N238 X46.831 Y195.623
N239 X46.923 Y195.814
N240 X47.029 Y195.999
N241 X64.514 Y224.025
N242 X64.634 Y224.202
N243 X64.767 Y224.37
N244 X64.911 Y224.528
N245 X65.067 Y224.675
N246 X65.234 Y224.809
N247 X65.409 Y224.931
N248 X65.594 Y225.04
N249 X65.785 Y225.135
N250 X65.984 Y225.216
N251 X66.188 Y225.281
N252 X66.396 Y225.332
N253 X66.607 Y225.367
N254 X66.82 Y225.386
N255 X67.034 Y225.389
N256 X67.248 Y225.377
N257 X67.46 Y225.349
N258 X67.669 Y225.306
N259 X67.875 Y225.247
N260 X68.076 Y225.173
N261 X68.271 Y225.084
N262 X68.459 Y224.981
N263 X68.638 Y224.865
N264 X68.809 Y224.736
N265 X68.97 Y224.595
N266 X69.119 Y224.442
N267 X69.258 Y224.278
N268 X69.383 Y224.105
N269 X69.496 Y223.923
N270 X69.595 Y223.733
N271 X69.679 Y223.536
N272 X69.749 Y223.334
N273 X69.804 Y223.127
N274 X69.843 Y222.917
N275 X69.866 Y222.704
N276 X69.874 Y222.49
N277 Y127.243
N278 X69.867 Y127.036
N279 X69.845 Y126.83
N280 X69.808 Y126.626
N281 X69.757 Y126.426
N282 X69.691 Y126.229
N283 X69.612 Y126.038
N284 X69.519 Y125.853
N285 X69.414 Y125.675
N286 X69.296 Y125.505
N287 X69.166 Y125.343
N288 X69.025 Y125.192
N289 X69.003 Y125.159
N290 X68.995 Y125.121
N291 X69.003 Y125.083
N292 X69.025 Y125.05
N293 X69.057 Y125.029
N294 X69.095 Y125.021
N295 X69.134 Y125.029
N296 X69.166 Y125.05
N297 X69.318 Y125.191
N298 X69.479 Y125.321
N299 X69.649 Y125.439
N300 X69.827 Y125.545
N301 X70.012 Y125.638
N302 X70.203 Y125.717
N303 X70.4 Y125.782
N304 X70.601 Y125.834
N305 X70.804 Y125.87
N306 X71.01 Y125.893
N307 X71.217 Y125.9
N308 X80.832
N309 X81.039 Y125.893
N310 X81.245 Y125.87
N311 X81.448 Y125.834
N312 X81.649 Y125.782
N313 X81.845 Y125.717
N314 X82.037 Y125.638
N315 X82.222 Y125.545
N316 X82.4 Y125.439
N317 X82.57 Y125.321
N318 X82.731 Y125.191
N319 X82.883 Y125.05
N320 X82.915 Y125.029
N321 X82.953 Y125.021
N322 X82.992 Y125.029
N323 X83.024 Y125.05
N324 X83.046 Y125.083
N325 X83.054 Y125.121
N326 X83.046 Y125.159
N327 X83.024 Y125.192
N328 X82.883 Y125.343
N329 X82.753 Y125.505
N330 X82.635 Y125.675
N331 X82.529 Y125.853
N332 X82.437 Y126.038
N333 X82.357 Y126.229
N334 X82.292 Y126.426
N335 X82.241 Y126.626
N336 X82.204 Y126.83
N337 X82.182 Y127.036
N338 X82.174 Y127.243
N339 Y222.49
N340 X82.182 Y222.704
N341 X82.206 Y222.917
N342 X82.245 Y223.127
N343 X82.3 Y223.334
N344 X82.37 Y223.536
N345 X82.454 Y223.733
N346 X82.553 Y223.923
N347 X82.666 Y224.105
N348 X82.791 Y224.278
N349 X82.929 Y224.442
N350 X83.079 Y224.595
N351 X83.24 Y224.736
N352 X83.41 Y224.865
N353 X83.59 Y224.981
N354 X83.778 Y225.084
N355 X83.973 Y225.173
N356 X84.174 Y225.247
N357 X84.379 Y225.306
N358 X84.589 Y225.349
N359 X84.801 Y225.377
N360 X85.015 Y225.389
N361 X85.229 Y225.386
N362 X85.442 Y225.367
N363 X85.653 Y225.332
N364 X85.861 Y225.281
N365 X86.065 Y225.216
N366 X86.263 Y225.135
N367 X86.455 Y225.04
N368 X86.639 Y224.931
N369 X86.815 Y224.809
N370 X86.982 Y224.675
N371 X87.138 Y224.528
N372 X87.282 Y224.37
N373 X87.415 Y224.202
N374 X87.535 Y224.025
N375 X105.02 Y195.999
N376 X105.126 Y195.814
N377 X105.218 Y195.623
N378 X105.296 Y195.425
N379 X105.359 Y195.221
N380 X105.407 Y195.014
N381 X105.44 Y194.804
N382 X105.457 Y194.592
N383 X105.459 Y194.379
N384 X105.445 Y194.166
N385 X105.415 Y193.956
N386 X105.37 Y193.748
N387 X105.31 Y193.544
N388 X105.235 Y193.344
N389 X105.146 Y193.151
N390 X105.043 Y192.965
N391 X104.926 Y192.787
N392 X104.797 Y192.618
N393 X104.655 Y192.459
N394 X104.503 Y192.311
N395 X104.339 Y192.174
N396 X104.167 Y192.05
N397 X103.985 Y191.938
N398 X103.796 Y191.841
N399 X103.601 Y191.757
N400 X103.399 Y191.688
N401 X103.193 Y191.634
N402 X102.984 Y191.595
N403 X102.773 Y191.572
N404 X102.56 Y191.564
N405 X95.911
N406 X117.144 Y150.687
N407 X117.234 Y150.495
N408 X117.311 Y150.297
N409 X117.373 Y150.094
N410 X117.42 Y149.887
N411 X117.451 Y149.677
N412 X117.468 Y149.465
N413 Y149.253
N414 X117.454 Y149.041
N415 X117.423 Y148.831
N416 X117.378 Y148.624
N417 X117.317 Y148.421
N418 X117.242 Y148.222
N419 X117.152 Y148.03
N420 X117.049 Y147.844
N421 X116.932 Y147.667
N422 X116.802 Y147.499
N423 X116.661 Y147.341
N424 X116.508 Y147.193
N425 X116.345 Y147.057
N426 X116.173 Y146.933
N427 X115.992 Y146.823
N428 X115.803 Y146.725
N429 X115.608 Y146.642
N430 X115.407 Y146.573
N431 X115.202 Y146.52
N432 X114.993 Y146.481
N433 X114.782 Y146.458
N434 X114.57 Y146.45
N435 X105.095
N436 X130.52 Y104.871
N437 X130.624 Y104.686
N438 X130.714 Y104.494
N439 X130.79 Y104.296
N440 X130.851 Y104.094
N441 X130.897 Y103.887
N442 X130.928 Y103.677
N443 X130.944 Y103.466
N444 Y103.254
N445 X130.929 Y103.043
N446 X130.898 Y102.833
N447 X130.852 Y102.626
N448 X130.791 Y102.423
N449 X130.716 Y102.225
N450 X130.626 Y102.033
N451 X130.522 Y101.848
N452 X130.405 Y101.672
N453 X130.276 Y101.504
N454 X130.134 Y101.346
N455 X129.982 Y101.199
N456 X129.819 Y101.063
N457 X129.647 Y100.94
N458 X129.466 Y100.829
N459 X129.277 Y100.732
N460 X129.082 Y100.65
N461 X128.882 Y100.581
N462 X128.677 Y100.527
N463 X128.468 Y100.489
N464 X128.258 Y100.466
N465 X128.046 Y100.458
N466 X117.551
N467 X142.055 Y60.384
N468 X142.159 Y60.199
N469 X142.249 Y60.007
N470 X142.325 Y59.809
N471 X142.386 Y59.607
N472 X142.432 Y59.4
N473 X142.463 Y59.19
N474 X142.479 Y58.979
N475 Y58.767
N476 X142.464 Y58.556
N477 X142.433 Y58.346
N478 X142.387 Y58.139
N479 X142.326 Y57.936
N480 X142.251 Y57.738
N481 X142.161 Y57.546
N482 X142.057 Y57.361
N483 X141.94 Y57.185
N484 X141.811 Y57.017
N485 X141.669 Y56.859
N486 X141.517 Y56.712
N487 X141.354 Y56.576
N488 X141.182 Y56.453
N489 X141.001 Y56.342
N490 X140.812 Y56.245
N491 X140.617 Y56.163
N492 X140.417 Y56.094
N493 X140.212 Y56.04
N494 X140.003 Y56.002
N495 X139.793 Y55.979
N496 X139.581 Y55.971
N497 X129.576
N498 X154.523 Y15.174
N499 X154.614 Y15.014
N500 X154.695 Y14.849
N501 X154.764 Y14.679
N502 X154.824 Y14.505
N503 X154.871 Y14.327
N504 X154.912 Y14.122 Z16.996 F2500
N505 X154.938 Y13.915 Z16.993
N506 X154.949 Y13.706 Z16.989
N507 X154.944 Y13.497 Z16.986
N508 X154.925 Y13.289 Z16.982
N509 X154.891 Y13.082 Z16.978
N510 X154.842 Y12.879 Z16.975
N511 X154.778 Y12.68 Z16.971
N512 X154.7 Y12.486 Z16.967
N513 X154.609 Y12.298 Z16.964
N514 X154.504 Y12.117 Z16.96
N515 X154.386 Y11.944 Z16.957
N516 X154.257 Y11.78 Z16.953
N517 X154.115 Y11.626 Z16.949
N518 X153.964 Y11.483 Z16.946
N519 X153.802 Y11.35 Z16.942
N520 X153.631 Y11.23 Z16.938
N521 X153.451 Y11.122 Z16.935
N522 X153.265 Y11.028 Z16.931
N523 X153.072 Y10.947 Z16.928
N524 X152.874 Y10.881 Z16.924
N525 X152.671 Y10.828 Z16.92
N526 X152.466 Y10.791 Z16.917
N527 X152.258 Y10.768 Z16.913
N528 X152.049 Y10.761 Z16.909
N529 X110.408 Z16.188
N530 Y0 Z16.002
N531 X110.406 Y-0.096 Z16
N532 X110.392 Y-0.307 F2760
N533 X110.361 Y-0.517
N534 X110.316 Y-0.725
N535 X110.255 Y-0.928
N536 X110.18 Y-1.127
N537 X110.09 Y-1.319
N538 X109.987 Y-1.505
N539 X109.87 Y-1.682
N540 X109.741 Y-1.85
N541 X109.6 Y-2.009
N542 X109.447 Y-2.157
N543 X109.284 Y-2.293
N544 X109.111 Y-2.416
N545 X108.93 Y-2.527
N546 X108.742 Y-2.625
N547 X108.546 Y-2.708
N548 X108.345 Y-2.776
N549 X108.14 Y-2.83
N550 X107.931 Y-2.869
N551 X107.72 Y-2.892
N552 X107.508 Y-2.9
N553 X44.541
N554 X44.334 Y-2.893
N555 X44.128 Y-2.87
N556 X43.925 Y-2.834
N557 X43.724 Y-2.783
N558 X43.528 Y-2.717
N559 X43.336 Y-2.638
N560 X43.151 Y-2.545
N561 X42.973 Y-2.44
N562 X42.803 Y-2.322
N563 X42.642 Y-2.192
N564 X42.49 Y-2.051
N565 X42.349 Y-1.899
N566 X42.22 Y-1.738
N567 X42.101 Y-1.568
N568 X41.996 Y-1.39
N569 X41.903 Y-1.205
N570 X41.824 Y-1.013
N571 X41.759 Y-0.817
N572 X41.707 Y-0.616
N573 X41.671 Y-0.413
N574 X41.648 Y-0.207
N575 X41.641 Y0
N576 Y10.761
N577 X0
N578 X-0.212 Y10.769
N579 X-0.422 Y10.792
N580 X-0.631 Y10.83
N581 X-0.836 Y10.884
N582 X-1.036 Y10.952
N583 X-1.231 Y11.035
N584 X-1.42 Y11.132
N585 X-1.601 Y11.243
N586 X-1.773 Y11.366
N587 X-1.936 Y11.502
N588 X-2.088 Y11.649
N589 X-2.23 Y11.807
N590 X-2.359 Y11.974
N591 X-2.476 Y12.151
N592 X-2.58 Y12.336
N593 X-2.67 Y12.528
N594 X-2.745 Y12.726
N595 X-2.806 Y12.929
N596 X-2.852 Y13.136
N597 X-2.883 Y13.345
N598 X-2.898 Y13.557
N599 Y13.769
N600 X-2.882 Y13.98
N601 X-2.851 Y14.19
N602 X-2.805 Y14.396
N603 X-2.744 Y14.599
N604 X-2.668 Y14.797
N605 X-2.578 Y14.989
N606 X-2.474 Y15.174
N607 X22.472 Y55.971
N608 X12.467
N609 X12.256 Y55.979
N610 X12.045 Y56.002
N611 X11.837 Y56.04
N612 X11.632 Y56.094
N613 X11.431 Y56.163
N614 X11.236 Y56.245
N615 X11.048 Y56.342
N616 X10.867 Y56.453
N617 X10.694 Y56.576
N618 X10.532 Y56.712
N619 X10.379 Y56.859
N620 X10.238 Y57.017
N621 X10.108 Y57.185
N622 X9.991 Y57.361
N623 X9.888 Y57.546
N624 X9.798 Y57.738
N625 X9.722 Y57.936
N626 X9.661 Y58.139
N627 X9.615 Y58.346
N628 X9.585 Y58.556
N629 X9.569 Y58.767
N630 X9.57 Y58.979
N631 X9.585 Y59.19
N632 X9.616 Y59.4
N633 X9.662 Y59.607
N634 X9.724 Y59.809
N635 X9.799 Y60.007
N636 X9.89 Y60.199
N637 X9.993 Y60.384
N638 X34.498 Y100.458
N639 X24.003
N640 X23.792 Y100.466
N641 X23.581 Y100.489
N642 X23.373 Y100.527
N643 X23.167 Y100.581
N644 X22.967 Y100.65
N645 X22.772 Y100.732
N646 X22.583 Y100.829
N647 X22.403 Y100.94
N648 X22.23 Y101.063
N649 X22.067 Y101.199
N650 X21.915 Y101.346
N651 X21.774 Y101.504
N652 X21.644 Y101.672
N653 X21.527 Y101.848
N654 X21.424 Y102.033
N655 X21.334 Y102.225
N656 X21.258 Y102.423
N657 X21.197 Y102.626
N658 X21.151 Y102.833
N659 X21.121 Y103.043
N660 X21.105 Y103.254
N661 Y103.466
N662 X21.121 Y103.677
N663 X21.152 Y103.887
N664 X21.198 Y104.094
N665 X21.259 Y104.296
N666 X21.335 Y104.494
N667 X21.425 Y104.686
N668 X21.529 Y104.871
N669 X46.953 Y146.45
N670 X37.479
N671 X37.267 Y146.458
N672 X37.056 Y146.481
N673 X36.847 Y146.52
N674 X36.642 Y146.573
N675 X36.441 Y146.642
N676 X36.245 Y146.725
N677 X36.057 Y146.823
N678 X35.876 Y146.933
N679 X35.703 Y147.057
N680 X35.54 Y147.193
N681 X35.388 Y147.341
N682 X35.246 Y147.499
N683 X35.117 Y147.667
N684 X35 Y147.844
N685 X34.897 Y148.03
N686 X34.807 Y148.222
N687 X34.732 Y148.421
N688 X34.671 Y148.624
N689 X34.625 Y148.831
N690 X34.595 Y149.041
N691 X34.58 Y149.253
N692 X34.581 Y149.465
N693 X34.597 Y149.677
N694 X34.629 Y149.887
N695 X34.676 Y150.094
N696 X34.738 Y150.297
N697 X34.814 Y150.495
N698 X34.905 Y150.687
N699 X56.138 Y191.564
N700 X49.489
N701 X49.277 Y191.572
N702 X49.065 Y191.595
N703 X48.856 Y191.634
N704 X48.65 Y191.688
N705 X48.449 Y191.757
N706 X48.253 Y191.841
N707 X48.064 Y191.938
N708 X47.883 Y192.05
N709 X47.71 Y192.174
N710 X47.547 Y192.311
N711 X47.394 Y192.459
N712 X47.253 Y192.618
N713 X47.123 Y192.787
N714 X47.007 Y192.965
N715 X46.903 Y193.151
N716 X46.814 Y193.344
N717 X46.739 Y193.544
N718 X46.679 Y193.748
N719 X46.634 Y193.956
N720 X46.605 Y194.166
N721 X46.591 Y194.379
N722 X46.592 Y194.592
N723 X46.609 Y194.804
N724 X46.642 Y195.014
N725 X46.69 Y195.221
N726 X46.753 Y195.425
N727 X46.831 Y195.623
N728 X46.923 Y195.814
N729 X47.029 Y195.999
N730 X64.514 Y224.025
N731 X64.634 Y224.202
N732 X64.767 Y224.37
N733 X64.911 Y224.528
N734 X65.067 Y224.675
N735 X65.234 Y224.809
N736 X65.409 Y224.931
N737 X65.594 Y225.04
N738 X65.785 Y225.135
N739 X65.984 Y225.216
N740 X66.188 Y225.281
N741 X66.396 Y225.332
N742 X66.607 Y225.367
N743 X66.82 Y225.386
N744 X67.034 Y225.389
N745 X67.248 Y225.377
N746 X67.46 Y225.349
N747 X67.669 Y225.306
N748 X67.875 Y225.247
N749 X68.076 Y225.173
N750 X68.271 Y225.084
N751 X68.459 Y224.981
N752 X68.638 Y224.865
N753 X68.809 Y224.736
N754 X68.97 Y224.595
N755 X69.119 Y224.442
N756 X69.258 Y224.278
N757 X69.383 Y224.105
N758 X69.496 Y223.923
N759 X69.595 Y223.733
N760 X69.679 Y223.536
N761 X69.749 Y223.334
N762 X69.804 Y223.127
N763 X69.843 Y222.917
N764 X69.866 Y222.704
N765 X69.874 Y222.49
N766 Y127.243
N767 X69.867 Y127.036
N768 X69.845 Y126.83
N769 X69.808 Y126.626
N770 X69.757 Y126.426
N771 X69.691 Y126.229
N772 X69.612 Y126.038
N773 X69.519 Y125.853
N774 X69.414 Y125.675
N775 X69.296 Y125.505
N776 X69.166 Y125.343
N777 X69.025 Y125.192
N778 X69.003 Y125.159
N779 X68.995 Y125.121
N780 X69.003 Y125.083
N781 X69.025 Y125.05
N782 X69.057 Y125.029
N783 X69.095 Y125.021
N784 X69.134 Y125.029
N785 X69.166 Y125.05
N786 X69.318 Y125.191
N787 X69.479 Y125.321
N788 X69.649 Y125.439
N789 X69.827 Y125.545
N790 X70.012 Y125.638
N791 X70.203 Y125.717
N792 X70.4 Y125.782
N793 X70.601 Y125.834
N794 X70.804 Y125.87
N795 X71.01 Y125.893
N796 X71.217 Y125.9
N797 X80.832
N798 X81.039 Y125.893
N799 X81.245 Y125.87
N800 X81.448 Y125.834
N801 X81.649 Y125.782
N802 X81.845 Y125.717
N803 X82.037 Y125.638
N804 X82.222 Y125.545
N805 X82.4 Y125.439
N806 X82.57 Y125.321
N807 X82.731 Y125.191
N808 X82.883 Y125.05
N809 X82.915 Y125.029
N810 X82.953 Y125.021
N811 X82.992 Y125.029
N812 X83.024 Y125.05
N813 X83.046 Y125.083
N814 X83.054 Y125.121
N815 X83.046 Y125.159
N816 X83.024 Y125.192
N817 X82.883 Y125.343
N818 X82.753 Y125.505
N819 X82.635 Y125.675
N820 X82.529 Y125.853
N821 X82.437 Y126.038
N822 X82.357 Y126.229
N823 X82.292 Y126.426
N824 X82.241 Y126.626
N825 X82.204 Y126.83
N826 X82.182 Y127.036
N827 X82.174 Y127.243
N828 Y222.49
N829 X82.182 Y222.704
N830 X82.206 Y222.917
N831 X82.245 Y223.127
N832 X82.3 Y223.334
N833 X82.37 Y223.536
N834 X82.454 Y223.733
N835 X82.553 Y223.923
N836 X82.666 Y224.105
N837 X82.791 Y224.278
N838 X82.929 Y224.442
N839 X83.079 Y224.595
N840 X83.24 Y224.736
N841 X83.41 Y224.865
N842 X83.59 Y224.981
N843 X83.778 Y225.084
N844 X83.973 Y225.173
N845 X84.174 Y225.247
N846 X84.379 Y225.306
N847 X84.589 Y225.349
N848 X84.801 Y225.377
N849 X85.015 Y225.389
N850 X85.229 Y225.386
N851 X85.442 Y225.367
N852 X85.653 Y225.332
N853 X85.861 Y225.281
N854 X86.065 Y225.216
N855 X86.263 Y225.135
N856 X86.455 Y225.04
N857 X86.639 Y224.931
N858 X86.815 Y224.809
N859 X86.982 Y224.675
N860 X87.138 Y224.528
N861 X87.282 Y224.37
N862 X87.415 Y224.202
N863 X87.535 Y224.025
N864 X105.02 Y195.999
N865 X105.126 Y195.814
N866 X105.218 Y195.623
N867 X105.296 Y195.425
N868 X105.359 Y195.221
N869 X105.407 Y195.014
N870 X105.44 Y194.804
N871 X105.457 Y194.592
N872 X105.459 Y194.379
N873 X105.445 Y194.166
N874 X105.415 Y193.956
N875 X105.37 Y193.748
N876 X105.31 Y193.544
N877 X105.235 Y193.344
N878 X105.146 Y193.151
N879 X105.043 Y192.965
N880 X104.926 Y192.787
N881 X104.797 Y192.618
N882 X104.655 Y192.459
N883 X104.503 Y192.311
N884 X104.339 Y192.174
N885 X104.167 Y192.05
N886 X103.985 Y191.938
N887 X103.796 Y191.841
N888 X103.601 Y191.757
N889 X103.399 Y191.688
N890 X103.193 Y191.634
N891 X102.984 Y191.595
N892 X102.773 Y191.572
N893 X102.56 Y191.564
N894 X95.911
N895 X117.144 Y150.687
N896 X117.234 Y150.495
N897 X117.311 Y150.297
N898 X117.373 Y150.094
N899 X117.42 Y149.887
N900 X117.451 Y149.677
N901 X117.468 Y149.465
N902 Y149.253
N903 X117.454 Y149.041
N904 X117.423 Y148.831
N905 X117.378 Y148.624
N906 X117.317 Y148.421
N907 X117.242 Y148.222
N908 X117.152 Y148.03
N909 X117.049 Y147.844
N910 X116.932 Y147.667
N911 X116.802 Y147.499
N912 X116.661 Y147.341
N913 X116.508 Y147.193
N914 X116.345 Y147.057
N915 X116.173 Y146.933
N916 X115.992 Y146.823
N917 X115.803 Y146.725
N918 X115.608 Y146.642
N919 X115.407 Y146.573
N920 X115.202 Y146.52
N921 X114.993 Y146.481
N922 X114.782 Y146.458
N923 X114.57 Y146.45
N924 X105.095
N925 X130.52 Y104.871
N926 X130.624 Y104.686
N927 X130.714 Y104.494
N928 X130.79 Y104.296
N929 X130.851 Y104.094
N930 X130.897 Y103.887
N931 X130.928 Y103.677
N932 X130.944 Y103.466
N933 Y103.254
N934 X130.929 Y103.043
N935 X130.898 Y102.833
N936 X130.852 Y102.626
N937 X130.791 Y102.423
N938 X130.716 Y102.225
N939 X130.626 Y102.033
N940 X130.522 Y101.848
N941 X130.405 Y101.672
N942 X130.276 Y101.504
N943 X130.134 Y101.346
N944 X129.982 Y101.199
N945 X129.819 Y101.063
N946 X129.647 Y100.94
N947 X129.466 Y100.829
N948 X129.277 Y100.732
N949 X129.082 Y100.65
N950 X128.882 Y100.581
N951 X128.677 Y100.527
N952 X128.468 Y100.489
N953 X128.258 Y100.466
N954 X128.046 Y100.458
N955 X117.551
N956 X142.055 Y60.384
N957 X142.159 Y60.199
N958 X142.249 Y60.007
N959 X142.325 Y59.809
N960 X142.386 Y59.607
N961 X142.432 Y59.4
N962 X142.463 Y59.19
N963 X142.479 Y58.979
N964 Y58.767
N965 X142.464 Y58.556
N966 X142.433 Y58.346
N967 X142.387 Y58.139
N968 X142.326 Y57.936
N969 X142.251 Y57.738
N970 X142.161 Y57.546
N971 X142.057 Y57.361
N972 X141.94 Y57.185
N973 X141.811 Y57.017
N974 X141.669 Y56.859
N975 X141.517 Y56.712
N976 X141.354 Y56.576
N977 X141.182 Y56.453
N978 X141.001 Y56.342
N979 X140.812 Y56.245
N980 X140.617 Y56.163
N981 X140.417 Y56.094
N982 X140.212 Y56.04
N983 X140.003 Y56.002
N984 X139.793 Y55.979
N985 X139.581 Y55.971
N986 X129.576
N987 X154.523 Y15.174
N988 X154.627 Y14.989
N989 X154.717 Y14.797
N990 X154.793 Y14.599
N991 X154.854 Y14.396
N992 X154.9 Y14.19
N993 X154.931 Y13.98
N994 X154.947 Y13.769
N995 Y13.557
N996 X154.932 Y13.345
N997 X154.901 Y13.136
N998 X154.855 Y12.929
N999 X154.794 Y12.726
N1000 X154.719 Y12.528
N1001 X154.629 Y12.336
N1002 X154.525 Y12.151
N1003 X154.408 Y11.974
N1004 X154.279 Y11.807
N1005 X154.137 Y11.649
N1006 X153.985 Y11.502
N1007 X153.822 Y11.366
N1008 X153.65 Y11.243
N1009 X153.469 Y11.132
N1010 X153.28 Y11.035
N1011 X153.085 Y10.952
N1012 X152.885 Y10.884
N1013 X152.68 Y10.83
N1014 X152.471 Y10.792
N1015 X152.261 Y10.769
N1016 X152.049 Y10.761
N1017 X110.408
N1018 Y0
N1019 X110.406 Y-0.096
N1020 X110.392 Y-0.307 Z15.996 F2500
N1021 X110.361 Y-0.517 Z15.993
N1022 X110.316 Y-0.725 Z15.989
N1023 X110.255 Y-0.928 Z15.985
N1024 X110.18 Y-1.127 Z15.982
N1025 X110.09 Y-1.319 Z15.978
N1026 X109.987 Y-1.505 Z15.974
N1027 X109.87 Y-1.682 Z15.971
N1028 X109.741 Y-1.85 Z15.967
N1029 X109.6 Y-2.009 Z15.963
N1030 X109.447 Y-2.157 Z15.96
N1031 X109.284 Y-2.293 Z15.956
N1032 X109.111 Y-2.416 Z15.952
N1033 X108.93 Y-2.527 Z15.948
N1034 X108.742 Y-2.625 Z15.945
N1035 X108.546 Y-2.708 Z15.941
N1036 X108.345 Y-2.776 Z15.937
N1037 X108.14 Y-2.83 Z15.934
N1038 X107.931 Y-2.869 Z15.93
N1039 X107.72 Y-2.892 Z15.926
N1040 X107.508 Y-2.9 Z15.923
N1041 X54.243 Z15
N1042 X44.541 F2760
N1043 X44.334 Y-2.893
N1044 X44.128 Y-2.87
N1045 X43.925 Y-2.834
N1046 X43.724 Y-2.783
N1047 X43.528 Y-2.717
N1048 X43.336 Y-2.638
N1049 X43.151 Y-2.545
N1050 X42.973 Y-2.44
N1051 X42.803 Y-2.322
N1052 X42.642 Y-2.192
N1053 X42.49 Y-2.051
N1054 X42.349 Y-1.899
N1055 X42.22 Y-1.738
N1056 X42.101 Y-1.568
N1057 X41.996 Y-1.39
N1058 X41.903 Y-1.205
N1059 X41.824 Y-1.013
N1060 X41.759 Y-0.817
N1061 X41.707 Y-0.616
N1062 X41.671 Y-0.413
N1063 X41.648 Y-0.207
N1064 X41.641 Y0
N1065 Y10.761
N1066 X0
N1067 X-0.212 Y10.769
N1068 X-0.422 Y10.792
N1069 X-0.631 Y10.83
N1070 X-0.836 Y10.884
N1071 X-1.036 Y10.952
N1072 X-1.231 Y11.035
N1073 X-1.42 Y11.132
N1074 X-1.601 Y11.243
N1075 X-1.773 Y11.366
N1076 X-1.936 Y11.502
N1077 X-2.088 Y11.649
N1078 X-2.23 Y11.807
N1079 X-2.359 Y11.974
N1080 X-2.476 Y12.151
N1081 X-2.58 Y12.336
N1082 X-2.67 Y12.528
N1083 X-2.745 Y12.726
N1084 X-2.806 Y12.929
N1085 X-2.852 Y13.136
N1086 X-2.883 Y13.345
N1087 X-2.898 Y13.557
N1088 Y13.769
N1089 X-2.882 Y13.98
N1090 X-2.851 Y14.19
N1091 X-2.805 Y14.396
N1092 X-2.744 Y14.599
N1093 X-2.668 Y14.797
N1094 X-2.578 Y14.989
N1095 X-2.474 Y15.174
N1096 X22.472 Y55.971
N1097 X12.467
N1098 X12.256 Y55.979
N1099 X12.045 Y56.002
N1100 X11.837 Y56.04
N1101 X11.632 Y56.094
N1102 X11.431 Y56.163
N1103 X11.236 Y56.245
N1104 X11.048 Y56.342
N1105 X10.867 Y56.453
N1106 X10.694 Y56.576
N1107 X10.532 Y56.712
N1108 X10.379 Y56.859
N1109 X10.238 Y57.017
N1110 X10.108 Y57.185
N1111 X9.991 Y57.361
N1112 X9.888 Y57.546
N1113 X9.798 Y57.738
N1114 X9.722 Y57.936
N1115 X9.661 Y58.139
N1116 X9.615 Y58.346
N1117 X9.585 Y58.556
N1118 X9.569 Y58.767
N1119 X9.57 Y58.979
N1120 X9.585 Y59.19
N1121 X9.616 Y59.4
N1122 X9.662 Y59.607
N1123 X9.724 Y59.809
N1124 X9.799 Y60.007
N1125 X9.89 Y60.199
N1126 X9.993 Y60.384
N1127 X34.498 Y100.458
N1128 X24.003
N1129 X23.792 Y100.466
N1130 X23.581 Y100.489
N1131 X23.373 Y100.527
N1132 X23.167 Y100.581
N1133 X22.967 Y100.65
N1134 X22.772 Y100.732
N1135 X22.583 Y100.829
N1136 X22.403 Y100.94
N1137 X22.23 Y101.063
N1138 X22.067 Y101.199
N1139 X21.915 Y101.346
N1140 X21.774 Y101.504
N1141 X21.644 Y101.672
N1142 X21.527 Y101.848
N1143 X21.424 Y102.033
N1144 X21.334 Y102.225
N1145 X21.258 Y102.423
N1146 X21.197 Y102.626
N1147 X21.151 Y102.833
N1148 X21.121 Y103.043
N1149 X21.105 Y103.254
N1150 Y103.466
N1151 X21.121 Y103.677
N1152 X21.152 Y103.887
N1153 X21.198 Y104.094
N1154 X21.259 Y104.296
N1155 X21.335 Y104.494
N1156 X21.425 Y104.686
N1157 X21.529 Y104.871
N1158 X46.953 Y146.45
N1159 X37.479
N1160 X37.267 Y146.458
N1161 X37.056 Y146.481
N1162 X36.847 Y146.52
N1163 X36.642 Y146.573
N1164 X36.441 Y146.642
N1165 X36.245 Y146.725
N1166 X36.057 Y146.823
N1167 X35.876 Y146.933
N1168 X35.703 Y147.057
N1169 X35.54 Y147.193
N1170 X35.388 Y147.341
N1171 X35.246 Y147.499
N1172 X35.117 Y147.667
N1173 X35 Y147.844
N1174 X34.897 Y148.03
N1175 X34.807 Y148.222
N1176 X34.732 Y148.421
N1177 X34.671 Y148.624
N1178 X34.625 Y148.831
N1179 X34.595 Y149.041
N1180 X34.58 Y149.253
N1181 X34.581 Y149.465
N1182 X34.597 Y149.677
N1183 X34.629 Y149.887
N1184 X34.676 Y150.094
N1185 X34.738 Y150.297
N1186 X34.814 Y150.495
N1187 X34.905 Y150.687
N1188 X56.138 Y191.564
N1189 X49.489
N1190 X49.277 Y191.572
N1191 X49.065 Y191.595
N1192 X48.856 Y191.634
N1193 X48.65 Y191.688
N1194 X48.449 Y191.757
N1195 X48.253 Y191.841
N1196 X48.064 Y191.938
N1197 X47.883 Y192.05
N1198 X47.71 Y192.174
N1199 X47.547 Y192.311
N1200 X47.394 Y192.459
N1201 X47.253 Y192.618
N1202 X47.123 Y192.787
N1203 X47.007 Y192.965
N1204 X46.903 Y193.151
N1205 X46.814 Y193.344
N1206 X46.739 Y193.544
N1207 X46.679 Y193.748
N1208 X46.634 Y193.956
N1209 X46.605 Y194.166
N1210 X46.591 Y194.379
N1211 X46.592 Y194.592
N1212 X46.609 Y194.804
N1213 X46.642 Y195.014
N1214 X46.69 Y195.221
N1215 X46.753 Y195.425
N1216 X46.831 Y195.623
N1217 X46.923 Y195.814
N1218 X47.029 Y195.999
N1219 X64.514 Y224.025
N1220 X64.634 Y224.202
N1221 X64.767 Y224.37
N1222 X64.911 Y224.528
N1223 X65.067 Y224.675
N1224 X65.234 Y224.809
N1225 X65.409 Y224.931
N1226 X65.594 Y225.04
N1227 X65.785 Y225.135
N1228 X65.984 Y225.216
N1229 X66.188 Y225.281
N1230 X66.396 Y225.332
N1231 X66.607 Y225.367
N1232 X66.82 Y225.386
N1233 X67.034 Y225.389
N1234 X67.248 Y225.377
N1235 X67.46 Y225.349
N1236 X67.669 Y225.306
N1237 X67.875 Y225.247
N1238 X68.076 Y225.173
N1239 X68.271 Y225.084
N1240 X68.459 Y224.981
N1241 X68.638 Y224.865
N1242 X68.809 Y224.736
N1243 X68.97 Y224.595
N1244 X69.119 Y224.442
N1245 X69.258 Y224.278
N1246 X69.383 Y224.105
N1247 X69.496 Y223.923
N1248 X69.595 Y223.733
N1249 X69.679 Y223.536
N1250 X69.749 Y223.334
N1251 X69.804 Y223.127
N1252 X69.843 Y222.917
N1253 X69.866 Y222.704
N1254 X69.874 Y222.49
N1255 Y127.243
N1256 X69.867 Y127.036
N1257 X69.845 Y126.83
N1258 X69.808 Y126.626
N1259 X69.757 Y126.426
N1260 X69.691 Y126.229
N1261 X69.612 Y126.038
N1262 X69.519 Y125.853
N1263 X69.414 Y125.675
N1264 X69.296 Y125.505
N1265 X69.166 Y125.343
N1266 X69.025 Y125.192
N1267 X69.003 Y125.159
N1268 X68.995 Y125.121
N1269 X69.003 Y125.083
N1270 X69.025 Y125.05
N1271 X69.057 Y125.029
N1272 X69.095 Y125.021
N1273 X69.134 Y125.029
N1274 X69.166 Y125.05
N1275 X69.318 Y125.191
N1276 X69.479 Y125.321
N1277 X69.649 Y125.439
N1278 X69.827 Y125.545
N1279 X70.012 Y125.638
N1280 X70.203 Y125.717
N1281 X70.4 Y125.782
N1282 X70.601 Y125.834
N1283 X70.804 Y125.87
N1284 X71.01 Y125.893
N1285 X71.217 Y125.9
N1286 X80.832
N1287 X81.039 Y125.893
N1288 X81.245 Y125.87
N1289 X81.448 Y125.834
N1290 X81.649 Y125.782
N1291 X81.845 Y125.717
N1292 X82.037 Y125.638
N1293 X82.222 Y125.545
N1294 X82.4 Y125.439
N1295 X82.57 Y125.321
N1296 X82.731 Y125.191
N1297 X82.883 Y125.05
N1298 X82.915 Y125.029
N1299 X82.953 Y125.021
N1300 X82.992 Y125.029
N1301 X83.024 Y125.05
N1302 X83.046 Y125.083
N1303 X83.054 Y125.121
N1304 X83.046 Y125.159
N1305 X83.024 Y125.192
N1306 X82.883 Y125.343
N1307 X82.753 Y125.505
N1308 X82.635 Y125.675
N1309 X82.529 Y125.853
N1310 X82.437 Y126.038
N1311 X82.357 Y126.229
N1312 X82.292 Y126.426
N1313 X82.241 Y126.626
N1314 X82.204 Y126.83
N1315 X82.182 Y127.036
N1316 X82.174 Y127.243
N1317 Y222.49
N1318 X82.182 Y222.704
N1319 X82.206 Y222.917
N1320 X82.245 Y223.127
N1321 X82.3 Y223.334
N1322 X82.37 Y223.536
N1323 X82.454 Y223.733
N1324 X82.553 Y223.923
N1325 X82.666 Y224.105
N1326 X82.791 Y224.278
N1327 X82.929 Y224.442
N1328 X83.079 Y224.595
N1329 X83.24 Y224.736
N1330 X83.41 Y224.865
N1331 X83.59 Y224.981
N1332 X83.778 Y225.084
N1333 X83.973 Y225.173
N1334 X84.174 Y225.247
N1335 X84.379 Y225.306
N1336 X84.589 Y225.349
N1337 X84.801 Y225.377
N1338 X85.015 Y225.389
N1339 X85.229 Y225.386
N1340 X85.442 Y225.367
N1341 X85.653 Y225.332
N1342 X85.861 Y225.281
N1343 X86.065 Y225.216
N1344 X86.263 Y225.135
N1345 X86.455 Y225.04
N1346 X86.639 Y224.931
N1347 X86.815 Y224.809
N1348 X86.982 Y224.675
N1349 X87.138 Y224.528
N1350 X87.282 Y224.37
N1351 X87.415 Y224.202
N1352 X87.535 Y224.025
N1353 X105.02 Y195.999
N1354 X105.126 Y195.814
N1355 X105.218 Y195.623
N1356 X105.296 Y195.425
N1357 X105.359 Y195.221
N1358 X105.407 Y195.014
N1359 X105.44 Y194.804
N1360 X105.457 Y194.592
N1361 X105.459 Y194.379
N1362 X105.445 Y194.166
N1363 X105.415 Y193.956
N1364 X105.37 Y193.748
N1365 X105.31 Y193.544
N1366 X105.235 Y193.344
N1367 X105.146 Y193.151
N1368 X105.043 Y192.965
N1369 X104.926 Y192.787
N1370 X104.797 Y192.618
N1371 X104.655 Y192.459
N1372 X104.503 Y192.311
N1373 X104.339 Y192.174
N1374 X104.167 Y192.05
N1375 X103.985 Y191.938
N1376 X103.796 Y191.841
N1377 X103.601 Y191.757
N1378 X103.399 Y191.688
N1379 X103.193 Y191.634
N1380 X102.984 Y191.595
N1381 X102.773 Y191.572
N1382 X102.56 Y191.564
N1383 X95.911
N1384 X117.144 Y150.687
N1385 X117.234 Y150.495
N1386 X117.311 Y150.297
N1387 X117.373 Y150.094
N1388 X117.42 Y149.887
N1389 X117.451 Y149.677
N1390 X117.468 Y149.465
N1391 Y149.253
N1392 X117.454 Y149.041
N1393 X117.423 Y148.831
N1394 X117.378 Y148.624
N1395 X117.317 Y148.421
N1396 X117.242 Y148.222
N1397 X117.152 Y148.03
N1398 X117.049 Y147.844
N1399 X116.932 Y147.667
N1400 X116.802 Y147.499
N1401 X116.661 Y147.341
N1402 X116.508 Y147.193
N1403 X116.345 Y147.057
N1404 X116.173 Y146.933
N1405 X115.992 Y146.823
N1406 X115.803 Y146.725
N1407 X115.608 Y146.642
N1408 X115.407 Y146.573
N1409 X115.202 Y146.52
N1410 X114.993 Y146.481
N1411 X114.782 Y146.458
N1412 X114.57 Y146.45
N1413 X105.095
N1414 X130.52 Y104.871
N1415 X130.624 Y104.686
N1416 X130.714 Y104.494
N1417 X130.79 Y104.296
N1418 X130.851 Y104.094
N1419 X130.897 Y103.887
N1420 X130.928 Y103.677
N1421 X130.944 Y103.466
N1422 Y103.254
N1423 X130.929 Y103.043
N1424 X130.898 Y102.833
N1425 X130.852 Y102.626
N1426 X130.791 Y102.423
N1427 X130.716 Y102.225
N1428 X130.626 Y102.033
N1429 X130.522 Y101.848
N1430 X130.405 Y101.672
N1431 X130.276 Y101.504
N1432 X130.134 Y101.346
N1433 X129.982 Y101.199
N1434 X129.819 Y101.063
N1435 X129.647 Y100.94
N1436 X129.466 Y100.829
N1437 X129.277 Y100.732
N1438 X129.082 Y100.65
N1439 X128.882 Y100.581
N1440 X128.677 Y100.527
N1441 X128.468 Y100.489
N1442 X128.258 Y100.466
N1443 X128.046 Y100.458
N1444 X117.551
N1445 X142.055 Y60.384
N1446 X142.159 Y60.199
N1447 X142.249 Y60.007
N1448 X142.325 Y59.809
N1449 X142.386 Y59.607
N1450 X142.432 Y59.4
N1451 X142.463 Y59.19
N1452 X142.479 Y58.979
N1453 Y58.767
N1454 X142.464 Y58.556
N1455 X142.433 Y58.346
N1456 X142.387 Y58.139
N1457 X142.326 Y57.936
N1458 X142.251 Y57.738
N1459 X142.161 Y57.546
N1460 X142.057 Y57.361
N1461 X141.94 Y57.185
N1462 X141.811 Y57.017
N1463 X141.669 Y56.859
N1464 X141.517 Y56.712
N1465 X141.354 Y56.576
N1466 X141.182 Y56.453
N1467 X141.001 Y56.342
N1468 X140.812 Y56.245
N1469 X140.617 Y56.163
N1470 X140.417 Y56.094
N1471 X140.212 Y56.04
N1472 X140.003 Y56.002
N1473 X139.793 Y55.979
N1474 X139.581 Y55.971
N1475 X129.576
N1476 X154.523 Y15.174
N1477 X154.627 Y14.989
N1478 X154.717 Y14.797
N1479 X154.793 Y14.599
N1480 X154.854 Y14.396
N1481 X154.9 Y14.19
N1482 X154.931 Y13.98
N1483 X154.947 Y13.769
N1484 Y13.557
N1485 X154.932 Y13.345
N1486 X154.901 Y13.136
N1487 X154.855 Y12.929
N1488 X154.794 Y12.726
N1489 X154.719 Y12.528
N1490 X154.629 Y12.336
N1491 X154.525 Y12.151
N1492 X154.408 Y11.974
N1493 X154.279 Y11.807
N1494 X154.137 Y11.649
N1495 X153.985 Y11.502
N1496 X153.822 Y11.366
N1497 X153.65 Y11.243
N1498 X153.469 Y11.132
N1499 X153.28 Y11.035
N1500 X153.085 Y10.952
N1501 X152.885 Y10.884
N1502 X152.68 Y10.83
N1503 X152.471 Y10.792
N1504 X152.261 Y10.769
N1505 X152.049 Y10.761
N1506 X110.408
N1507 Y0
N1508 X110.401 Y-0.207
N1509 X110.378 Y-0.413
N1510 X110.342 Y-0.616
N1511 X110.291 Y-0.817
N1512 X110.225 Y-1.013
N1513 X110.146 Y-1.205
N1514 X110.053 Y-1.39
N1515 X109.948 Y-1.568
N1516 X109.83 Y-1.738
N1517 X109.7 Y-1.899
N1518 X109.559 Y-2.051
N1519 X109.407 Y-2.192
N1520 X109.246 Y-2.322
N1521 X109.076 Y-2.44
N1522 X108.898 Y-2.545
N1523 X108.713 Y-2.638
N1524 X108.521 Y-2.717
N1525 X108.325 Y-2.783
N1526 X108.124 Y-2.834
N1527 X107.921 Y-2.87
N1528 X107.715 Y-2.893
N1529 X107.508 Y-2.9
N1530 X54.243
N1531 X44.541 Z14.832 F2500
N1532 X44.334 Y-2.893 Z14.828
N1533 X44.128 Y-2.87 Z14.825
N1534 X43.925 Y-2.834 Z14.821
N1535 X43.724 Y-2.783 Z14.818
N1536 X43.528 Y-2.717 Z14.814
N1537 X43.336 Y-2.638 Z14.81
N1538 X43.151 Y-2.545 Z14.807
N1539 X42.973 Y-2.44 Z14.803
N1540 X42.803 Y-2.322 Z14.8
N1541 X42.642 Y-2.192 Z14.796
N1542 X42.49 Y-2.051 Z14.792
N1543 X42.349 Y-1.899 Z14.789
N1544 X42.22 Y-1.738 Z14.785
N1545 X42.101 Y-1.568 Z14.782
N1546 X41.996 Y-1.39 Z14.778
N1547 X41.903 Y-1.205 Z14.775
N1548 X41.824 Y-1.013 Z14.771
N1549 X41.759 Y-0.817 Z14.767
N1550 X41.707 Y-0.616 Z14.764
N1551 X41.671 Y-0.413 Z14.76
N1552 X41.648 Y-0.207 Z14.757
N1553 X41.641 Y0 Z14.753
N1554 Y10.761 Z14.567
N1555 X8.934 Z14
N1556 X0 F2760
N1557 X-0.212 Y10.769
N1558 X-0.422 Y10.792
N1559 X-0.631 Y10.83
N1560 X-0.836 Y10.884
N1561 X-1.036 Y10.952
N1562 X-1.231 Y11.035
N1563 X-1.42 Y11.132
N1564 X-1.601 Y11.243
N1565 X-1.773 Y11.366
N1566 X-1.936 Y11.502
N1567 X-2.088 Y11.649
N1568 X-2.23 Y11.807
N1569 X-2.359 Y11.974
N1570 X-2.476 Y12.151
N1571 X-2.58 Y12.336
N1572 X-2.67 Y12.528
N1573 X-2.745 Y12.726
N1574 X-2.806 Y12.929
N1575 X-2.852 Y13.136
N1576 X-2.883 Y13.345
N1577 X-2.898 Y13.557
N1578 Y13.769
N1579 X-2.882 Y13.98
N1580 X-2.851 Y14.19
N1581 X-2.805 Y14.396
N1582 X-2.744 Y14.599
N1583 X-2.668 Y14.797
N1584 X-2.578 Y14.989
N1585 X-2.474 Y15.174
N1586 X22.472 Y55.971
N1587 X12.467
N1588 X12.256 Y55.979
N1589 X12.045 Y56.002
N1590 X11.837 Y56.04
N1591 X11.632 Y56.094
N1592 X11.431 Y56.163
N1593 X11.236 Y56.245
N1594 X11.048 Y56.342
N1595 X10.867 Y56.453
N1596 X10.694 Y56.576
N1597 X10.532 Y56.712
N1598 X10.379 Y56.859
N1599 X10.238 Y57.017
N1600 X10.108 Y57.185
N1601 X9.991 Y57.361
N1602 X9.888 Y57.546
N1603 X9.798 Y57.738
N1604 X9.722 Y57.936
N1605 X9.661 Y58.139
N1606 X9.615 Y58.346
N1607 X9.585 Y58.556
N1608 X9.569 Y58.767
N1609 X9.57 Y58.979
N1610 X9.585 Y59.19
N1611 X9.616 Y59.4
N1612 X9.662 Y59.607
N1613 X9.724 Y59.809
N1614 X9.799 Y60.007
N1615 X9.89 Y60.199
N1616 X9.993 Y60.384
N1617 X34.498 Y100.458
N1618 X24.003
N1619 X23.792 Y100.466
N1620 X23.581 Y100.489
N1621 X23.373 Y100.527
N1622 X23.167 Y100.581
N1623 X22.967 Y100.65
N1624 X22.772 Y100.732
N1625 X22.583 Y100.829
N1626 X22.403 Y100.94
N1627 X22.23 Y101.063
N1628 X22.067 Y101.199
N1629 X21.915 Y101.346
N1630 X21.774 Y101.504
N1631 X21.644 Y101.672
N1632 X21.527 Y101.848
N1633 X21.424 Y102.033
N1634 X21.334 Y102.225
N1635 X21.258 Y102.423
N1636 X21.197 Y102.626
N1637 X21.151 Y102.833
N1638 X21.121 Y103.043
N1639 X21.105 Y103.254
N1640 Y103.466
N1641 X21.121 Y103.677
N1642 X21.152 Y103.887
N1643 X21.198 Y104.094
N1644 X21.259 Y104.296
N1645 X21.335 Y104.494
N1646 X21.425 Y104.686
N1647 X21.529 Y104.871
N1648 X46.953 Y146.45
N1649 X37.479
N1650 X37.267 Y146.458
N1651 X37.056 Y146.481
N1652 X36.847 Y146.52
N1653 X36.642 Y146.573
N1654 X36.441 Y146.642
N1655 X36.245 Y146.725
N1656 X36.057 Y146.823
N1657 X35.876 Y146.933
N1658 X35.703 Y147.057
N1659 X35.54 Y147.193
N1660 X35.388 Y147.341
N1661 X35.246 Y147.499
N1662 X35.117 Y147.667
N1663 X35 Y147.844
N1664 X34.897 Y148.03
N1665 X34.807 Y148.222
N1666 X34.732 Y148.421
N1667 X34.671 Y148.624
N1668 X34.625 Y148.831
N1669 X34.595 Y149.041
N1670 X34.58 Y149.253
N1671 X34.581 Y149.465
N1672 X34.597 Y149.677
N1673 X34.629 Y149.887
N1674 X34.676 Y150.094
N1675 X34.738 Y150.297
N1676 X34.814 Y150.495
N1677 X34.905 Y150.687
N1678 X56.138 Y191.564
N1679 X49.489
N1680 X49.277 Y191.572
N1681 X49.065 Y191.595
N1682 X48.856 Y191.634
N1683 X48.65 Y191.688
N1684 X48.449 Y191.757
N1685 X48.253 Y191.841
N1686 X48.064 Y191.938
N1687 X47.883 Y192.05
N1688 X47.71 Y192.174
N1689 X47.547 Y192.311
N1690 X47.394 Y192.459
N1691 X47.253 Y192.618
N1692 X47.123 Y192.787
N1693 X47.007 Y192.965
N1694 X46.903 Y193.151
N1695 X46.814 Y193.344
N1696 X46.739 Y193.544
N1697 X46.679 Y193.748
N1698 X46.634 Y193.956
N1699 X46.605 Y194.166
N1700 X46.591 Y194.379
N1701 X46.592 Y194.592
N1702 X46.609 Y194.804
N1703 X46.642 Y195.014
N1704 X46.69 Y195.221
N1705 X46.753 Y195.425
N1706 X46.831 Y195.623
N1707 X46.923 Y195.814
N1708 X47.029 Y195.999
N1709 X64.514 Y224.025
N1710 X64.634 Y224.202
N1711 X64.767 Y224.37
N1712 X64.911 Y224.528
N1713 X65.067 Y224.675
N1714 X65.234 Y224.809
N1715 X65.409 Y224.931
N1716 X65.594 Y225.04
N1717 X65.785 Y225.135
N1718 X65.984 Y225.216
N1719 X66.188 Y225.281
N1720 X66.396 Y225.332
N1721 X66.607 Y225.367
N1722 X66.82 Y225.386
N1723 X67.034 Y225.389
N1724 X67.248 Y225.377
N1725 X67.46 Y225.349
N1726 X67.669 Y225.306
N1727 X67.875 Y225.247
N1728 X68.076 Y225.173
N1729 X68.271 Y225.084
N1730 X68.459 Y224.981
N1731 X68.638 Y224.865
N1732 X68.809 Y224.736
N1733 X68.97 Y224.595
N1734 X69.119 Y224.442
N1735 X69.258 Y224.278
N1736 X69.383 Y224.105
N1737 X69.496 Y223.923
N1738 X69.595 Y223.733
N1739 X69.679 Y223.536
N1740 X69.749 Y223.334
N1741 X69.804 Y223.127
N1742 X69.843 Y222.917
N1743 X69.866 Y222.704
N1744 X69.874 Y222.49
N1745 Y127.243
N1746 X69.867 Y127.036
N1747 X69.845 Y126.83
N1748 X69.808 Y126.626
N1749 X69.757 Y126.426
N1750 X69.691 Y126.229
N1751 X69.612 Y126.038
N1752 X69.519 Y125.853
N1753 X69.414 Y125.675
N1754 X69.296 Y125.505
N1755 X69.166 Y125.343
N1756 X69.025 Y125.192
N1757 X69.003 Y125.159
N1758 X68.995 Y125.121
N1759 X69.003 Y125.083
N1760 X69.025 Y125.05
N1761 X69.057 Y125.029
N1762 X69.095 Y125.021
N1763 X69.134 Y125.029
N1764 X69.166 Y125.05
N1765 X69.318 Y125.191
N1766 X69.479 Y125.321
N1767 X69.649 Y125.439
N1768 X69.827 Y125.545
N1769 X70.012 Y125.638
N1770 X70.203 Y125.717
N1771 X70.4 Y125.782
N1772 X70.601 Y125.834
N1773 X70.804 Y125.87
N1774 X71.01 Y125.893
N1775 X71.217 Y125.9
N1776 X80.832
N1777 X81.039 Y125.893
N1778 X81.245 Y125.87
N1779 X81.448 Y125.834
N1780 X81.649 Y125.782
N1781 X81.845 Y125.717
N1782 X82.037 Y125.638
N1783 X82.222 Y125.545
N1784 X82.4 Y125.439
N1785 X82.57 Y125.321
N1786 X82.731 Y125.191
N1787 X82.883 Y125.05
N1788 X82.915 Y125.029
N1789 X82.953 Y125.021
N1790 X82.992 Y125.029
N1791 X83.024 Y125.05
N1792 X83.046 Y125.083
N1793 X83.054 Y125.121
N1794 X83.046 Y125.159
N1795 X83.024 Y125.192
N1796 X82.883 Y125.343
N1797 X82.753 Y125.505
N1798 X82.635 Y125.675
N1799 X82.529 Y125.853
N1800 X82.437 Y126.038
N1801 X82.357 Y126.229
N1802 X82.292 Y126.426
N1803 X82.241 Y126.626
N1804 X82.204 Y126.83
N1805 X82.182 Y127.036
N1806 X82.174 Y127.243
N1807 Y222.49
N1808 X82.182 Y222.704
N1809 X82.206 Y222.917
N1810 X82.245 Y223.127
N1811 X82.3 Y223.334
N1812 X82.37 Y223.536
N1813 X82.454 Y223.733
N1814 X82.553 Y223.923
N1815 X82.666 Y224.105
N1816 X82.791 Y224.278
N1817 X82.929 Y224.442
N1818 X83.079 Y224.595
N1819 X83.24 Y224.736
N1820 X83.41 Y224.865
N1821 X83.59 Y224.981
N1822 X83.778 Y225.084
N1823 X83.973 Y225.173
N1824 X84.174 Y225.247
N1825 X84.379 Y225.306
N1826 X84.589 Y225.349
N1827 X84.801 Y225.377
N1828 X85.015 Y225.389
N1829 X85.229 Y225.386
N1830 X85.442 Y225.367
N1831 X85.653 Y225.332
N1832 X85.861 Y225.281
N1833 X86.065 Y225.216
N1834 X86.263 Y225.135
N1835 X86.455 Y225.04
N1836 X86.639 Y224.931
N1837 X86.815 Y224.809
N1838 X86.982 Y224.675
N1839 X87.138 Y224.528
N1840 X87.282 Y224.37
N1841 X87.415 Y224.202
N1842 X87.535 Y224.025
N1843 X105.02 Y195.999
N1844 X105.126 Y195.814
N1845 X105.218 Y195.623
N1846 X105.296 Y195.425
N1847 X105.359 Y195.221
N1848 X105.407 Y195.014
N1849 X105.44 Y194.804
N1850 X105.457 Y194.592
N1851 X105.459 Y194.379
N1852 X105.445 Y194.166
N1853 X105.415 Y193.956
N1854 X105.37 Y193.748
N1855 X105.31 Y193.544
N1856 X105.235 Y193.344
N1857 X105.146 Y193.151
N1858 X105.043 Y192.965
N1859 X104.926 Y192.787
N1860 X104.797 Y192.618
N1861 X104.655 Y192.459
N1862 X104.503 Y192.311
N1863 X104.339 Y192.174
N1864 X104.167 Y192.05
N1865 X103.985 Y191.938
N1866 X103.796 Y191.841
N1867 X103.601 Y191.757
N1868 X103.399 Y191.688
N1869 X103.193 Y191.634
N1870 X102.984 Y191.595
N1871 X102.773 Y191.572
N1872 X102.56 Y191.564
N1873 X95.911
N1874 X117.144 Y150.687
N1875 X117.234 Y150.495
N1876 X117.311 Y150.297
N1877 X117.373 Y150.094
N1878 X117.42 Y149.887
N1879 X117.451 Y149.677
N1880 X117.468 Y149.465
N1881 Y149.253
N1882 X117.454 Y149.041
N1883 X117.423 Y148.831
N1884 X117.378 Y148.624
N1885 X117.317 Y148.421
N1886 X117.242 Y148.222
N1887 X117.152 Y148.03
N1888 X117.049 Y147.844
N1889 X116.932 Y147.667
N1890 X116.802 Y147.499
N1891 X116.661 Y147.341
N1892 X116.508 Y147.193
N1893 X116.345 Y147.057
N1894 X116.173 Y146.933
N1895 X115.992 Y146.823
N1896 X115.803 Y146.725
N1897 X115.608 Y146.642
N1898 X115.407 Y146.573
N1899 X115.202 Y146.52
N1900 X114.993 Y146.481
N1901 X114.782 Y146.458
N1902 X114.57 Y146.45
N1903 X105.095
N1904 X130.52 Y104.871
N1905 X130.624 Y104.686
N1906 X130.714 Y104.494
N1907 X130.79 Y104.296
N1908 X130.851 Y104.094
N1909 X130.897 Y103.887
N1910 X130.928 Y103.677
N1911 X130.944 Y103.466
N1912 Y103.254
N1913 X130.929 Y103.043
N1914 X130.898 Y102.833
N1915 X130.852 Y102.626
N1916 X130.791 Y102.423
N1917 X130.716 Y102.225
N1918 X130.626 Y102.033
N1919 X130.522 Y101.848
N1920 X130.405 Y101.672
N1921 X130.276 Y101.504
N1922 X130.134 Y101.346
N1923 X129.982 Y101.199
N1924 X129.819 Y101.063
N1925 X129.647 Y100.94
N1926 X129.466 Y100.829
N1927 X129.277 Y100.732
N1928 X129.082 Y100.65
N1929 X128.882 Y100.581
N1930 X128.677 Y100.527
N1931 X128.468 Y100.489
N1932 X128.258 Y100.466
N1933 X128.046 Y100.458
N1934 X117.551
N1935 X142.055 Y60.384
N1936 X142.159 Y60.199
N1937 X142.249 Y60.007
N1938 X142.325 Y59.809
N1939 X142.386 Y59.607
N1940 X142.432 Y59.4
N1941 X142.463 Y59.19
N1942 X142.479 Y58.979
N1943 Y58.767
N1944 X142.464 Y58.556
N1945 X142.433 Y58.346
N1946 X142.387 Y58.139
N1947 X142.326 Y57.936
N1948 X142.251 Y57.738
N1949 X142.161 Y57.546
N1950 X142.057 Y57.361
N1951 X141.94 Y57.185
N1952 X141.811 Y57.017
N1953 X141.669 Y56.859
N1954 X141.517 Y56.712
N1955 X141.354 Y56.576
N1956 X141.182 Y56.453
N1957 X141.001 Y56.342
N1958 X140.812 Y56.245
N1959 X140.617 Y56.163
N1960 X140.417 Y56.094
N1961 X140.212 Y56.04
N1962 X140.003 Y56.002
N1963 X139.793 Y55.979
N1964 X139.581 Y55.971
N1965 X129.576
N1966 X154.523 Y15.174
N1967 X154.627 Y14.989
N1968 X154.717 Y14.797
N1969 X154.793 Y14.599
N1970 X154.854 Y14.396
N1971 X154.9 Y14.19
N1972 X154.931 Y13.98
N1973 X154.947 Y13.769
N1974 Y13.557
N1975 X154.932 Y13.345
N1976 X154.901 Y13.136
N1977 X154.855 Y12.929
N1978 X154.794 Y12.726
N1979 X154.719 Y12.528
N1980 X154.629 Y12.336
N1981 X154.525 Y12.151
N1982 X154.408 Y11.974
N1983 X154.279 Y11.807
N1984 X154.137 Y11.649
N1985 X153.985 Y11.502
N1986 X153.822 Y11.366
N1987 X153.65 Y11.243
N1988 X153.469 Y11.132
N1989 X153.28 Y11.035
N1990 X153.085 Y10.952
N1991 X152.885 Y10.884
N1992 X152.68 Y10.83
N1993 X152.471 Y10.792
N1994 X152.261 Y10.769
N1995 X152.049 Y10.761
N1996 X110.408
N1997 Y0
N1998 X110.401 Y-0.207
N1999 X110.378 Y-0.413
N2000 X110.342 Y-0.616
N2001 X110.291 Y-0.817
N2002 X110.225 Y-1.013
N2003 X110.146 Y-1.205
N2004 X110.053 Y-1.39
N2005 X109.948 Y-1.568
N2006 X109.83 Y-1.738
N2007 X109.7 Y-1.899
N2008 X109.559 Y-2.051
N2009 X109.407 Y-2.192
N2010 X109.246 Y-2.322
N2011 X109.076 Y-2.44
N2012 X108.898 Y-2.545
N2013 X108.713 Y-2.638
N2014 X108.521 Y-2.717
N2015 X108.325 Y-2.783
N2016 X108.124 Y-2.834
N2017 X107.921 Y-2.87
N2018 X107.715 Y-2.893
N2019 X107.508 Y-2.9
N2020 X54.243
N2021 X44.541
N2022 X44.334 Y-2.893
N2023 X44.128 Y-2.87
N2024 X43.925 Y-2.834
N2025 X43.724 Y-2.783
N2026 X43.528 Y-2.717
N2027 X43.336 Y-2.638
N2028 X43.151 Y-2.545
N2029 X42.973 Y-2.44
N2030 X42.803 Y-2.322
N2031 X42.642 Y-2.192
N2032 X42.49 Y-2.051
N2033 X42.349 Y-1.899
N2034 X42.22 Y-1.738
N2035 X42.101 Y-1.568
N2036 X41.996 Y-1.39
N2037 X41.903 Y-1.205
N2038 X41.824 Y-1.013
N2039 X41.759 Y-0.817
N2040 X41.707 Y-0.616
N2041 X41.671 Y-0.413
N2042 X41.648 Y-0.207
N2043 X41.641 Y0
N2044 Y10.761
N2045 X8.934
N2046 X0 Z13.845 F2500
N2047 X-0.212 Y10.769 Z13.842
N2048 X-0.422 Y10.792 Z13.838
N2049 X-0.631 Y10.83 Z13.834
N2050 X-0.836 Y10.884 Z13.831
N2051 X-1.036 Y10.952 Z13.827
N2052 X-1.231 Y11.035 Z13.823
N2053 X-1.42 Y11.132 Z13.82
N2054 X-1.601 Y11.243 Z13.816
N2055 X-1.773 Y11.366 Z13.812
N2056 X-1.936 Y11.502 Z13.809
N2057 X-2.088 Y11.649 Z13.805
N2058 X-2.23 Y11.807 Z13.801
N2059 X-2.359 Y11.974 Z13.798
N2060 X-2.476 Y12.151 Z13.794
N2061 X-2.58 Y12.336 Z13.79
N2062 X-2.67 Y12.528 Z13.786
N2063 X-2.745 Y12.726 Z13.783
N2064 X-2.806 Y12.929 Z13.779
N2065 X-2.852 Y13.136 Z13.775
N2066 X-2.883 Y13.345 Z13.772
N2067 X-2.898 Y13.557 Z13.768
N2068 Y13.769 Z13.764
N2069 X-2.882 Y13.98 Z13.761
N2070 X-2.851 Y14.19 Z13.757
N2071 X-2.805 Y14.396 Z13.753
N2072 X-2.744 Y14.599 Z13.75
N2073 X-2.668 Y14.797 Z13.746
N2074 X-2.578 Y14.989 Z13.742
N2075 X-2.474 Y15.174 Z13.739
N2076 X19.772 Y51.556 Z13
N2077 X22.472 Y55.971 F2760
N2078 X12.467
N2079 X12.256 Y55.979
N2080 X12.045 Y56.002
N2081 X11.837 Y56.04
N2082 X11.632 Y56.094
N2083 X11.431 Y56.163
N2084 X11.236 Y56.245
N2085 X11.048 Y56.342
N2086 X10.867 Y56.453
N2087 X10.694 Y56.576
N2088 X10.532 Y56.712
N2089 X10.379 Y56.859
N2090 X10.238 Y57.017
N2091 X10.108 Y57.185
N2092 X9.991 Y57.361
N2093 X9.888 Y57.546
N2094 X9.798 Y57.738
N2095 X9.722 Y57.936
N2096 X9.661 Y58.139
N2097 X9.615 Y58.346
N2098 X9.585 Y58.556
N2099 X9.569 Y58.767
N2100 X9.57 Y58.979
N2101 X9.585 Y59.19
N2102 X9.616 Y59.4
N2103 X9.662 Y59.607
N2104 X9.724 Y59.809
N2105 X9.799 Y60.007
N2106 X9.89 Y60.199
N2107 X9.993 Y60.384
N2108 X34.498 Y100.458
N2109 X24.003
N2110 X23.792 Y100.466
N2111 X23.581 Y100.489
N2112 X23.373 Y100.527
N2113 X23.167 Y100.581
N2114 X22.967 Y100.65
N2115 X22.772 Y100.732
N2116 X22.583 Y100.829
N2117 X22.403 Y100.94
N2118 X22.23 Y101.063
N2119 X22.067 Y101.199
N2120 X21.915 Y101.346
N2121 X21.774 Y101.504
N2122 X21.644 Y101.672
N2123 X21.527 Y101.848
N2124 X21.424 Y102.033
N2125 X21.334 Y102.225
N2126 X21.258 Y102.423
N2127 X21.197 Y102.626
N2128 X21.151 Y102.833
N2129 X21.121 Y103.043
N2130 X21.105 Y103.254
N2131 Y103.466
N2132 X21.121 Y103.677
N2133 X21.152 Y103.887
N2134 X21.198 Y104.094
N2135 X21.259 Y104.296
N2136 X21.335 Y104.494
N2137 X21.425 Y104.686
N2138 X21.529 Y104.871
N2139 X46.953 Y146.45
N2140 X37.479
N2141 X37.267 Y146.458
N2142 X37.056 Y146.481
N2143 X36.847 Y146.52
N2144 X36.642 Y146.573
N2145 X36.441 Y146.642
N2146 X36.245 Y146.725
N2147 X36.057 Y146.823
N2148 X35.876 Y146.933
N2149 X35.703 Y147.057
N2150 X35.54 Y147.193
N2151 X35.388 Y147.341
N2152 X35.246 Y147.499
N2153 X35.117 Y147.667
N2154 X35 Y147.844
N2155 X34.897 Y148.03
N2156 X34.807 Y148.222
N2157 X34.732 Y148.421
N2158 X34.671 Y148.624
N2159 X34.625 Y148.831
N2160 X34.595 Y149.041
N2161 X34.58 Y149.253
N2162 X34.581 Y149.465
N2163 X34.597 Y149.677
N2164 X34.629 Y149.887
N2165 X34.676 Y150.094
N2166 X34.738 Y150.297
N2167 X34.814 Y150.495
N2168 X34.905 Y150.687
N2169 X56.138 Y191.564
N2170 X49.489
N2171 X49.277 Y191.572
N2172 X49.065 Y191.595
N2173 X48.856 Y191.634
N2174 X48.65 Y191.688
N2175 X48.449 Y191.757
N2176 X48.253 Y191.841
N2177 X48.064 Y191.938
N2178 X47.883 Y192.05
N2179 X47.71 Y192.174
N2180 X47.547 Y192.311
N2181 X47.394 Y192.459
N2182 X47.253 Y192.618
N2183 X47.123 Y192.787
N2184 X47.007 Y192.965
N2185 X46.903 Y193.151
N2186 X46.814 Y193.344
N2187 X46.739 Y193.544
N2188 X46.679 Y193.748
N2189 X46.634 Y193.956
N2190 X46.605 Y194.166
N2191 X46.591 Y194.379
N2192 X46.592 Y194.592
N2193 X46.609 Y194.804
N2194 X46.642 Y195.014
N2195 X46.69 Y195.221
N2196 X46.753 Y195.425
N2197 X46.831 Y195.623
N2198 X46.923 Y195.814
N2199 X47.029 Y195.999
N2200 X64.514 Y224.025
N2201 X64.634 Y224.202
N2202 X64.767 Y224.37
N2203 X64.911 Y224.528
N2204 X65.067 Y224.675
N2205 X65.234 Y224.809
N2206 X65.409 Y224.931
N2207 X65.594 Y225.04
N2208 X65.785 Y225.135
N2209 X65.984 Y225.216
N2210 X66.188 Y225.281
N2211 X66.396 Y225.332
N2212 X66.607 Y225.367
N2213 X66.82 Y225.386
N2214 X67.034 Y225.389
N2215 X67.248 Y225.377
N2216 X67.46 Y225.349
N2217 X67.669 Y225.306
N2218 X67.875 Y225.247
N2219 X68.076 Y225.173
N2220 X68.271 Y225.084
N2221 X68.459 Y224.981
N2222 X68.638 Y224.865
N2223 X68.809 Y224.736
N2224 X68.97 Y224.595
N2225 X69.119 Y224.442
N2226 X69.258 Y224.278
N2227 X69.383 Y224.105
N2228 X69.496 Y223.923
N2229 X69.595 Y223.733
N2230 X69.679 Y223.536
N2231 X69.749 Y223.334
N2232 X69.804 Y223.127
N2233 X69.843 Y222.917
N2234 X69.866 Y222.704
N2235 X69.874 Y222.49
N2236 Y127.243
N2237 X69.867 Y127.036
N2238 X69.845 Y126.83
N2239 X69.808 Y126.626
N2240 X69.757 Y126.426
N2241 X69.691 Y126.229
N2242 X69.612 Y126.038
N2243 X69.519 Y125.853
N2244 X69.414 Y125.675
N2245 X69.296 Y125.505
N2246 X69.166 Y125.343
N2247 X69.025 Y125.192
N2248 X69.003 Y125.159
N2249 X68.995 Y125.121
N2250 X69.003 Y125.083
N2251 X69.025 Y125.05
N2252 X69.057 Y125.029
N2253 X69.095 Y125.021
N2254 X69.134 Y125.029
N2255 X69.166 Y125.05
N2256 X69.318 Y125.191
N2257 X69.479 Y125.321
N2258 X69.649 Y125.439
N2259 X69.827 Y125.545
N2260 X70.012 Y125.638
N2261 X70.203 Y125.717
N2262 X70.4 Y125.782
N2263 X70.601 Y125.834
N2264 X70.804 Y125.87
N2265 X71.01 Y125.893
N2266 X71.217 Y125.9
N2267 X80.832
N2268 X81.039 Y125.893
N2269 X81.245 Y125.87
N2270 X81.448 Y125.834
N2271 X81.649 Y125.782
N2272 X81.845 Y125.717
N2273 X82.037 Y125.638
N2274 X82.222 Y125.545
N2275 X82.4 Y125.439
N2276 X82.57 Y125.321
N2277 X82.731 Y125.191
N2278 X82.883 Y125.05
N2279 X82.915 Y125.029
N2280 X82.953 Y125.021
N2281 X82.992 Y125.029
N2282 X83.024 Y125.05
N2283 X83.046 Y125.083
N2284 X83.054 Y125.121
N2285 X83.046 Y125.159
N2286 X83.024 Y125.192
N2287 X82.883 Y125.343
N2288 X82.753 Y125.505
N2289 X82.635 Y125.675
N2290 X82.529 Y125.853
N2291 X82.437 Y126.038
N2292 X82.357 Y126.229
N2293 X82.292 Y126.426
N2294 X82.241 Y126.626
N2295 X82.204 Y126.83
N2296 X82.182 Y127.036
N2297 X82.174 Y127.243
N2298 Y222.49
N2299 X82.182 Y222.704
N2300 X82.206 Y222.917
N2301 X82.245 Y223.127
N2302 X82.3 Y223.334
N2303 X82.37 Y223.536
N2304 X82.454 Y223.733
N2305 X82.553 Y223.923
N2306 X82.666 Y224.105
N2307 X82.791 Y224.278
N2308 X82.929 Y224.442
N2309 X83.079 Y224.595
N2310 X83.24 Y224.736
N2311 X83.41 Y224.865
N2312 X83.59 Y224.981
N2313 X83.778 Y225.084
N2314 X83.973 Y225.173
N2315 X84.174 Y225.247
N2316 X84.379 Y225.306
N2317 X84.589 Y225.349
N2318 X84.801 Y225.377
N2319 X85.015 Y225.389
N2320 X85.229 Y225.386
N2321 X85.442 Y225.367
N2322 X85.653 Y225.332
N2323 X85.861 Y225.281
N2324 X86.065 Y225.216
N2325 X86.263 Y225.135
N2326 X86.455 Y225.04
N2327 X86.639 Y224.931
N2328 X86.815 Y224.809
N2329 X86.982 Y224.675
N2330 X87.138 Y224.528
N2331 X87.282 Y224.37
N2332 X87.415 Y224.202
N2333 X87.535 Y224.025
N2334 X105.02 Y195.999
N2335 X105.126 Y195.814
N2336 X105.218 Y195.623
N2337 X105.296 Y195.425
N2338 X105.359 Y195.221
N2339 X105.407 Y195.014
N2340 X105.44 Y194.804
N2341 X105.457 Y194.592
N2342 X105.459 Y194.379
N2343 X105.445 Y194.166
N2344 X105.415 Y193.956
N2345 X105.37 Y193.748
N2346 X105.31 Y193.544
N2347 X105.235 Y193.344
N2348 X105.146 Y193.151
N2349 X105.043 Y192.965
N2350 X104.926 Y192.787
N2351 X104.797 Y192.618
N2352 X104.655 Y192.459
N2353 X104.503 Y192.311
N2354 X104.339 Y192.174
N2355 X104.167 Y192.05
N2356 X103.985 Y191.938
N2357 X103.796 Y191.841
N2358 X103.601 Y191.757
N2359 X103.399 Y191.688
N2360 X103.193 Y191.634
N2361 X102.984 Y191.595
N2362 X102.773 Y191.572
N2363 X102.56 Y191.564
N2364 X95.911
N2365 X117.144 Y150.687
N2366 X117.234 Y150.495
N2367 X117.311 Y150.297
N2368 X117.373 Y150.094
N2369 X117.42 Y149.887
N2370 X117.451 Y149.677
N2371 X117.468 Y149.465
N2372 Y149.253
N2373 X117.454 Y149.041
N2374 X117.423 Y148.831
N2375 X117.378 Y148.624
N2376 X117.317 Y148.421
N2377 X117.242 Y148.222
N2378 X117.152 Y148.03
N2379 X117.049 Y147.844
N2380 X116.932 Y147.667
N2381 X116.802 Y147.499
N2382 X116.661 Y147.341
N2383 X116.508 Y147.193
N2384 X116.345 Y147.057
N2385 X116.173 Y146.933
N2386 X115.992 Y146.823
N2387 X115.803 Y146.725
N2388 X115.608 Y146.642
N2389 X115.407 Y146.573
N2390 X115.202 Y146.52
N2391 X114.993 Y146.481
N2392 X114.782 Y146.458
N2393 X114.57 Y146.45
N2394 X105.095
N2395 X130.52 Y104.871
N2396 X130.624 Y104.686
N2397 X130.714 Y104.494
N2398 X130.79 Y104.296
N2399 X130.851 Y104.094
N2400 X130.897 Y103.887
N2401 X130.928 Y103.677
N2402 X130.944 Y103.466
N2403 Y103.254
N2404 X130.929 Y103.043
N2405 X130.898 Y102.833
N2406 X130.852 Y102.626
N2407 X130.791 Y102.423
N2408 X130.716 Y102.225
N2409 X130.626 Y102.033
N2410 X130.522 Y101.848
N2411 X130.405 Y101.672
N2412 X130.276 Y101.504
N2413 X130.134 Y101.346
N2414 X129.982 Y101.199
N2415 X129.819 Y101.063
N2416 X129.647 Y100.94
N2417 X129.466 Y100.829
N2418 X129.277 Y100.732
N2419 X129.082 Y100.65
N2420 X128.882 Y100.581
N2421 X128.677 Y100.527
N2422 X128.468 Y100.489
N2423 X128.258 Y100.466
N2424 X128.046 Y100.458
N2425 X117.551
N2426 X142.055 Y60.384
N2427 X142.159 Y60.199
N2428 X142.249 Y60.007
N2429 X142.325 Y59.809
N2430 X142.386 Y59.607
N2431 X142.432 Y59.4
N2432 X142.463 Y59.19
N2433 X142.479 Y58.979
N2434 Y58.767
N2435 X142.464 Y58.556
N2436 X142.433 Y58.346
N2437 X142.387 Y58.139
N2438 X142.326 Y57.936
N2439 X142.251 Y57.738
N2440 X142.161 Y57.546
N2441 X142.057 Y57.361
N2442 X141.94 Y57.185
N2443 X141.811 Y57.017
N2444 X141.669 Y56.859
N2445 X141.517 Y56.712
N2446 X141.354 Y56.576
N2447 X141.182 Y56.453
N2448 X141.001 Y56.342
N2449 X140.812 Y56.245
N2450 X140.617 Y56.163
N2451 X140.417 Y56.094
N2452 X140.212 Y56.04
N2453 X140.003 Y56.002
N2454 X139.793 Y55.979
N2455 X139.581 Y55.971
N2456 X129.576
N2457 X154.523 Y15.174
N2458 X154.627 Y14.989
N2459 X154.717 Y14.797
N2460 X154.793 Y14.599
N2461 X154.854 Y14.396
N2462 X154.9 Y14.19
N2463 X154.931 Y13.98
N2464 X154.947 Y13.769
N2465 Y13.557
N2466 X154.932 Y13.345
N2467 X154.901 Y13.136
N2468 X154.855 Y12.929
N2469 X154.794 Y12.726
N2470 X154.719 Y12.528
N2471 X154.629 Y12.336
N2472 X154.525 Y12.151
N2473 X154.408 Y11.974
N2474 X154.279 Y11.807
N2475 X154.137 Y11.649
N2476 X153.985 Y11.502
N2477 X153.822 Y11.366
N2478 X153.65 Y11.243
N2479 X153.469 Y11.132
N2480 X153.28 Y11.035
N2481 X153.085 Y10.952
N2482 X152.885 Y10.884
N2483 X152.68 Y10.83
N2484 X152.471 Y10.792
N2485 X152.261 Y10.769
N2486 X152.049 Y10.761
N2487 X110.408
N2488 Y0
N2489 X110.401 Y-0.207
N2490 X110.378 Y-0.413
N2491 X110.342 Y-0.616
N2492 X110.291 Y-0.817
N2493 X110.225 Y-1.013
N2494 X110.146 Y-1.205
N2495 X110.053 Y-1.39
N2496 X109.948 Y-1.568
N2497 X109.83 Y-1.738
N2498 X109.7 Y-1.899
N2499 X109.559 Y-2.051
N2500 X109.407 Y-2.192
N2501 X109.246 Y-2.322
N2502 X109.076 Y-2.44
N2503 X108.898 Y-2.545
N2504 X108.713 Y-2.638
N2505 X108.521 Y-2.717
N2506 X108.325 Y-2.783
N2507 X108.124 Y-2.834
N2508 X107.921 Y-2.87
N2509 X107.715 Y-2.893
N2510 X107.508 Y-2.9
N2511 X44.541
N2512 X44.334 Y-2.893
N2513 X44.128 Y-2.87
N2514 X43.925 Y-2.834
N2515 X43.724 Y-2.783
N2516 X43.528 Y-2.717
N2517 X43.336 Y-2.638
N2518 X43.151 Y-2.545
N2519 X42.973 Y-2.44
N2520 X42.803 Y-2.322
N2521 X42.642 Y-2.192
N2522 X42.49 Y-2.051
N2523 X42.349 Y-1.899
N2524 X42.22 Y-1.738
N2525 X42.101 Y-1.568
N2526 X41.996 Y-1.39
N2527 X41.903 Y-1.205
N2528 X41.824 Y-1.013
N2529 X41.759 Y-0.817
N2530 X41.707 Y-0.616
N2531 X41.671 Y-0.413
N2532 X41.648 Y-0.207
N2533 X41.641 Y0
N2534 Y10.761
N2535 X8.934
N2536 X0
N2537 X-0.212 Y10.769
N2538 X-0.422 Y10.792
N2539 X-0.631 Y10.83
N2540 X-0.836 Y10.884
N2541 X-1.036 Y10.952
N2542 X-1.231 Y11.035
N2543 X-1.42 Y11.132
N2544 X-1.601 Y11.243
N2545 X-1.773 Y11.366
N2546 X-1.936 Y11.502
N2547 X-2.088 Y11.649
N2548 X-2.23 Y11.807
N2549 X-2.359 Y11.974
N2550 X-2.476 Y12.151
N2551 X-2.58 Y12.336
N2552 X-2.67 Y12.528
N2553 X-2.745 Y12.726
N2554 X-2.806 Y12.929
N2555 X-2.852 Y13.136
N2556 X-2.883 Y13.345
N2557 X-2.898 Y13.557
N2558 Y13.769
N2559 X-2.882 Y13.98
N2560 X-2.851 Y14.19
N2561 X-2.805 Y14.396
N2562 X-2.744 Y14.599
N2563 X-2.668 Y14.797
N2564 X-2.578 Y14.989
N2565 X-2.474 Y15.174
N2566 X19.772 Y51.556
N2567 X22.472 Y55.971 Z12.91 F2500
N2568 X12.467 Z12.737
N2569 X12.256 Y55.979 Z12.733
N2570 X12.045 Y56.002 Z12.73
N2571 X11.837 Y56.04 Z12.726
N2572 X11.632 Y56.094 Z12.722
N2573 X11.431 Y56.163 Z12.719
N2574 X11.236 Y56.245 Z12.715
N2575 X11.048 Y56.342 Z12.711
N2576 X10.867 Y56.453 Z12.708
N2577 X10.694 Y56.576 Z12.704
N2578 X10.532 Y56.712 Z12.7
N2579 X10.379 Y56.859 Z12.697
N2580 X10.238 Y57.017 Z12.693
N2581 X10.108 Y57.185 Z12.689
N2582 X9.991 Y57.361 Z12.686
N2583 X9.888 Y57.546 Z12.682
N2584 X9.798 Y57.738 Z12.678
N2585 X9.722 Y57.936 Z12.675
N2586 X9.661 Y58.139 Z12.671
N2587 X9.615 Y58.346 Z12.667
N2588 X9.585 Y58.556 Z12.664
N2589 X9.569 Y58.767 Z12.66
N2590 X9.57 Y58.979 Z12.656
N2591 X9.585 Y59.19 Z12.653
N2592 X9.616 Y59.4 Z12.649
N2593 X9.662 Y59.607 Z12.645
N2594 X9.724 Y59.809 Z12.642
N2595 X9.799 Y60.007 Z12.638
N2596 X9.89 Y60.199 Z12.634
N2597 X9.993 Y60.384 Z12.631
N2598 X28.981 Y91.437 Z12
N2599 X34.498 Y100.458 F2760
N2600 X24.003
N2601 X23.792 Y100.466
N2602 X23.581 Y100.489
N2603 X23.373 Y100.527
N2604 X23.167 Y100.581
N2605 X22.967 Y100.65
N2606 X22.772 Y100.732
N2607 X22.583 Y100.829
N2608 X22.403 Y100.94
N2609 X22.23 Y101.063
N2610 X22.067 Y101.199
N2611 X21.915 Y101.346
N2612 X21.774 Y101.504
N2613 X21.644 Y101.672
N2614 X21.527 Y101.848
N2615 X21.424 Y102.033
N2616 X21.334 Y102.225
N2617 X21.258 Y102.423
N2618 X21.197 Y102.626
N2619 X21.151 Y102.833
N2620 X21.121 Y103.043
N2621 X21.105 Y103.254
N2622 Y103.466
N2623 X21.121 Y103.677
N2624 X21.152 Y103.887
N2625 X21.198 Y104.094
N2626 X21.259 Y104.296
N2627 X21.335 Y104.494
N2628 X21.425 Y104.686
N2629 X21.529 Y104.871
N2630 X46.953 Y146.45
N2631 X37.479
N2632 X37.267 Y146.458
N2633 X37.056 Y146.481
N2634 X36.847 Y146.52
N2635 X36.642 Y146.573
N2636 X36.441 Y146.642
N2637 X36.245 Y146.725
N2638 X36.057 Y146.823
N2639 X35.876 Y146.933
N2640 X35.703 Y147.057
N2641 X35.54 Y147.193
N2642 X35.388 Y147.341
N2643 X35.246 Y147.499
N2644 X35.117 Y147.667
N2645 X35 Y147.844
N2646 X34.897 Y148.03
N2647 X34.807 Y148.222
N2648 X34.732 Y148.421
N2649 X34.671 Y148.624
N2650 X34.625 Y148.831
N2651 X34.595 Y149.041
N2652 X34.58 Y149.253
N2653 X34.581 Y149.465
N2654 X34.597 Y149.677
N2655 X34.629 Y149.887
N2656 X34.676 Y150.094
N2657 X34.738 Y150.297
N2658 X34.814 Y150.495
N2659 X34.905 Y150.687
N2660 X56.138 Y191.564
N2661 X49.489
N2662 X49.277 Y191.572
N2663 X49.065 Y191.595
N2664 X48.856 Y191.634
N2665 X48.65 Y191.688
N2666 X48.449 Y191.757
N2667 X48.253 Y191.841
N2668 X48.064 Y191.938
N2669 X47.883 Y192.05
N2670 X47.71 Y192.174
N2671 X47.547 Y192.311
N2672 X47.394 Y192.459
N2673 X47.253 Y192.618
N2674 X47.123 Y192.787
N2675 X47.007 Y192.965
N2676 X46.903 Y193.151
N2677 X46.814 Y193.344
N2678 X46.739 Y193.544
N2679 X46.679 Y193.748
N2680 X46.634 Y193.956
N2681 X46.605 Y194.166
N2682 X46.591 Y194.379
N2683 X46.592 Y194.592
N2684 X46.609 Y194.804
N2685 X46.642 Y195.014
N2686 X46.69 Y195.221
N2687 X46.753 Y195.425
N2688 X46.831 Y195.623
N2689 X46.923 Y195.814
N2690 X47.029 Y195.999
N2691 X64.514 Y224.025
N2692 X64.634 Y224.202
N2693 X64.767 Y224.37
N2694 X64.911 Y224.528
N2695 X65.067 Y224.675
N2696 X65.234 Y224.809
N2697 X65.409 Y224.931
N2698 X65.594 Y225.04
N2699 X65.785 Y225.135
N2700 X65.984 Y225.216
N2701 X66.188 Y225.281
N2702 X66.396 Y225.332
N2703 X66.607 Y225.367
N2704 X66.82 Y225.386
N2705 X67.034 Y225.389
N2706 X67.248 Y225.377
N2707 X67.46 Y225.349
N2708 X67.669 Y225.306
N2709 X67.875 Y225.247
N2710 X68.076 Y225.173
N2711 X68.271 Y225.084
N2712 X68.459 Y224.981
N2713 X68.638 Y224.865
N2714 X68.809 Y224.736
N2715 X68.97 Y224.595
N2716 X69.119 Y224.442
N2717 X69.258 Y224.278
N2718 X69.383 Y224.105
N2719 X69.496 Y223.923
N2720 X69.595 Y223.733
N2721 X69.679 Y223.536
N2722 X69.749 Y223.334
N2723 X69.804 Y223.127
N2724 X69.843 Y222.917
N2725 X69.866 Y222.704
N2726 X69.874 Y222.49
N2727 Y127.243
N2728 X69.867 Y127.036
N2729 X69.845 Y126.83
N2730 X69.808 Y126.626
N2731 X69.757 Y126.426
N2732 X69.691 Y126.229
N2733 X69.612 Y126.038
N2734 X69.519 Y125.853
N2735 X69.414 Y125.675
N2736 X69.296 Y125.505
N2737 X69.166 Y125.343
N2738 X69.025 Y125.192
N2739 X69.003 Y125.159
N2740 X68.995 Y125.121
N2741 X69.003 Y125.083
N2742 X69.025 Y125.05
N2743 X69.057 Y125.029
N2744 X69.095 Y125.021
N2745 X69.134 Y125.029
N2746 X69.166 Y125.05
N2747 X69.318 Y125.191
N2748 X69.479 Y125.321
N2749 X69.649 Y125.439
N2750 X69.827 Y125.545
N2751 X70.012 Y125.638
N2752 X70.203 Y125.717
N2753 X70.4 Y125.782
N2754 X70.601 Y125.834
N2755 X70.804 Y125.87
N2756 X71.01 Y125.893
N2757 X71.217 Y125.9
N2758 X80.832
N2759 X81.039 Y125.893
N2760 X81.245 Y125.87
N2761 X81.448 Y125.834
N2762 X81.649 Y125.782
N2763 X81.845 Y125.717
N2764 X82.037 Y125.638
N2765 X82.222 Y125.545
N2766 X82.4 Y125.439
N2767 X82.57 Y125.321
N2768 X82.731 Y125.191
N2769 X82.883 Y125.05
N2770 X82.915 Y125.029
N2771 X82.953 Y125.021
N2772 X82.992 Y125.029
N2773 X83.024 Y125.05
N2774 X83.046 Y125.083
N2775 X83.054 Y125.121
N2776 X83.046 Y125.159
N2777 X83.024 Y125.192
N2778 X82.883 Y125.343
N2779 X82.753 Y125.505
N2780 X82.635 Y125.675
N2781 X82.529 Y125.853
N2782 X82.437 Y126.038
N2783 X82.357 Y126.229
N2784 X82.292 Y126.426
N2785 X82.241 Y126.626
N2786 X82.204 Y126.83
N2787 X82.182 Y127.036
N2788 X82.174 Y127.243
N2789 Y222.49
N2790 X82.182 Y222.704
N2791 X82.206 Y222.917
N2792 X82.245 Y223.127
N2793 X82.3 Y223.334
N2794 X82.37 Y223.536
N2795 X82.454 Y223.733
N2796 X82.553 Y223.923
N2797 X82.666 Y224.105
N2798 X82.791 Y224.278
N2799 X82.929 Y224.442
N2800 X83.079 Y224.595
N2801 X83.24 Y224.736
N2802 X83.41 Y224.865
N2803 X83.59 Y224.981
N2804 X83.778 Y225.084
N2805 X83.973 Y225.173
N2806 X84.174 Y225.247
N2807 X84.379 Y225.306
N2808 X84.589 Y225.349
N2809 X84.801 Y225.377
N2810 X85.015 Y225.389
N2811 X85.229 Y225.386
N2812 X85.442 Y225.367
N2813 X85.653 Y225.332
N2814 X85.861 Y225.281
N2815 X86.065 Y225.216
N2816 X86.263 Y225.135
N2817 X86.455 Y225.04
N2818 X86.639 Y224.931
N2819 X86.815 Y224.809
N2820 X86.982 Y224.675
N2821 X87.138 Y224.528
N2822 X87.282 Y224.37
N2823 X87.415 Y224.202
N2824 X87.535 Y224.025
N2825 X105.02 Y195.999
N2826 X105.126 Y195.814
N2827 X105.218 Y195.623
N2828 X105.296 Y195.425
N2829 X105.359 Y195.221
N2830 X105.407 Y195.014
N2831 X105.44 Y194.804
N2832 X105.457 Y194.592
N2833 X105.459 Y194.379
N2834 X105.445 Y194.166
N2835 X105.415 Y193.956
N2836 X105.37 Y193.748
N2837 X105.31 Y193.544
N2838 X105.235 Y193.344
N2839 X105.146 Y193.151
N2840 X105.043 Y192.965
N2841 X104.926 Y192.787
N2842 X104.797 Y192.618
N2843 X104.655 Y192.459
N2844 X104.503 Y192.311
N2845 X104.339 Y192.174
N2846 X104.167 Y192.05
N2847 X103.985 Y191.938
N2848 X103.796 Y191.841
N2849 X103.601 Y191.757
N2850 X103.399 Y191.688
N2851 X103.193 Y191.634
N2852 X102.984 Y191.595
N2853 X102.773 Y191.572
N2854 X102.56 Y191.564
N2855 X95.911
N2856 X117.144 Y150.687
N2857 X117.234 Y150.495
N2858 X117.311 Y150.297
N2859 X117.373 Y150.094
N2860 X117.42 Y149.887
N2861 X117.451 Y149.677
N2862 X117.468 Y149.465
N2863 Y149.253
N2864 X117.454 Y149.041
N2865 X117.423 Y148.831
N2866 X117.378 Y148.624
N2867 X117.317 Y148.421
N2868 X117.242 Y148.222
N2869 X117.152 Y148.03
N2870 X117.049 Y147.844
N2871 X116.932 Y147.667
N2872 X116.802 Y147.499
N2873 X116.661 Y147.341
N2874 X116.508 Y147.193
N2875 X116.345 Y147.057
N2876 X116.173 Y146.933
N2877 X115.992 Y146.823
N2878 X115.803 Y146.725
N2879 X115.608 Y146.642
N2880 X115.407 Y146.573
N2881 X115.202 Y146.52
N2882 X114.993 Y146.481
N2883 X114.782 Y146.458
N2884 X114.57 Y146.45
N2885 X105.095
N2886 X130.52 Y104.871
N2887 X130.624 Y104.686
N2888 X130.714 Y104.494
N2889 X130.79 Y104.296
N2890 X130.851 Y104.094
N2891 X130.897 Y103.887
N2892 X130.928 Y103.677
N2893 X130.944 Y103.466
N2894 Y103.254
N2895 X130.929 Y103.043
N2896 X130.898 Y102.833
N2897 X130.852 Y102.626
N2898 X130.791 Y102.423
N2899 X130.716 Y102.225
N2900 X130.626 Y102.033
N2901 X130.522 Y101.848
N2902 X130.405 Y101.672
N2903 X130.276 Y101.504
N2904 X130.134 Y101.346
N2905 X129.982 Y101.199
N2906 X129.819 Y101.063
N2907 X129.647 Y100.94
N2908 X129.466 Y100.829
N2909 X129.277 Y100.732
N2910 X129.082 Y100.65
N2911 X128.882 Y100.581
N2912 X128.677 Y100.527
N2913 X128.468 Y100.489
N2914 X128.258 Y100.466
N2915 X128.046 Y100.458
N2916 X117.551
N2917 X142.055 Y60.384
N2918 X142.159 Y60.199
N2919 X142.249 Y60.007
N2920 X142.325 Y59.809
N2921 X142.386 Y59.607
N2922 X142.432 Y59.4
N2923 X142.463 Y59.19
N2924 X142.479 Y58.979
N2925 Y58.767
N2926 X142.464 Y58.556
N2927 X142.433 Y58.346
N2928 X142.387 Y58.139
N2929 X142.326 Y57.936
N2930 X142.251 Y57.738
N2931 X142.161 Y57.546
N2932 X142.057 Y57.361
N2933 X141.94 Y57.185
N2934 X141.811 Y57.017
N2935 X141.669 Y56.859
N2936 X141.517 Y56.712
N2937 X141.354 Y56.576
N2938 X141.182 Y56.453
N2939 X141.001 Y56.342
N2940 X140.812 Y56.245
N2941 X140.617 Y56.163
N2942 X140.417 Y56.094
N2943 X140.212 Y56.04
N2944 X140.003 Y56.002
N2945 X139.793 Y55.979
N2946 X139.581 Y55.971
N2947 X129.576
N2948 X154.523 Y15.174
N2949 X154.627 Y14.989
N2950 X154.717 Y14.797
N2951 X154.793 Y14.599
N2952 X154.854 Y14.396
N2953 X154.9 Y14.19
N2954 X154.931 Y13.98
N2955 X154.947 Y13.769
N2956 Y13.557
N2957 X154.932 Y13.345
N2958 X154.901 Y13.136
N2959 X154.855 Y12.929
N2960 X154.794 Y12.726
N2961 X154.719 Y12.528
N2962 X154.629 Y12.336
N2963 X154.525 Y12.151
N2964 X154.408 Y11.974
N2965 X154.279 Y11.807
N2966 X154.137 Y11.649
N2967 X153.985 Y11.502
N2968 X153.822 Y11.366
N2969 X153.65 Y11.243
N2970 X153.469 Y11.132
N2971 X153.28 Y11.035
N2972 X153.085 Y10.952
N2973 X152.885 Y10.884
N2974 X152.68 Y10.83
N2975 X152.471 Y10.792
N2976 X152.261 Y10.769
N2977 X152.049 Y10.761
N2978 X110.408
N2979 Y0
N2980 X110.401 Y-0.207
N2981 X110.378 Y-0.413
N2982 X110.342 Y-0.616
N2983 X110.291 Y-0.817
N2984 X110.225 Y-1.013
N2985 X110.146 Y-1.205
N2986 X110.053 Y-1.39
N2987 X109.948 Y-1.568
N2988 X109.83 Y-1.738
N2989 X109.7 Y-1.899
N2990 X109.559 Y-2.051
N2991 X109.407 Y-2.192
N2992 X109.246 Y-2.322
N2993 X109.076 Y-2.44
N2994 X108.898 Y-2.545
N2995 X108.713 Y-2.638
N2996 X108.521 Y-2.717
N2997 X108.325 Y-2.783
N2998 X108.124 Y-2.834
N2999 X107.921 Y-2.87
N3000 X107.715 Y-2.893
N3001 X107.508 Y-2.9
N3002 X44.541
N3003 X44.334 Y-2.893
N3004 X44.128 Y-2.87
N3005 X43.925 Y-2.834
N3006 X43.724 Y-2.783
N3007 X43.528 Y-2.717
N3008 X43.336 Y-2.638
N3009 X43.151 Y-2.545
N3010 X42.973 Y-2.44
N3011 X42.803 Y-2.322
N3012 X42.642 Y-2.192
N3013 X42.49 Y-2.051
N3014 X42.349 Y-1.899
N3015 X42.22 Y-1.738
N3016 X42.101 Y-1.568
N3017 X41.996 Y-1.39
N3018 X41.903 Y-1.205
N3019 X41.824 Y-1.013
N3020 X41.759 Y-0.817
N3021 X41.707 Y-0.616
N3022 X41.671 Y-0.413
N3023 X41.648 Y-0.207
N3024 X41.641 Y0
N3025 Y10.761
N3026 X0
N3027 X-0.212 Y10.769
N3028 X-0.422 Y10.792
N3029 X-0.631 Y10.83
N3030 X-0.836 Y10.884
N3031 X-1.036 Y10.952
N3032 X-1.231 Y11.035
N3033 X-1.42 Y11.132
N3034 X-1.601 Y11.243
N3035 X-1.773 Y11.366
N3036 X-1.936 Y11.502
N3037 X-2.088 Y11.649
N3038 X-2.23 Y11.807
N3039 X-2.359 Y11.974
N3040 X-2.476 Y12.151
N3041 X-2.58 Y12.336
N3042 X-2.67 Y12.528
N3043 X-2.745 Y12.726
N3044 X-2.806 Y12.929
N3045 X-2.852 Y13.136
N3046 X-2.883 Y13.345
N3047 X-2.898 Y13.557
N3048 Y13.769
N3049 X-2.882 Y13.98
N3050 X-2.851 Y14.19
N3051 X-2.805 Y14.396
N3052 X-2.744 Y14.599
N3053 X-2.668 Y14.797
N3054 X-2.578 Y14.989
N3055 X-2.474 Y15.174
N3056 X19.772 Y51.556
N3057 X22.472 Y55.971
N3058 X12.467
N3059 X12.256 Y55.979
N3060 X12.045 Y56.002
N3061 X11.837 Y56.04
N3062 X11.632 Y56.094
N3063 X11.431 Y56.163
N3064 X11.236 Y56.245
N3065 X11.048 Y56.342
N3066 X10.867 Y56.453
N3067 X10.694 Y56.576
N3068 X10.532 Y56.712
N3069 X10.379 Y56.859
N3070 X10.238 Y57.017
N3071 X10.108 Y57.185
N3072 X9.991 Y57.361
N3073 X9.888 Y57.546
N3074 X9.798 Y57.738
N3075 X9.722 Y57.936
N3076 X9.661 Y58.139
N3077 X9.615 Y58.346
N3078 X9.585 Y58.556
N3079 X9.569 Y58.767
N3080 X9.57 Y58.979
N3081 X9.585 Y59.19
N3082 X9.616 Y59.4
N3083 X9.662 Y59.607
N3084 X9.724 Y59.809
N3085 X9.799 Y60.007
N3086 X9.89 Y60.199
N3087 X9.993 Y60.384
N3088 X28.981 Y91.437
N3089 X34.498 Y100.458 Z11.817 F2500
N3090 X24.003 Z11.635
N3091 X23.792 Y100.466 Z11.631
N3092 X23.581 Y100.489 Z11.628
N3093 X23.373 Y100.527 Z11.624
N3094 X23.167 Y100.581 Z11.62
N3095 X22.967 Y100.65 Z11.617
N3096 X22.772 Y100.732 Z11.613
N3097 X22.583 Y100.829 Z11.609
N3098 X22.403 Y100.94 Z11.606
N3099 X22.23 Y101.063 Z11.602
N3100 X22.067 Y101.199 Z11.598
N3101 X21.915 Y101.346 Z11.595
N3102 X21.774 Y101.504 Z11.591
N3103 X21.644 Y101.672 Z11.587
N3104 X21.527 Y101.848 Z11.584
N3105 X21.424 Y102.033 Z11.58
N3106 X21.334 Y102.225 Z11.576
N3107 X21.258 Y102.423 Z11.573
N3108 X21.197 Y102.626 Z11.569
N3109 X21.151 Y102.833 Z11.565
N3110 X21.121 Y103.043 Z11.562
N3111 X21.105 Y103.254 Z11.558
N3112 Y103.466 Z11.554
N3113 X21.121 Y103.677 Z11.551
N3114 X21.152 Y103.887 Z11.547
N3115 X21.198 Y104.094 Z11.543
N3116 X21.259 Y104.296 Z11.54
N3117 X21.335 Y104.494 Z11.536
N3118 X21.425 Y104.686 Z11.532
N3119 X21.529 Y104.871 Z11.529
N3120 X37.445 Y130.901 Z11
N3121 X46.953 Y146.45 F2760
N3122 X37.479
N3123 X37.267 Y146.458
N3124 X37.056 Y146.481
N3125 X36.847 Y146.52
N3126 X36.642 Y146.573
N3127 X36.441 Y146.642
N3128 X36.245 Y146.725
N3129 X36.057 Y146.823
N3130 X35.876 Y146.933
N3131 X35.703 Y147.057
N3132 X35.54 Y147.193
N3133 X35.388 Y147.341
N3134 X35.246 Y147.499
N3135 X35.117 Y147.667
N3136 X35 Y147.844
N3137 X34.897 Y148.03
N3138 X34.807 Y148.222
N3139 X34.732 Y148.421
N3140 X34.671 Y148.624
N3141 X34.625 Y148.831
N3142 X34.595 Y149.041
N3143 X34.58 Y149.253
N3144 X34.581 Y149.465
N3145 X34.597 Y149.677
N3146 X34.629 Y149.887
N3147 X34.676 Y150.094
N3148 X34.738 Y150.297
N3149 X34.814 Y150.495
N3150 X34.905 Y150.687
N3151 X56.138 Y191.564
N3152 X49.489
N3153 X49.277 Y191.572
N3154 X49.065 Y191.595
N3155 X48.856 Y191.634
N3156 X48.65 Y191.688
N3157 X48.449 Y191.757
N3158 X48.253 Y191.841
N3159 X48.064 Y191.938
N3160 X47.883 Y192.05
N3161 X47.71 Y192.174
N3162 X47.547 Y192.311
N3163 X47.394 Y192.459
N3164 X47.253 Y192.618
N3165 X47.123 Y192.787
N3166 X47.007 Y192.965
N3167 X46.903 Y193.151
N3168 X46.814 Y193.344
N3169 X46.739 Y193.544
N3170 X46.679 Y193.748
N3171 X46.634 Y193.956
N3172 X46.605 Y194.166
N3173 X46.591 Y194.379
N3174 X46.592 Y194.592
N3175 X46.609 Y194.804
N3176 X46.642 Y195.014
N3177 X46.69 Y195.221
N3178 X46.753 Y195.425
N3179 X46.831 Y195.623
N3180 X46.923 Y195.814
N3181 X47.029 Y195.999
N3182 X64.514 Y224.025
N3183 X64.634 Y224.202
N3184 X64.767 Y224.37
N3185 X64.911 Y224.528
N3186 X65.067 Y224.675
N3187 X65.234 Y224.809
N3188 X65.409 Y224.931
N3189 X65.594 Y225.04
N3190 X65.785 Y225.135
N3191 X65.984 Y225.216
N3192 X66.188 Y225.281
N3193 X66.396 Y225.332
N3194 X66.607 Y225.367
N3195 X66.82 Y225.386
N3196 X67.034 Y225.389
N3197 X67.248 Y225.377
N3198 X67.46 Y225.349
N3199 X67.669 Y225.306
N3200 X67.875 Y225.247
N3201 X68.076 Y225.173
N3202 X68.271 Y225.084
N3203 X68.459 Y224.981
N3204 X68.638 Y224.865
N3205 X68.809 Y224.736
N3206 X68.97 Y224.595
N3207 X69.119 Y224.442
N3208 X69.258 Y224.278
N3209 X69.383 Y224.105
N3210 X69.496 Y223.923
N3211 X69.595 Y223.733
N3212 X69.679 Y223.536
N3213 X69.749 Y223.334
N3214 X69.804 Y223.127
N3215 X69.843 Y222.917
N3216 X69.866 Y222.704
N3217 X69.874 Y222.49
N3218 Y127.243
N3219 X69.867 Y127.036
N3220 X69.845 Y126.83
N3221 X69.808 Y126.626
N3222 X69.757 Y126.426
N3223 X69.691 Y126.229
N3224 X69.612 Y126.038
N3225 X69.519 Y125.853
N3226 X69.414 Y125.675
N3227 X69.296 Y125.505
N3228 X69.166 Y125.343
N3229 X69.025 Y125.192
N3230 X69.003 Y125.159
N3231 X68.995 Y125.121
N3232 X69.003 Y125.083
N3233 X69.025 Y125.05
N3234 X69.057 Y125.029
N3235 X69.095 Y125.021
N3236 X69.134 Y125.029
N3237 X69.166 Y125.05
N3238 X69.318 Y125.191
N3239 X69.479 Y125.321
N3240 X69.649 Y125.439
N3241 X69.827 Y125.545
N3242 X70.012 Y125.638
N3243 X70.203 Y125.717
N3244 X70.4 Y125.782
N3245 X70.601 Y125.834
N3246 X70.804 Y125.87
N3247 X71.01 Y125.893
N3248 X71.217 Y125.9
N3249 X80.832
N3250 X81.039 Y125.893
N3251 X81.245 Y125.87
N3252 X81.448 Y125.834
N3253 X81.649 Y125.782
N3254 X81.845 Y125.717
N3255 X82.037 Y125.638
N3256 X82.222 Y125.545
N3257 X82.4 Y125.439
N3258 X82.57 Y125.321
N3259 X82.731 Y125.191
N3260 X82.883 Y125.05
N3261 X82.915 Y125.029
N3262 X82.953 Y125.021
N3263 X82.992 Y125.029
N3264 X83.024 Y125.05
N3265 X83.046 Y125.083
N3266 X83.054 Y125.121
N3267 X83.046 Y125.159
N3268 X83.024 Y125.192
N3269 X82.883 Y125.343
N3270 X82.753 Y125.505
N3271 X82.635 Y125.675
N3272 X82.529 Y125.853
N3273 X82.437 Y126.038
N3274 X82.357 Y126.229
N3275 X82.292 Y126.426
N3276 X82.241 Y126.626
N3277 X82.204 Y126.83
N3278 X82.182 Y127.036
N3279 X82.174 Y127.243
N3280 Y222.49
N3281 X82.182 Y222.704
N3282 X82.206 Y222.917
N3283 X82.245 Y223.127
N3284 X82.3 Y223.334
N3285 X82.37 Y223.536
N3286 X82.454 Y223.733
N3287 X82.553 Y223.923
N3288 X82.666 Y224.105
N3289 X82.791 Y224.278
N3290 X82.929 Y224.442
N3291 X83.079 Y224.595
N3292 X83.24 Y224.736
N3293 X83.41 Y224.865
N3294 X83.59 Y224.981
N3295 X83.778 Y225.084
N3296 X83.973 Y225.173
N3297 X84.174 Y225.247
N3298 X84.379 Y225.306
N3299 X84.589 Y225.349
N3300 X84.801 Y225.377
N3301 X85.015 Y225.389
N3302 X85.229 Y225.386
N3303 X85.442 Y225.367
N3304 X85.653 Y225.332
N3305 X85.861 Y225.281
N3306 X86.065 Y225.216
N3307 X86.263 Y225.135
N3308 X86.455 Y225.04
N3309 X86.639 Y224.931
N3310 X86.815 Y224.809
N3311 X86.982 Y224.675
N3312 X87.138 Y224.528
N3313 X87.282 Y224.37
N3314 X87.415 Y224.202
N3315 X87.535 Y224.025
N3316 X105.02 Y195.999
N3317 X105.126 Y195.814
N3318 X105.218 Y195.623
N3319 X105.296 Y195.425
N3320 X105.359 Y195.221
N3321 X105.407 Y195.014
N3322 X105.44 Y194.804
N3323 X105.457 Y194.592
N3324 X105.459 Y194.379
N3325 X105.445 Y194.166
N3326 X105.415 Y193.956
N3327 X105.37 Y193.748
N3328 X105.31 Y193.544
N3329 X105.235 Y193.344
N3330 X105.146 Y193.151
N3331 X105.043 Y192.965
N3332 X104.926 Y192.787
N3333 X104.797 Y192.618
N3334 X104.655 Y192.459
N3335 X104.503 Y192.311
N3336 X104.339 Y192.174
N3337 X104.167 Y192.05
N3338 X103.985 Y191.938
N3339 X103.796 Y191.841
N3340 X103.601 Y191.757
N3341 X103.399 Y191.688
N3342 X103.193 Y191.634
N3343 X102.984 Y191.595
N3344 X102.773 Y191.572
N3345 X102.56 Y191.564
N3346 X95.911
N3347 X117.144 Y150.687
N3348 X117.234 Y150.495
N3349 X117.311 Y150.297
N3350 X117.373 Y150.094
N3351 X117.42 Y149.887
N3352 X117.451 Y149.677
N3353 X117.468 Y149.465
N3354 Y149.253
N3355 X117.454 Y149.041
N3356 X117.423 Y148.831
N3357 X117.378 Y148.624
N3358 X117.317 Y148.421
N3359 X117.242 Y148.222
N3360 X117.152 Y148.03
N3361 X117.049 Y147.844
N3362 X116.932 Y147.667
N3363 X116.802 Y147.499
N3364 X116.661 Y147.341
N3365 X116.508 Y147.193
N3366 X116.345 Y147.057
N3367 X116.173 Y146.933
N3368 X115.992 Y146.823
N3369 X115.803 Y146.725
N3370 X115.608 Y146.642
N3371 X115.407 Y146.573
N3372 X115.202 Y146.52
N3373 X114.993 Y146.481
N3374 X114.782 Y146.458
N3375 X114.57 Y146.45
N3376 X105.095
N3377 X130.52 Y104.871
N3378 X130.624 Y104.686
N3379 X130.714 Y104.494
N3380 X130.79 Y104.296
N3381 X130.851 Y104.094
N3382 X130.897 Y103.887
N3383 X130.928 Y103.677
N3384 X130.944 Y103.466
N3385 Y103.254
N3386 X130.929 Y103.043
N3387 X130.898 Y102.833
N3388 X130.852 Y102.626
N3389 X130.791 Y102.423
N3390 X130.716 Y102.225
N3391 X130.626 Y102.033
N3392 X130.522 Y101.848
N3393 X130.405 Y101.672
N3394 X130.276 Y101.504
N3395 X130.134 Y101.346
N3396 X129.982 Y101.199
N3397 X129.819 Y101.063
N3398 X129.647 Y100.94
N3399 X129.466 Y100.829
N3400 X129.277 Y100.732
N3401 X129.082 Y100.65
N3402 X128.882 Y100.581
N3403 X128.677 Y100.527
N3404 X128.468 Y100.489
N3405 X128.258 Y100.466
N3406 X128.046 Y100.458
N3407 X117.551
N3408 X142.055 Y60.384
N3409 X142.159 Y60.199
N3410 X142.249 Y60.007
N3411 X142.325 Y59.809
N3412 X142.386 Y59.607
N3413 X142.432 Y59.4
N3414 X142.463 Y59.19
N3415 X142.479 Y58.979
N3416 Y58.767
N3417 X142.464 Y58.556
N3418 X142.433 Y58.346
N3419 X142.387 Y58.139
N3420 X142.326 Y57.936
N3421 X142.251 Y57.738
N3422 X142.161 Y57.546
N3423 X142.057 Y57.361
N3424 X141.94 Y57.185
N3425 X141.811 Y57.017
N3426 X141.669 Y56.859
N3427 X141.517 Y56.712
N3428 X141.354 Y56.576
N3429 X141.182 Y56.453
N3430 X141.001 Y56.342
N3431 X140.812 Y56.245
N3432 X140.617 Y56.163
N3433 X140.417 Y56.094
N3434 X140.212 Y56.04
N3435 X140.003 Y56.002
N3436 X139.793 Y55.979
N3437 X139.581 Y55.971
N3438 X129.576
N3439 X154.523 Y15.174
N3440 X154.627 Y14.989
N3441 X154.717 Y14.797
N3442 X154.793 Y14.599
N3443 X154.854 Y14.396
N3444 X154.9 Y14.19
N3445 X154.931 Y13.98
N3446 X154.947 Y13.769
N3447 Y13.557
N3448 X154.932 Y13.345
N3449 X154.901 Y13.136
N3450 X154.855 Y12.929
N3451 X154.794 Y12.726
N3452 X154.719 Y12.528
N3453 X154.629 Y12.336
N3454 X154.525 Y12.151
N3455 X154.408 Y11.974
N3456 X154.279 Y11.807
N3457 X154.137 Y11.649
N3458 X153.985 Y11.502
N3459 X153.822 Y11.366
N3460 X153.65 Y11.243
N3461 X153.469 Y11.132
N3462 X153.28 Y11.035
N3463 X153.085 Y10.952
N3464 X152.885 Y10.884
N3465 X152.68 Y10.83
N3466 X152.471 Y10.792
N3467 X152.261 Y10.769
N3468 X152.049 Y10.761
N3469 X110.408
N3470 Y0
N3471 X110.401 Y-0.207
N3472 X110.378 Y-0.413
N3473 X110.342 Y-0.616
N3474 X110.291 Y-0.817
N3475 X110.225 Y-1.013
N3476 X110.146 Y-1.205
N3477 X110.053 Y-1.39
N3478 X109.948 Y-1.568
N3479 X109.83 Y-1.738
N3480 X109.7 Y-1.899
N3481 X109.559 Y-2.051
N3482 X109.407 Y-2.192
N3483 X109.246 Y-2.322
N3484 X109.076 Y-2.44
N3485 X108.898 Y-2.545
N3486 X108.713 Y-2.638
N3487 X108.521 Y-2.717
N3488 X108.325 Y-2.783
N3489 X108.124 Y-2.834
N3490 X107.921 Y-2.87
N3491 X107.715 Y-2.893
N3492 X107.508 Y-2.9
N3493 X44.541
N3494 X44.334 Y-2.893
N3495 X44.128 Y-2.87
N3496 X43.925 Y-2.834
N3497 X43.724 Y-2.783
N3498 X43.528 Y-2.717
N3499 X43.336 Y-2.638
N3500 X43.151 Y-2.545
N3501 X42.973 Y-2.44
N3502 X42.803 Y-2.322
N3503 X42.642 Y-2.192
N3504 X42.49 Y-2.051
N3505 X42.349 Y-1.899
N3506 X42.22 Y-1.738
N3507 X42.101 Y-1.568
N3508 X41.996 Y-1.39
N3509 X41.903 Y-1.205
N3510 X41.824 Y-1.013
N3511 X41.759 Y-0.817
N3512 X41.707 Y-0.616
N3513 X41.671 Y-0.413
N3514 X41.648 Y-0.207
N3515 X41.641 Y0
N3516 Y10.761
N3517 X0
N3518 X-0.212 Y10.769
N3519 X-0.422 Y10.792
N3520 X-0.631 Y10.83
N3521 X-0.836 Y10.884
N3522 X-1.036 Y10.952
N3523 X-1.231 Y11.035
N3524 X-1.42 Y11.132
N3525 X-1.601 Y11.243
N3526 X-1.773 Y11.366
N3527 X-1.936 Y11.502
N3528 X-2.088 Y11.649
N3529 X-2.23 Y11.807
N3530 X-2.359 Y11.974
N3531 X-2.476 Y12.151
N3532 X-2.58 Y12.336
N3533 X-2.67 Y12.528
N3534 X-2.745 Y12.726
N3535 X-2.806 Y12.929
N3536 X-2.852 Y13.136
N3537 X-2.883 Y13.345
N3538 X-2.898 Y13.557
N3539 Y13.769
N3540 X-2.882 Y13.98
N3541 X-2.851 Y14.19
N3542 X-2.805 Y14.396
N3543 X-2.744 Y14.599
N3544 X-2.668 Y14.797
N3545 X-2.578 Y14.989
N3546 X-2.474 Y15.174
N3547 X22.472 Y55.971
N3548 X12.467
N3549 X12.256 Y55.979
N3550 X12.045 Y56.002
N3551 X11.837 Y56.04
N3552 X11.632 Y56.094
N3553 X11.431 Y56.163
N3554 X11.236 Y56.245
N3555 X11.048 Y56.342
N3556 X10.867 Y56.453
N3557 X10.694 Y56.576
N3558 X10.532 Y56.712
N3559 X10.379 Y56.859
N3560 X10.238 Y57.017
N3561 X10.108 Y57.185
N3562 X9.991 Y57.361
N3563 X9.888 Y57.546
N3564 X9.798 Y57.738
N3565 X9.722 Y57.936
N3566 X9.661 Y58.139
N3567 X9.615 Y58.346
N3568 X9.585 Y58.556
N3569 X9.569 Y58.767
N3570 X9.57 Y58.979
N3571 X9.585 Y59.19
N3572 X9.616 Y59.4
N3573 X9.662 Y59.607
N3574 X9.724 Y59.809
N3575 X9.799 Y60.007
N3576 X9.89 Y60.199
N3577 X9.993 Y60.384
N3578 X28.981 Y91.437
N3579 X34.498 Y100.458
N3580 X24.003
N3581 X23.792 Y100.466
N3582 X23.581 Y100.489
N3583 X23.373 Y100.527
N3584 X23.167 Y100.581
N3585 X22.967 Y100.65
N3586 X22.772 Y100.732
N3587 X22.583 Y100.829
N3588 X22.403 Y100.94
N3589 X22.23 Y101.063
N3590 X22.067 Y101.199
N3591 X21.915 Y101.346
N3592 X21.774 Y101.504
N3593 X21.644 Y101.672
N3594 X21.527 Y101.848
N3595 X21.424 Y102.033
N3596 X21.334 Y102.225
N3597 X21.258 Y102.423
N3598 X21.197 Y102.626
N3599 X21.151 Y102.833
N3600 X21.121 Y103.043
N3601 X21.105 Y103.254
N3602 Y103.466
N3603 X21.121 Y103.677
N3604 X21.152 Y103.887
N3605 X21.198 Y104.094
N3606 X21.259 Y104.296
N3607 X21.335 Y104.494
N3608 X21.425 Y104.686
N3609 X21.529 Y104.871
N3610 X37.445 Y130.901
N3611 X46.953 Y146.45 Z10.684 F2500
N3612 X37.479 Z10.52
N3613 X37.267 Y146.458 Z10.516
N3614 X37.056 Y146.481 Z10.513
N3615 X36.847 Y146.52 Z10.509
N3616 X36.642 Y146.573 Z10.505
N3617 X36.441 Y146.642 Z10.502
N3618 X36.245 Y146.725 Z10.498
N3619 X36.057 Y146.823 Z10.494
N3620 X35.876 Y146.933 Z10.491
N3621 X35.703 Y147.057 Z10.487
N3622 X35.54 Y147.193 Z10.483
N3623 X35.388 Y147.341 Z10.48
N3624 X35.246 Y147.499 Z10.476
N3625 X35.117 Y147.667 Z10.472
N3626 X35 Y147.844 Z10.469
N3627 X34.897 Y148.03 Z10.465
N3628 X34.807 Y148.222 Z10.461
N3629 X34.732 Y148.421 Z10.458
N3630 X34.671 Y148.624 Z10.454
N3631 X34.625 Y148.831 Z10.45
N3632 X34.595 Y149.041 Z10.447
N3633 X34.58 Y149.253 Z10.443
N3634 X34.581 Y149.465 Z10.439
N3635 X34.597 Y149.677 Z10.436
N3636 X34.629 Y149.887 Z10.432
N3637 X34.676 Y150.094 Z10.428
N3638 X34.738 Y150.297 Z10.425
N3639 X34.814 Y150.495 Z10.421
N3640 X34.905 Y150.687 Z10.417
N3641 X46.005 Y172.056 Z10
N3642 X56.138 Y191.564 F2760
N3643 X49.489
N3644 X49.277 Y191.572
N3645 X49.065 Y191.595
N3646 X48.856 Y191.634
N3647 X48.65 Y191.688
N3648 X48.449 Y191.757
N3649 X48.253 Y191.841
N3650 X48.064 Y191.938
N3651 X47.883 Y192.05
N3652 X47.71 Y192.174
N3653 X47.547 Y192.311
N3654 X47.394 Y192.459
N3655 X47.253 Y192.618
N3656 X47.123 Y192.787
N3657 X47.007 Y192.965
N3658 X46.903 Y193.151
N3659 X46.814 Y193.344
N3660 X46.739 Y193.544
N3661 X46.679 Y193.748
N3662 X46.634 Y193.956
N3663 X46.605 Y194.166
N3664 X46.591 Y194.379
N3665 X46.592 Y194.592
N3666 X46.609 Y194.804
N3667 X46.642 Y195.014
N3668 X46.69 Y195.221
N3669 X46.753 Y195.425
N3670 X46.831 Y195.623
N3671 X46.923 Y195.814
N3672 X47.029 Y195.999
N3673 X64.514 Y224.025
N3674 X64.634 Y224.202
N3675 X64.767 Y224.37
N3676 X64.911 Y224.528
N3677 X65.067 Y224.675
N3678 X65.234 Y224.809
N3679 X65.409 Y224.931
N3680 X65.594 Y225.04
N3681 X65.785 Y225.135
N3682 X65.984 Y225.216
N3683 X66.188 Y225.281
N3684 X66.396 Y225.332
N3685 X66.607 Y225.367
N3686 X66.82 Y225.386
N3687 X67.034 Y225.389
N3688 X67.248 Y225.377
N3689 X67.46 Y225.349
N3690 X67.669 Y225.306
N3691 X67.875 Y225.247
N3692 X68.076 Y225.173
N3693 X68.271 Y225.084
N3694 X68.459 Y224.981
N3695 X68.638 Y224.865
N3696 X68.809 Y224.736
N3697 X68.97 Y224.595
N3698 X69.119 Y224.442
N3699 X69.258 Y224.278
N3700 X69.383 Y224.105
N3701 X69.496 Y223.923
N3702 X69.595 Y223.733
N3703 X69.679 Y223.536
N3704 X69.749 Y223.334
N3705 X69.804 Y223.127
N3706 X69.843 Y222.917
N3707 X69.866 Y222.704
N3708 X69.874 Y222.49
N3709 Y127.243
N3710 X69.867 Y127.036
N3711 X69.845 Y126.83
N3712 X69.808 Y126.626
N3713 X69.757 Y126.426
N3714 X69.691 Y126.229
N3715 X69.612 Y126.038
N3716 X69.519 Y125.853
N3717 X69.414 Y125.675
N3718 X69.296 Y125.505
N3719 X69.166 Y125.343
N3720 X69.025 Y125.192
N3721 X69.003 Y125.159
N3722 X68.995 Y125.121
N3723 X69.003 Y125.083
N3724 X69.025 Y125.05
N3725 X69.057 Y125.029
N3726 X69.095 Y125.021
N3727 X69.134 Y125.029
N3728 X69.166 Y125.05
N3729 X69.318 Y125.191
N3730 X69.479 Y125.321
N3731 X69.649 Y125.439
N3732 X69.827 Y125.545
N3733 X70.012 Y125.638
N3734 X70.203 Y125.717
N3735 X70.4 Y125.782
N3736 X70.601 Y125.834
N3737 X70.804 Y125.87
N3738 X71.01 Y125.893
N3739 X71.217 Y125.9
N3740 X80.832
N3741 X81.039 Y125.893
N3742 X81.245 Y125.87
N3743 X81.448 Y125.834
N3744 X81.649 Y125.782
N3745 X81.845 Y125.717
N3746 X82.037 Y125.638
N3747 X82.222 Y125.545
N3748 X82.4 Y125.439
N3749 X82.57 Y125.321
N3750 X82.731 Y125.191
N3751 X82.883 Y125.05
N3752 X82.915 Y125.029
N3753 X82.953 Y125.021
N3754 X82.992 Y125.029
N3755 X83.024 Y125.05
N3756 X83.046 Y125.083
N3757 X83.054 Y125.121
N3758 X83.046 Y125.159
N3759 X83.024 Y125.192
N3760 X82.883 Y125.343
N3761 X82.753 Y125.505
N3762 X82.635 Y125.675
N3763 X82.529 Y125.853
N3764 X82.437 Y126.038
N3765 X82.357 Y126.229
N3766 X82.292 Y126.426
N3767 X82.241 Y126.626
N3768 X82.204 Y126.83
N3769 X82.182 Y127.036
N3770 X82.174 Y127.243
N3771 Y222.49
N3772 X82.182 Y222.704
N3773 X82.206 Y222.917
N3774 X82.245 Y223.127
N3775 X82.3 Y223.334
N3776 X82.37 Y223.536
N3777 X82.454 Y223.733
N3778 X82.553 Y223.923
N3779 X82.666 Y224.105
N3780 X82.791 Y224.278
N3781 X82.929 Y224.442
N3782 X83.079 Y224.595
N3783 X83.24 Y224.736
N3784 X83.41 Y224.865
N3785 X83.59 Y224.981
N3786 X83.778 Y225.084
N3787 X83.973 Y225.173
N3788 X84.174 Y225.247
N3789 X84.379 Y225.306
N3790 X84.589 Y225.349
N3791 X84.801 Y225.377
N3792 X85.015 Y225.389
N3793 X85.229 Y225.386
N3794 X85.442 Y225.367
N3795 X85.653 Y225.332
N3796 X85.861 Y225.281
N3797 X86.065 Y225.216
N3798 X86.263 Y225.135
N3799 X86.455 Y225.04
N3800 X86.639 Y224.931
N3801 X86.815 Y224.809
N3802 X86.982 Y224.675
N3803 X87.138 Y224.528
N3804 X87.282 Y224.37
N3805 X87.415 Y224.202
N3806 X87.535 Y224.025
N3807 X105.02 Y195.999
N3808 X105.126 Y195.814
N3809 X105.218 Y195.623
N3810 X105.296 Y195.425
N3811 X105.359 Y195.221
N3812 X105.407 Y195.014
N3813 X105.44 Y194.804
N3814 X105.457 Y194.592
N3815 X105.459 Y194.379
N3816 X105.445 Y194.166
N3817 X105.415 Y193.956
N3818 X105.37 Y193.748
N3819 X105.31 Y193.544
N3820 X105.235 Y193.344
N3821 X105.146 Y193.151
N3822 X105.043 Y192.965
N3823 X104.926 Y192.787
N3824 X104.797 Y192.618
N3825 X104.655 Y192.459
N3826 X104.503 Y192.311
N3827 X104.339 Y192.174
N3828 X104.167 Y192.05
N3829 X103.985 Y191.938
N3830 X103.796 Y191.841
N3831 X103.601 Y191.757
N3832 X103.399 Y191.688
N3833 X103.193 Y191.634
N3834 X102.984 Y191.595
N3835 X102.773 Y191.572
N3836 X102.56 Y191.564
N3837 X95.911
N3838 X117.144 Y150.687
N3839 X117.234 Y150.495
N3840 X117.311 Y150.297
N3841 X117.373 Y150.094
N3842 X117.42 Y149.887
N3843 X117.451 Y149.677
N3844 X117.468 Y149.465
N3845 Y149.253
N3846 X117.454 Y149.041
N3847 X117.423 Y148.831
N3848 X117.378 Y148.624
N3849 X117.317 Y148.421
N3850 X117.242 Y148.222
N3851 X117.152 Y148.03
N3852 X117.049 Y147.844
N3853 X116.932 Y147.667
N3854 X116.802 Y147.499
N3855 X116.661 Y147.341
N3856 X116.508 Y147.193
N3857 X116.345 Y147.057
N3858 X116.173 Y146.933
N3859 X115.992 Y146.823
N3860 X115.803 Y146.725
N3861 X115.608 Y146.642
N3862 X115.407 Y146.573
N3863 X115.202 Y146.52
N3864 X114.993 Y146.481
N3865 X114.782 Y146.458
N3866 X114.57 Y146.45
N3867 X105.095
N3868 X130.52 Y104.871
N3869 X130.624 Y104.686
N3870 X130.714 Y104.494
N3871 X130.79 Y104.296
N3872 X130.851 Y104.094
N3873 X130.897 Y103.887
N3874 X130.928 Y103.677
N3875 X130.944 Y103.466
N3876 Y103.254
N3877 X130.929 Y103.043
N3878 X130.898 Y102.833
N3879 X130.852 Y102.626
N3880 X130.791 Y102.423
N3881 X130.716 Y102.225
N3882 X130.626 Y102.033
N3883 X130.522 Y101.848
N3884 X130.405 Y101.672
N3885 X130.276 Y101.504
N3886 X130.134 Y101.346
N3887 X129.982 Y101.199
N3888 X129.819 Y101.063
N3889 X129.647 Y100.94
N3890 X129.466 Y100.829
N3891 X129.277 Y100.732
N3892 X129.082 Y100.65
N3893 X128.882 Y100.581
N3894 X128.677 Y100.527
N3895 X128.468 Y100.489
N3896 X128.258 Y100.466
N3897 X128.046 Y100.458
N3898 X117.551
N3899 X142.055 Y60.384
N3900 X142.159 Y60.199
N3901 X142.249 Y60.007
N3902 X142.325 Y59.809
N3903 X142.386 Y59.607
N3904 X142.432 Y59.4
N3905 X142.463 Y59.19
N3906 X142.479 Y58.979
N3907 Y58.767
N3908 X142.464 Y58.556
N3909 X142.433 Y58.346
N3910 X142.387 Y58.139
N3911 X142.326 Y57.936
N3912 X142.251 Y57.738
N3913 X142.161 Y57.546
N3914 X142.057 Y57.361
N3915 X141.94 Y57.185
N3916 X141.811 Y57.017
N3917 X141.669 Y56.859
N3918 X141.517 Y56.712
N3919 X141.354 Y56.576
N3920 X141.182 Y56.453
N3921 X141.001 Y56.342
N3922 X140.812 Y56.245
N3923 X140.617 Y56.163
N3924 X140.417 Y56.094
N3925 X140.212 Y56.04
N3926 X140.003 Y56.002
N3927 X139.793 Y55.979
N3928 X139.581 Y55.971
N3929 X129.576
N3930 X154.523 Y15.174
N3931 X154.627 Y14.989
N3932 X154.717 Y14.797
N3933 X154.793 Y14.599
N3934 X154.854 Y14.396
N3935 X154.9 Y14.19
N3936 X154.931 Y13.98
N3937 X154.947 Y13.769
N3938 Y13.557
N3939 X154.932 Y13.345
N3940 X154.901 Y13.136
N3941 X154.855 Y12.929
N3942 X154.794 Y12.726
N3943 X154.719 Y12.528
N3944 X154.629 Y12.336
N3945 X154.525 Y12.151
N3946 X154.408 Y11.974
N3947 X154.279 Y11.807
N3948 X154.137 Y11.649
N3949 X153.985 Y11.502
N3950 X153.822 Y11.366
N3951 X153.65 Y11.243
N3952 X153.469 Y11.132
N3953 X153.28 Y11.035
N3954 X153.085 Y10.952
N3955 X152.885 Y10.884
N3956 X152.68 Y10.83
N3957 X152.471 Y10.792
N3958 X152.261 Y10.769
N3959 X152.049 Y10.761
N3960 X110.408
N3961 Y0
N3962 X110.401 Y-0.207
N3963 X110.378 Y-0.413
N3964 X110.342 Y-0.616
N3965 X110.291 Y-0.817
N3966 X110.225 Y-1.013
N3967 X110.146 Y-1.205
N3968 X110.053 Y-1.39
N3969 X109.948 Y-1.568
N3970 X109.83 Y-1.738
N3971 X109.7 Y-1.899
N3972 X109.559 Y-2.051
N3973 X109.407 Y-2.192
N3974 X109.246 Y-2.322
N3975 X109.076 Y-2.44
N3976 X108.898 Y-2.545
N3977 X108.713 Y-2.638
N3978 X108.521 Y-2.717
N3979 X108.325 Y-2.783
N3980 X108.124 Y-2.834
N3981 X107.921 Y-2.87
N3982 X107.715 Y-2.893
N3983 X107.508 Y-2.9
N3984 X44.541
N3985 X44.334 Y-2.893
N3986 X44.128 Y-2.87
N3987 X43.925 Y-2.834
N3988 X43.724 Y-2.783
N3989 X43.528 Y-2.717
N3990 X43.336 Y-2.638
N3991 X43.151 Y-2.545
N3992 X42.973 Y-2.44
N3993 X42.803 Y-2.322
N3994 X42.642 Y-2.192
N3995 X42.49 Y-2.051
N3996 X42.349 Y-1.899
N3997 X42.22 Y-1.738
N3998 X42.101 Y-1.568
N3999 X41.996 Y-1.39
N4000 X41.903 Y-1.205
N4001 X41.824 Y-1.013
N4002 X41.759 Y-0.817
N4003 X41.707 Y-0.616
N4004 X41.671 Y-0.413
N4005 X41.648 Y-0.207
N4006 X41.641 Y0
N4007 Y10.761
N4008 X0
N4009 X-0.212 Y10.769
N4010 X-0.422 Y10.792
N4011 X-0.631 Y10.83
N4012 X-0.836 Y10.884
N4013 X-1.036 Y10.952
N4014 X-1.231 Y11.035
N4015 X-1.42 Y11.132
N4016 X-1.601 Y11.243
N4017 X-1.773 Y11.366
N4018 X-1.936 Y11.502
N4019 X-2.088 Y11.649
N4020 X-2.23 Y11.807
N4021 X-2.359 Y11.974
N4022 X-2.476 Y12.151
N4023 X-2.58 Y12.336
N4024 X-2.67 Y12.528
N4025 X-2.745 Y12.726
N4026 X-2.806 Y12.929
N4027 X-2.852 Y13.136
N4028 X-2.883 Y13.345
N4029 X-2.898 Y13.557
N4030 Y13.769
N4031 X-2.882 Y13.98
N4032 X-2.851 Y14.19
N4033 X-2.805 Y14.396
N4034 X-2.744 Y14.599
N4035 X-2.668 Y14.797
N4036 X-2.578 Y14.989
N4037 X-2.474 Y15.174
N4038 X22.472 Y55.971
N4039 X12.467
N4040 X12.256 Y55.979
N4041 X12.045 Y56.002
N4042 X11.837 Y56.04
N4043 X11.632 Y56.094
N4044 X11.431 Y56.163
N4045 X11.236 Y56.245
N4046 X11.048 Y56.342
N4047 X10.867 Y56.453
N4048 X10.694 Y56.576
N4049 X10.532 Y56.712
N4050 X10.379 Y56.859
N4051 X10.238 Y57.017
N4052 X10.108 Y57.185
N4053 X9.991 Y57.361
N4054 X9.888 Y57.546
N4055 X9.798 Y57.738
N4056 X9.722 Y57.936
N4057 X9.661 Y58.139
N4058 X9.615 Y58.346
N4059 X9.585 Y58.556
N4060 X9.569 Y58.767
N4061 X9.57 Y58.979
N4062 X9.585 Y59.19
N4063 X9.616 Y59.4
N4064 X9.662 Y59.607
N4065 X9.724 Y59.809
N4066 X9.799 Y60.007
N4067 X9.89 Y60.199
N4068 X9.993 Y60.384
N4069 X34.498 Y100.458
N4070 X24.003
N4071 X23.792 Y100.466
N4072 X23.581 Y100.489
N4073 X23.373 Y100.527
N4074 X23.167 Y100.581
N4075 X22.967 Y100.65
N4076 X22.772 Y100.732
N4077 X22.583 Y100.829
N4078 X22.403 Y100.94
N4079 X22.23 Y101.063
N4080 X22.067 Y101.199
N4081 X21.915 Y101.346
N4082 X21.774 Y101.504
N4083 X21.644 Y101.672
N4084 X21.527 Y101.848
N4085 X21.424 Y102.033
N4086 X21.334 Y102.225
N4087 X21.258 Y102.423
N4088 X21.197 Y102.626
N4089 X21.151 Y102.833
N4090 X21.121 Y103.043
N4091 X21.105 Y103.254
N4092 Y103.466
N4093 X21.121 Y103.677
N4094 X21.152 Y103.887
N4095 X21.198 Y104.094
N4096 X21.259 Y104.296
N4097 X21.335 Y104.494
N4098 X21.425 Y104.686
N4099 X21.529 Y104.871
N4100 X37.445 Y130.901
N4101 X46.953 Y146.45
N4102 X37.479
N4103 X37.267 Y146.458
N4104 X37.056 Y146.481
N4105 X36.847 Y146.52
N4106 X36.642 Y146.573
N4107 X36.441 Y146.642
N4108 X36.245 Y146.725
N4109 X36.057 Y146.823
N4110 X35.876 Y146.933
N4111 X35.703 Y147.057
N4112 X35.54 Y147.193
N4113 X35.388 Y147.341
N4114 X35.246 Y147.499
N4115 X35.117 Y147.667
N4116 X35 Y147.844
N4117 X34.897 Y148.03
N4118 X34.807 Y148.222
N4119 X34.732 Y148.421
N4120 X34.671 Y148.624
N4121 X34.625 Y148.831
N4122 X34.595 Y149.041
N4123 X34.58 Y149.253
N4124 X34.581 Y149.465
N4125 X34.597 Y149.677
N4126 X34.629 Y149.887
N4127 X34.676 Y150.094
N4128 X34.738 Y150.297
N4129 X34.814 Y150.495
N4130 X34.905 Y150.687
N4131 X46.005 Y172.056
N4132 X56.138 Y191.564 Z9.619 F2500
N4133 X49.489 Z9.504
N4134 X49.277 Y191.572 Z9.5
N4135 X49.065 Y191.595 Z9.497
N4136 X48.856 Y191.634 Z9.493
N4137 X48.65 Y191.688 Z9.489
N4138 X48.449 Y191.757 Z9.486
N4139 X48.253 Y191.841 Z9.482
N4140 X48.064 Y191.938 Z9.478
N4141 X47.883 Y192.05 Z9.475
N4142 X47.71 Y192.174 Z9.471
N4143 X47.547 Y192.311 Z9.467
N4144 X47.394 Y192.459 Z9.463
N4145 X47.253 Y192.618 Z9.46
N4146 X47.123 Y192.787 Z9.456
N4147 X47.007 Y192.965 Z9.452
N4148 X46.903 Y193.151 Z9.449
N4149 X46.814 Y193.344 Z9.445
N4150 X46.739 Y193.544 Z9.441
N4151 X46.679 Y193.748 Z9.438
N4152 X46.634 Y193.956 Z9.434
N4153 X46.605 Y194.166 Z9.43
N4154 X46.591 Y194.379 Z9.427
N4155 X46.592 Y194.592 Z9.423
N4156 X46.609 Y194.804 Z9.419
N4157 X46.642 Y195.014 Z9.416
N4158 X46.69 Y195.221 Z9.412
N4159 X46.753 Y195.425 Z9.408
N4160 X46.831 Y195.623 Z9.404
N4161 X46.923 Y195.814 Z9.401
N4162 X47.029 Y195.999 Z9.397
N4163 X59.161 Y215.446 Z9
N4164 X64.514 Y224.025 F2760
N4165 X64.634 Y224.202
N4166 X64.767 Y224.37
N4167 X64.911 Y224.528
N4168 X65.067 Y224.675
N4169 X65.234 Y224.809
N4170 X65.409 Y224.931
N4171 X65.594 Y225.04
N4172 X65.785 Y225.135
N4173 X65.984 Y225.216
N4174 X66.188 Y225.281
N4175 X66.396 Y225.332
N4176 X66.607 Y225.367
N4177 X66.82 Y225.386
N4178 X67.034 Y225.389
N4179 X67.248 Y225.377
N4180 X67.46 Y225.349
N4181 X67.669 Y225.306
N4182 X67.875 Y225.247
N4183 X68.076 Y225.173
N4184 X68.271 Y225.084
N4185 X68.459 Y224.981
N4186 X68.638 Y224.865
N4187 X68.809 Y224.736
N4188 X68.97 Y224.595
N4189 X69.119 Y224.442
N4190 X69.258 Y224.278
N4191 X69.383 Y224.105
N4192 X69.496 Y223.923
N4193 X69.595 Y223.733
N4194 X69.679 Y223.536
N4195 X69.749 Y223.334
N4196 X69.804 Y223.127
N4197 X69.843 Y222.917
N4198 X69.866 Y222.704
N4199 X69.874 Y222.49
N4200 Y127.243
N4201 X69.867 Y127.036
N4202 X69.845 Y126.83
N4203 X69.808 Y126.626
N4204 X69.757 Y126.426
N4205 X69.691 Y126.229
N4206 X69.612 Y126.038
N4207 X69.519 Y125.853
N4208 X69.414 Y125.675
N4209 X69.296 Y125.505
N4210 X69.166 Y125.343
N4211 X69.025 Y125.192
N4212 X69.003 Y125.159
N4213 X68.995 Y125.121
N4214 X69.003 Y125.083
N4215 X69.025 Y125.05
N4216 X69.057 Y125.029
N4217 X69.095 Y125.021
N4218 X69.134 Y125.029
N4219 X69.166 Y125.05
N4220 X69.318 Y125.191
N4221 X69.479 Y125.321
N4222 X69.649 Y125.439
N4223 X69.827 Y125.545
N4224 X70.012 Y125.638
N4225 X70.203 Y125.717
N4226 X70.4 Y125.782
N4227 X70.601 Y125.834
N4228 X70.804 Y125.87
N4229 X71.01 Y125.893
N4230 X71.217 Y125.9
N4231 X80.832
N4232 X81.039 Y125.893
N4233 X81.245 Y125.87
N4234 X81.448 Y125.834
N4235 X81.649 Y125.782
N4236 X81.845 Y125.717
N4237 X82.037 Y125.638
N4238 X82.222 Y125.545
N4239 X82.4 Y125.439
N4240 X82.57 Y125.321
N4241 X82.731 Y125.191
N4242 X82.883 Y125.05
N4243 X82.915 Y125.029
N4244 X82.953 Y125.021
N4245 X82.992 Y125.029
N4246 X83.024 Y125.05
N4247 X83.046 Y125.083
N4248 X83.054 Y125.121
N4249 X83.046 Y125.159
N4250 X83.024 Y125.192
N4251 X82.883 Y125.343
