%
(40-A)
(T2  D=6 CR=0 - ZMIN=0.2 - flat end mill)
N1 G90
N2 G21

(2D Contour5)
N3 T2
N4 S20000 M3
N5 G0 X234.221 Y44.788
N6 Z33
N7 Z23
N8 G1 Z22 F1000
N9 Z20.5
N10 X247.236 Y23.503 Z15.197 F2500
N11 X247.328 Y23.342 Z15.158
N12 X247.409 Y23.176 Z15.118
N13 X247.479 Y23.004 Z15.079
N14 X247.538 Y22.829 Z15.039
N15 X247.586 Y22.65 Z15
N16 X247.626 Y22.445 F2760
N17 X247.651 Y22.238
N18 X247.662 Y22.029
N19 X247.657 Y21.82
N20 X247.637 Y21.612
N21 X247.603 Y21.407
N22 X247.553 Y21.204
N23 X247.489 Y21.005
N24 X247.411 Y20.811
N25 X247.32 Y20.624
N26 X247.215 Y20.443
N27 X247.097 Y20.271
N28 X246.967 Y20.107
N29 X246.826 Y19.954
N30 X246.674 Y19.81
N31 X246.512 Y19.678
N32 X246.342 Y19.558
N33 X246.163 Y19.451
N34 X245.976 Y19.357
N35 X245.784 Y19.276
N36 X245.586 Y19.21
N37 X245.384 Y19.158
N38 X245.178 Y19.121
N39 X244.971 Y19.098
N40 X244.762 Y19.09
N41 X175.961
N42 Y0
N43 X175.954 Y-0.207
N44 X175.931 Y-0.413
N45 X175.895 Y-0.616
N46 X175.844 Y-0.817
N47 X175.778 Y-1.013
N48 X175.699 Y-1.205
N49 X175.606 Y-1.39
N50 X175.501 Y-1.568
N51 X175.383 Y-1.738
N52 X175.253 Y-1.899
N53 X175.112 Y-2.051
N54 X174.96 Y-2.192
N55 X174.799 Y-2.322
N56 X174.629 Y-2.44
N57 X174.451 Y-2.545
N58 X174.266 Y-2.638
N59 X174.074 Y-2.717
N60 X173.878 Y-2.783
N61 X173.677 Y-2.834
N62 X173.474 Y-2.87
N63 X173.268 Y-2.893
N64 X173.061 Y-2.9
N65 X71.7
N66 X71.493 Y-2.893
N67 X71.288 Y-2.87
N68 X71.084 Y-2.834
N69 X70.883 Y-2.783
N70 X70.687 Y-2.717
N71 X70.496 Y-2.638
N72 X70.31 Y-2.545
N73 X70.132 Y-2.44
N74 X69.962 Y-2.322
N75 X69.801 Y-2.192
N76 X69.65 Y-2.051
N77 X69.509 Y-1.899
N78 X69.379 Y-1.738
N79 X69.261 Y-1.568
N80 X69.155 Y-1.39
N81 X69.062 Y-1.205
N82 X68.983 Y-1.013
N83 X68.918 Y-0.817
N84 X68.867 Y-0.616
N85 X68.83 Y-0.413
N86 X68.808 Y-0.207
N87 X68.8 Y0
N88 Y19.09
N89 X0
N90 X-0.212 Y19.098
N91 X-0.422 Y19.121
N92 X-0.631 Y19.16
N93 X-0.836 Y19.214
N94 X-1.036 Y19.282
N95 X-1.231 Y19.365
N96 X-1.42 Y19.462
N97 X-1.601 Y19.572
N98 X-1.773 Y19.696
N99 X-1.936 Y19.831
N100 X-2.088 Y19.978
N101 X-2.23 Y20.136
N102 X-2.359 Y20.304
N103 X-2.476 Y20.481
N104 X-2.58 Y20.666
N105 X-2.67 Y20.858
N106 X-2.745 Y21.056
N107 X-2.806 Y21.258
N108 X-2.852 Y21.465
N109 X-2.883 Y21.675
N110 X-2.898 Y21.886
N111 Y22.098
N112 X-2.882 Y22.31
N113 X-2.851 Y22.519
N114 X-2.805 Y22.726
N115 X-2.744 Y22.929
N116 X-2.668 Y23.127
N117 X-2.578 Y23.319
N118 X-2.474 Y23.503
N119 X39.328 Y91.868
N120 X20.07
N121 X19.858 Y91.876
N122 X19.647 Y91.899
N123 X19.439 Y91.937
N124 X19.234 Y91.991
N125 X19.033 Y92.059
N126 X18.838 Y92.142
N127 X18.65 Y92.239
N128 X18.469 Y92.35
N129 X18.297 Y92.473
N130 X18.134 Y92.609
N131 X17.981 Y92.756
N132 X17.84 Y92.914
N133 X17.71 Y93.081
N134 X17.594 Y93.258
N135 X17.49 Y93.443
N136 X17.4 Y93.635
N137 X17.324 Y93.833
N138 X17.264 Y94.036
N139 X17.218 Y94.243
N140 X17.187 Y94.452
N141 X17.171 Y94.664
N142 X17.172 Y94.876
N143 X17.187 Y95.087
N144 X17.218 Y95.297
N145 X17.264 Y95.503
N146 X17.326 Y95.706
N147 X17.401 Y95.904
N148 X17.492 Y96.096
N149 X17.595 Y96.281
N150 X58.687 Y163.482
N151 X38.639
N152 X38.428 Y163.49
N153 X38.217 Y163.513
N154 X38.009 Y163.551
N155 X37.804 Y163.605
N156 X37.603 Y163.674
N157 X37.408 Y163.756
N158 X37.22 Y163.853
N159 X37.039 Y163.964
N160 X36.866 Y164.087
N161 X36.704 Y164.223
N162 X36.551 Y164.37
N163 X36.41 Y164.528
N164 X36.28 Y164.696
N165 X36.163 Y164.872
N166 X36.06 Y165.057
N167 X35.97 Y165.249
N168 X35.894 Y165.447
N169 X35.833 Y165.65
N170 X35.787 Y165.857
N171 X35.757 Y166.067
N172 X35.741 Y166.278
N173 X35.742 Y166.49
N174 X35.757 Y166.701
N175 X35.788 Y166.911
N176 X35.834 Y167.118
N177 X35.896 Y167.32
N178 X35.971 Y167.518
N179 X36.062 Y167.71
N180 X36.165 Y167.895
N181 X78.737 Y237.518
N182 X60.332
N183 X60.119 Y237.526
N184 X59.909 Y237.549
N185 X59.7 Y237.588
N186 X59.494 Y237.641
N187 X59.294 Y237.71
N188 X59.098 Y237.793
N189 X58.91 Y237.891
N190 X58.729 Y238.001
N191 X58.556 Y238.125
N192 X58.393 Y238.261
N193 X58.241 Y238.409
N194 X58.099 Y238.567
N195 X57.97 Y238.735
N196 X57.853 Y238.912
N197 X57.75 Y239.098
N198 X57.66 Y239.29
N199 X57.585 Y239.489
N200 X57.524 Y239.692
N201 X57.478 Y239.899
N202 X57.448 Y240.109
N203 X57.433 Y240.321
N204 X57.434 Y240.533
N205 X57.45 Y240.745
N206 X57.482 Y240.955
N207 X57.529 Y241.162
N208 X57.591 Y241.365
N209 X57.667 Y241.563
N210 X57.758 Y241.755
N211 X93.279 Y310.139
N212 X79.666
N213 X79.453 Y310.147
N214 X79.242 Y310.17
N215 X79.032 Y310.209
N216 X78.827 Y310.263
N217 X78.625 Y310.332
N218 X78.43 Y310.416
N219 X78.24 Y310.513
N220 X78.059 Y310.625
N221 X77.886 Y310.749
N222 X77.723 Y310.886
N223 X77.571 Y311.034
N224 X77.429 Y311.193
N225 X77.3 Y311.362
N226 X77.183 Y311.54
N227 X77.08 Y311.726
N228 X76.991 Y311.919
N229 X76.916 Y312.118
N230 X76.856 Y312.323
N231 X76.811 Y312.531
N232 X76.781 Y312.741
N233 X76.767 Y312.954
N234 X76.769 Y313.167
N235 X76.786 Y313.379
N236 X76.818 Y313.589
N237 X76.866 Y313.796
N238 X76.929 Y314
N239 X77.007 Y314.198
N240 X77.099 Y314.389
N241 X77.205 Y314.574
N242 X110.871 Y368.535
N243 X110.99 Y368.712
N244 X111.123 Y368.88
N245 X111.268 Y369.038
N246 X111.424 Y369.185
N247 X111.59 Y369.319
N248 X111.766 Y369.441
N249 X111.95 Y369.55
N250 X112.142 Y369.645
N251 X112.34 Y369.726
N252 X112.544 Y369.791
N253 X112.752 Y369.842
N254 X112.963 Y369.877
N255 X113.176 Y369.896
N256 X113.39 Y369.899
N257 X113.604 Y369.887
N258 X113.816 Y369.859
N259 X114.026 Y369.816
N260 X114.232 Y369.757
N261 X114.433 Y369.683
N262 X114.627 Y369.594
N263 X114.815 Y369.491
N264 X114.995 Y369.375
N265 X115.166 Y369.246
N266 X115.326 Y369.105
N267 X115.476 Y368.952
N268 X115.614 Y368.788
N269 X115.74 Y368.615
N270 X115.852 Y368.433
N271 X115.951 Y368.243
N272 X116.036 Y368.046
N273 X116.105 Y367.844
N274 X116.16 Y367.637
N275 X116.199 Y367.427
N276 X116.223 Y367.214
N277 X116.231 Y367
N278 Y202.613
N279 X116.224 Y202.41
N280 X116.203 Y202.208
N281 X116.167 Y202.008
N282 X116.118 Y201.811
N283 X116.055 Y201.618
N284 X115.979 Y201.43
N285 X115.89 Y201.248
N286 X115.788 Y201.072
N287 X115.674 Y200.904
N288 X115.549 Y200.745
N289 X115.413 Y200.594
N290 X115.266 Y200.453
N291 X115.111 Y200.323
N292 X114.946 Y200.204
N293 X114.92 Y200.179
N294 X114.905 Y200.145
N295 X114.903 Y200.108
N296 X114.914 Y200.073
N297 X114.938 Y200.045
N298 X114.97 Y200.027
N299 X115.006 Y200.021
N300 X115.042 Y200.03
N301 X115.072 Y200.051
N302 X115.224 Y200.192
N303 X115.385 Y200.322
N304 X115.555 Y200.44
N305 X115.733 Y200.545
N306 X115.918 Y200.638
N307 X116.11 Y200.717
N308 X116.306 Y200.783
N309 X116.507 Y200.834
N310 X116.71 Y200.87
N311 X116.916 Y200.893
N312 X117.123 Y200.9
N313 X127.188
N314 X127.395 Y200.893
N315 X127.601 Y200.87
N316 X127.804 Y200.834
N317 X128.005 Y200.783
N318 X128.201 Y200.717
N319 X128.392 Y200.638
N320 X128.577 Y200.545
N321 X128.755 Y200.44
N322 X128.925 Y200.322
N323 X129.087 Y200.192
N324 X129.238 Y200.051
N325 X129.271 Y200.029
N326 X129.309 Y200.022
N327 X129.347 Y200.029
N328 X129.38 Y200.051
N329 X129.402 Y200.084
N330 X129.409 Y200.122
N331 X129.402 Y200.16
N332 X129.38 Y200.193
N333 X129.239 Y200.344
N334 X129.109 Y200.506
N335 X128.991 Y200.676
N336 X128.886 Y200.854
N337 X128.793 Y201.039
N338 X128.714 Y201.23
N339 X128.648 Y201.426
N340 X128.597 Y201.627
N341 X128.561 Y201.83
N342 X128.538 Y202.036
N343 X128.531 Y202.243
N344 Y367
N345 X128.539 Y367.214
N346 X128.563 Y367.427
N347 X128.602 Y367.637
N348 X128.657 Y367.844
N349 X128.726 Y368.046
N350 X128.811 Y368.243
N351 X128.91 Y368.433
N352 X129.022 Y368.615
N353 X129.148 Y368.788
N354 X129.286 Y368.952
N355 X129.436 Y369.105
N356 X129.596 Y369.246
N357 X129.767 Y369.375
N358 X129.947 Y369.491
N359 X130.135 Y369.594
N360 X130.329 Y369.683
N361 X130.53 Y369.757
N362 X130.736 Y369.816
N363 X130.946 Y369.859
N364 X131.158 Y369.887
N365 X131.372 Y369.899
N366 X131.586 Y369.896
N367 X131.799 Y369.877
N368 X132.01 Y369.842
N369 X132.218 Y369.791
N370 X132.422 Y369.726
N371 X132.62 Y369.645
N372 X132.812 Y369.55
N373 X132.996 Y369.441
N374 X133.172 Y369.319
N375 X133.338 Y369.185
N376 X133.494 Y369.038
N377 X133.639 Y368.88
N378 X133.772 Y368.712
N379 X133.891 Y368.535
N380 X167.556 Y314.574
N381 X167.662 Y314.389
N382 X167.755 Y314.198
N383 X167.832 Y314
N384 X167.895 Y313.796
N385 X167.943 Y313.589
N386 X167.976 Y313.379
N387 X167.993 Y313.167
N388 X167.995 Y312.954
N389 X167.981 Y312.741
N390 X167.951 Y312.531
N391 X167.906 Y312.323
N392 X167.846 Y312.118
N393 X167.771 Y311.919
N394 X167.682 Y311.726
N395 X167.579 Y311.54
N396 X167.462 Y311.362
N397 X167.333 Y311.193
N398 X167.191 Y311.034
N399 X167.039 Y310.886
N400 X166.875 Y310.749
N401 X166.703 Y310.625
N402 X166.521 Y310.513
N403 X166.332 Y310.416
N404 X166.137 Y310.332
N405 X165.935 Y310.263
N406 X165.729 Y310.209
N407 X165.52 Y310.17
N408 X165.309 Y310.147
N409 X165.096 Y310.139
N410 X151.482
N411 X187.004 Y241.755
N412 X187.094 Y241.563
N413 X187.171 Y241.365
N414 X187.233 Y241.162
N415 X187.28 Y240.955
N416 X187.311 Y240.745
N417 X187.328 Y240.533
N418 Y240.321
N419 X187.314 Y240.109
N420 X187.283 Y239.899
N421 X187.238 Y239.692
N422 X187.177 Y239.489
N423 X187.102 Y239.29
N424 X187.012 Y239.098
N425 X186.909 Y238.912
N426 X186.792 Y238.735
N427 X186.662 Y238.567
N428 X186.521 Y238.409
N429 X186.368 Y238.261
N430 X186.205 Y238.125
N431 X186.033 Y238.001
N432 X185.852 Y237.891
N433 X185.663 Y237.793
N434 X185.468 Y237.71
N435 X185.267 Y237.641
N436 X185.062 Y237.588
N437 X184.853 Y237.549
N438 X184.642 Y237.526
N439 X184.43 Y237.518
N440 X166.024
N441 X208.596 Y167.895
N442 X208.7 Y167.71
N443 X208.79 Y167.518
N444 X208.866 Y167.32
N445 X208.927 Y167.118
N446 X208.973 Y166.911
N447 X209.004 Y166.701
N448 X209.02 Y166.49
N449 Y166.278
N450 X209.005 Y166.067
N451 X208.974 Y165.857
N452 X208.928 Y165.65
N453 X208.867 Y165.447
N454 X208.792 Y165.249
N455 X208.702 Y165.057
N456 X208.598 Y164.872
N457 X208.481 Y164.696
N458 X208.352 Y164.528
N459 X208.21 Y164.37
N460 X208.058 Y164.223
N461 X207.895 Y164.087
N462 X207.723 Y163.964
N463 X207.542 Y163.853
N464 X207.353 Y163.756
N465 X207.158 Y163.674
N466 X206.958 Y163.605
N467 X206.753 Y163.551
N468 X206.544 Y163.513
N469 X206.334 Y163.49
N470 X206.122 Y163.482
N471 X186.075
N472 X227.166 Y96.281
N473 X227.27 Y96.096
N474 X227.36 Y95.904
N475 X227.436 Y95.706
N476 X227.497 Y95.503
N477 X227.543 Y95.297
N478 X227.574 Y95.087
N479 X227.59 Y94.876
N480 Y94.664
N481 X227.575 Y94.452
N482 X227.544 Y94.243
N483 X227.498 Y94.036
N484 X227.437 Y93.833
N485 X227.362 Y93.635
N486 X227.272 Y93.443
N487 X227.168 Y93.258
N488 X227.051 Y93.081
N489 X226.922 Y92.914
N490 X226.78 Y92.756
N491 X226.628 Y92.609
N492 X226.465 Y92.473
N493 X226.293 Y92.35
N494 X226.112 Y92.239
N495 X225.923 Y92.142
N496 X225.728 Y92.059
N497 X225.528 Y91.991
N498 X225.323 Y91.937
N499 X225.114 Y91.899
N500 X224.904 Y91.876
N501 X224.692 Y91.868
N502 X205.433
N503 X247.236 Y23.503
N504 X247.328 Y23.342
N505 X247.409 Y23.176
N506 X247.479 Y23.004
N507 X247.538 Y22.829
N508 X247.586 Y22.65
N509 X247.626 Y22.445 Z14.998 F2500
N510 X247.651 Y22.238 Z14.996
N511 X247.662 Y22.029 Z14.993
N512 X247.657 Y21.82 Z14.991
N513 X247.637 Y21.612 Z14.989
N514 X247.603 Y21.407 Z14.987
N515 X247.553 Y21.204 Z14.985
N516 X247.489 Y21.005 Z14.982
N517 X247.411 Y20.811 Z14.98
N518 X247.32 Y20.624 Z14.978
N519 X247.215 Y20.443 Z14.976
N520 X247.097 Y20.271 Z14.974
N521 X246.967 Y20.107 Z14.971
N522 X246.826 Y19.954 Z14.969
N523 X246.674 Y19.81 Z14.967
N524 X246.512 Y19.678 Z14.965
N525 X246.342 Y19.558 Z14.963
N526 X246.163 Y19.451 Z14.96
N527 X245.976 Y19.357 Z14.958
N528 X245.784 Y19.276 Z14.956
N529 X245.586 Y19.21 Z14.954
N530 X245.384 Y19.158 Z14.952
N531 X245.178 Y19.121 Z14.95
N532 X244.971 Y19.098 Z14.947
N533 X244.762 Y19.09 Z14.945
N534 X175.961 Z14.222
N535 Y0 Z14.021
N536 X175.954 Y-0.207 Z14.019
N537 X175.931 Y-0.413 Z14.017
N538 X175.895 Y-0.616 Z14.014
N539 X175.844 Y-0.817 Z14.012
N540 X175.778 Y-1.013 Z14.01
N541 X175.699 Y-1.205 Z14.008
N542 X175.606 Y-1.39 Z14.006
N543 X175.501 Y-1.568 Z14.004
N544 X175.383 Y-1.738 Z14.001
N545 X175.253 Y-1.899 Z13.999
N546 X175.112 Y-2.051 Z13.997
N547 X174.96 Y-2.192 Z13.995
N548 X174.799 Y-2.322 Z13.993
N549 X174.629 Y-2.44 Z13.991
N550 X174.451 Y-2.545 Z13.988
N551 X174.266 Y-2.638 Z13.986
N552 X174.074 Y-2.717 Z13.984
N553 X173.878 Y-2.783 Z13.982
N554 X173.677 Y-2.834 Z13.98
N555 X173.474 Y-2.87 Z13.977
N556 X173.268 Y-2.893 Z13.975
N557 X173.061 Y-2.9 Z13.973
N558 X71.7 Z12.907
N559 X71.493 Y-2.893 Z12.905
N560 X71.288 Y-2.87 Z12.903
N561 X71.084 Y-2.834 Z12.901
N562 X70.883 Y-2.783 Z12.899
N563 X70.687 Y-2.717 Z12.897
N564 X70.496 Y-2.638 Z12.894
N565 X70.31 Y-2.545 Z12.892
N566 X70.132 Y-2.44 Z12.89
N567 X69.962 Y-2.322 Z12.888
N568 X69.801 Y-2.192 Z12.886
N569 X69.65 Y-2.051 Z12.883
N570 X69.509 Y-1.899 Z12.881
N571 X69.379 Y-1.738 Z12.879
N572 X69.261 Y-1.568 Z12.877
N573 X69.155 Y-1.39 Z12.875
N574 X69.062 Y-1.205 Z12.873
N575 X68.983 Y-1.013 Z12.87
N576 X68.918 Y-0.817 Z12.868
N577 X68.867 Y-0.616 Z12.866
N578 X68.83 Y-0.413 Z12.864
N579 X68.808 Y-0.207 Z12.862
N580 X68.8 Y0 Z12.86
N581 Y19.09 Z12.659
N582 X6.143 Z12
N583 X0 F2760
N584 X-0.212 Y19.098
N585 X-0.422 Y19.121
N586 X-0.631 Y19.16
N587 X-0.836 Y19.214
N588 X-1.036 Y19.282
N589 X-1.231 Y19.365
N590 X-1.42 Y19.462
N591 X-1.601 Y19.572
N592 X-1.773 Y19.696
N593 X-1.936 Y19.831
N594 X-2.088 Y19.978
N595 X-2.23 Y20.136
N596 X-2.359 Y20.304
N597 X-2.476 Y20.481
N598 X-2.58 Y20.666
N599 X-2.67 Y20.858
N600 X-2.745 Y21.056
N601 X-2.806 Y21.258
N602 X-2.852 Y21.465
N603 X-2.883 Y21.675
N604 X-2.898 Y21.886
N605 Y22.098
N606 X-2.882 Y22.31
N607 X-2.851 Y22.519
N608 X-2.805 Y22.726
N609 X-2.744 Y22.929
N610 X-2.668 Y23.127
N611 X-2.578 Y23.319
N612 X-2.474 Y23.503
N613 X39.328 Y91.868
N614 X20.07
N615 X19.858 Y91.876
N616 X19.647 Y91.899
N617 X19.439 Y91.937
N618 X19.234 Y91.991
N619 X19.033 Y92.059
N620 X18.838 Y92.142
N621 X18.65 Y92.239
N622 X18.469 Y92.35
N623 X18.297 Y92.473
N624 X18.134 Y92.609
N625 X17.981 Y92.756
N626 X17.84 Y92.914
N627 X17.71 Y93.081
N628 X17.594 Y93.258
N629 X17.49 Y93.443
N630 X17.4 Y93.635
N631 X17.324 Y93.833
N632 X17.264 Y94.036
N633 X17.218 Y94.243
N634 X17.187 Y94.452
N635 X17.171 Y94.664
N636 X17.172 Y94.876
N637 X17.187 Y95.087
N638 X17.218 Y95.297
N639 X17.264 Y95.503
N640 X17.326 Y95.706
N641 X17.401 Y95.904
N642 X17.492 Y96.096
N643 X17.595 Y96.281
N644 X58.687 Y163.482
N645 X38.639
N646 X38.428 Y163.49
N647 X38.217 Y163.513
N648 X38.009 Y163.551
N649 X37.804 Y163.605
N650 X37.603 Y163.674
N651 X37.408 Y163.756
N652 X37.22 Y163.853
N653 X37.039 Y163.964
N654 X36.866 Y164.087
N655 X36.704 Y164.223
N656 X36.551 Y164.37
N657 X36.41 Y164.528
N658 X36.28 Y164.696
N659 X36.163 Y164.872
N660 X36.06 Y165.057
N661 X35.97 Y165.249
N662 X35.894 Y165.447
N663 X35.833 Y165.65
N664 X35.787 Y165.857
N665 X35.757 Y166.067
N666 X35.741 Y166.278
N667 X35.742 Y166.49
N668 X35.757 Y166.701
N669 X35.788 Y166.911
N670 X35.834 Y167.118
N671 X35.896 Y167.32
N672 X35.971 Y167.518
N673 X36.062 Y167.71
N674 X36.165 Y167.895
N675 X78.737 Y237.518
N676 X60.332
N677 X60.119 Y237.526
N678 X59.909 Y237.549
N679 X59.7 Y237.588
N680 X59.494 Y237.641
N681 X59.294 Y237.71
N682 X59.098 Y237.793
N683 X58.91 Y237.891
N684 X58.729 Y238.001
N685 X58.556 Y238.125
N686 X58.393 Y238.261
N687 X58.241 Y238.409
N688 X58.099 Y238.567
N689 X57.97 Y238.735
N690 X57.853 Y238.912
N691 X57.75 Y239.098
N692 X57.66 Y239.29
N693 X57.585 Y239.489
N694 X57.524 Y239.692
N695 X57.478 Y239.899
N696 X57.448 Y240.109
N697 X57.433 Y240.321
N698 X57.434 Y240.533
N699 X57.45 Y240.745
N700 X57.482 Y240.955
N701 X57.529 Y241.162
N702 X57.591 Y241.365
N703 X57.667 Y241.563
N704 X57.758 Y241.755
N705 X93.279 Y310.139
N706 X79.666
N707 X79.453 Y310.147
N708 X79.242 Y310.17
N709 X79.032 Y310.209
N710 X78.827 Y310.263
N711 X78.625 Y310.332
N712 X78.43 Y310.416
N713 X78.24 Y310.513
N714 X78.059 Y310.625
N715 X77.886 Y310.749
N716 X77.723 Y310.886
N717 X77.571 Y311.034
N718 X77.429 Y311.193
N719 X77.3 Y311.362
N720 X77.183 Y311.54
N721 X77.08 Y311.726
N722 X76.991 Y311.919
N723 X76.916 Y312.118
N724 X76.856 Y312.323
N725 X76.811 Y312.531
N726 X76.781 Y312.741
N727 X76.767 Y312.954
N728 X76.769 Y313.167
N729 X76.786 Y313.379
N730 X76.818 Y313.589
N731 X76.866 Y313.796
N732 X76.929 Y314
N733 X77.007 Y314.198
N734 X77.099 Y314.389
N735 X77.205 Y314.574
N736 X110.871 Y368.535
N737 X110.99 Y368.712
N738 X111.123 Y368.88
N739 X111.268 Y369.038
N740 X111.424 Y369.185
N741 X111.59 Y369.319
N742 X111.766 Y369.441
N743 X111.95 Y369.55
N744 X112.142 Y369.645
N745 X112.34 Y369.726
N746 X112.544 Y369.791
N747 X112.752 Y369.842
N748 X112.963 Y369.877
N749 X113.176 Y369.896
N750 X113.39 Y369.899
N751 X113.604 Y369.887
N752 X113.816 Y369.859
N753 X114.026 Y369.816
N754 X114.232 Y369.757
N755 X114.433 Y369.683
N756 X114.627 Y369.594
N757 X114.815 Y369.491
N758 X114.995 Y369.375
N759 X115.166 Y369.246
N760 X115.326 Y369.105
N761 X115.476 Y368.952
N762 X115.614 Y368.788
N763 X115.74 Y368.615
N764 X115.852 Y368.433
N765 X115.951 Y368.243
N766 X116.036 Y368.046
N767 X116.105 Y367.844
N768 X116.16 Y367.637
N769 X116.199 Y367.427
N770 X116.223 Y367.214
N771 X116.231 Y367
N772 Y202.613
N773 X116.224 Y202.41
N774 X116.203 Y202.208
N775 X116.167 Y202.008
N776 X116.118 Y201.811
N777 X116.055 Y201.618
N778 X115.979 Y201.43
N779 X115.89 Y201.248
N780 X115.788 Y201.072
N781 X115.674 Y200.904
N782 X115.549 Y200.745
N783 X115.413 Y200.594
N784 X115.266 Y200.453
N785 X115.111 Y200.323
N786 X114.946 Y200.204
N787 X114.92 Y200.179
N788 X114.905 Y200.145
N789 X114.903 Y200.108
N790 X114.914 Y200.073
N791 X114.938 Y200.045
N792 X114.97 Y200.027
N793 X115.006 Y200.021
N794 X115.042 Y200.03
N795 X115.072 Y200.051
N796 X115.224 Y200.192
N797 X115.385 Y200.322
N798 X115.555 Y200.44
N799 X115.733 Y200.545
N800 X115.918 Y200.638
N801 X116.11 Y200.717
N802 X116.306 Y200.783
N803 X116.507 Y200.834
N804 X116.71 Y200.87
N805 X116.916 Y200.893
N806 X117.123 Y200.9
N807 X127.188
N808 X127.395 Y200.893
N809 X127.601 Y200.87
N810 X127.804 Y200.834
N811 X128.005 Y200.783
N812 X128.201 Y200.717
N813 X128.392 Y200.638
N814 X128.577 Y200.545
N815 X128.755 Y200.44
N816 X128.925 Y200.322
N817 X129.087 Y200.192
N818 X129.238 Y200.051
N819 X129.271 Y200.029
N820 X129.309 Y200.022
N821 X129.347 Y200.029
N822 X129.38 Y200.051
N823 X129.402 Y200.084
N824 X129.409 Y200.122
N825 X129.402 Y200.16
N826 X129.38 Y200.193
N827 X129.239 Y200.344
N828 X129.109 Y200.506
N829 X128.991 Y200.676
N830 X128.886 Y200.854
N831 X128.793 Y201.039
N832 X128.714 Y201.23
N833 X128.648 Y201.426
N834 X128.597 Y201.627
N835 X128.561 Y201.83
N836 X128.538 Y202.036
N837 X128.531 Y202.243
N838 Y367
N839 X128.539 Y367.214
N840 X128.563 Y367.427
N841 X128.602 Y367.637
N842 X128.657 Y367.844
N843 X128.726 Y368.046
N844 X128.811 Y368.243
N845 X128.91 Y368.433
N846 X129.022 Y368.615
N847 X129.148 Y368.788
N848 X129.286 Y368.952
N849 X129.436 Y369.105
N850 X129.596 Y369.246
N851 X129.767 Y369.375
N852 X129.947 Y369.491
N853 X130.135 Y369.594
N854 X130.329 Y369.683
N855 X130.53 Y369.757
N856 X130.736 Y369.816
N857 X130.946 Y369.859
N858 X131.158 Y369.887
N859 X131.372 Y369.899
N860 X131.586 Y369.896
N861 X131.799 Y369.877
N862 X132.01 Y369.842
N863 X132.218 Y369.791
N864 X132.422 Y369.726
N865 X132.62 Y369.645
N866 X132.812 Y369.55
N867 X132.996 Y369.441
N868 X133.172 Y369.319
N869 X133.338 Y369.185
N870 X133.494 Y369.038
N871 X133.639 Y368.88
N872 X133.772 Y368.712
N873 X133.891 Y368.535
N874 X167.556 Y314.574
N875 X167.662 Y314.389
N876 X167.755 Y314.198
N877 X167.832 Y314
N878 X167.895 Y313.796
N879 X167.943 Y313.589
N880 X167.976 Y313.379
N881 X167.993 Y313.167
N882 X167.995 Y312.954
N883 X167.981 Y312.741
N884 X167.951 Y312.531
N885 X167.906 Y312.323
N886 X167.846 Y312.118
N887 X167.771 Y311.919
N888 X167.682 Y311.726
N889 X167.579 Y311.54
N890 X167.462 Y311.362
N891 X167.333 Y311.193
N892 X167.191 Y311.034
N893 X167.039 Y310.886
N894 X166.875 Y310.749
N895 X166.703 Y310.625
N896 X166.521 Y310.513
N897 X166.332 Y310.416
N898 X166.137 Y310.332
N899 X165.935 Y310.263
N900 X165.729 Y310.209
N901 X165.52 Y310.17
N902 X165.309 Y310.147
N903 X165.096 Y310.139
N904 X151.482
N905 X187.004 Y241.755
N906 X187.094 Y241.563
N907 X187.171 Y241.365
N908 X187.233 Y241.162
N909 X187.28 Y240.955
N910 X187.311 Y240.745
N911 X187.328 Y240.533
N912 Y240.321
N913 X187.314 Y240.109
N914 X187.283 Y239.899
N915 X187.238 Y239.692
N916 X187.177 Y239.489
N917 X187.102 Y239.29
N918 X187.012 Y239.098
N919 X186.909 Y238.912
N920 X186.792 Y238.735
N921 X186.662 Y238.567
N922 X186.521 Y238.409
N923 X186.368 Y238.261
N924 X186.205 Y238.125
N925 X186.033 Y238.001
N926 X185.852 Y237.891
N927 X185.663 Y237.793
N928 X185.468 Y237.71
N929 X185.267 Y237.641
N930 X185.062 Y237.588
N931 X184.853 Y237.549
N932 X184.642 Y237.526
N933 X184.43 Y237.518
N934 X166.024
N935 X208.596 Y167.895
N936 X208.7 Y167.71
N937 X208.79 Y167.518
N938 X208.866 Y167.32
N939 X208.927 Y167.118
N940 X208.973 Y166.911
N941 X209.004 Y166.701
N942 X209.02 Y166.49
N943 Y166.278
N944 X209.005 Y166.067
N945 X208.974 Y165.857
N946 X208.928 Y165.65
N947 X208.867 Y165.447
N948 X208.792 Y165.249
N949 X208.702 Y165.057
N950 X208.598 Y164.872
N951 X208.481 Y164.696
N952 X208.352 Y164.528
N953 X208.21 Y164.37
N954 X208.058 Y164.223
N955 X207.895 Y164.087
N956 X207.723 Y163.964
N957 X207.542 Y163.853
N958 X207.353 Y163.756
N959 X207.158 Y163.674
N960 X206.958 Y163.605
N961 X206.753 Y163.551
N962 X206.544 Y163.513
N963 X206.334 Y163.49
N964 X206.122 Y163.482
N965 X186.075
N966 X227.166 Y96.281
N967 X227.27 Y96.096
N968 X227.36 Y95.904
N969 X227.436 Y95.706
N970 X227.497 Y95.503
N971 X227.543 Y95.297
N972 X227.574 Y95.087
N973 X227.59 Y94.876
N974 Y94.664
N975 X227.575 Y94.452
N976 X227.544 Y94.243
N977 X227.498 Y94.036
N978 X227.437 Y93.833
N979 X227.362 Y93.635
N980 X227.272 Y93.443
N981 X227.168 Y93.258
N982 X227.051 Y93.081
N983 X226.922 Y92.914
N984 X226.78 Y92.756
N985 X226.628 Y92.609
N986 X226.465 Y92.473
N987 X226.293 Y92.35
N988 X226.112 Y92.239
N989 X225.923 Y92.142
N990 X225.728 Y92.059
N991 X225.528 Y91.991
N992 X225.323 Y91.937
N993 X225.114 Y91.899
N994 X224.904 Y91.876
N995 X224.692 Y91.868
N996 X205.433
N997 X247.236 Y23.503
N998 X247.34 Y23.319
N999 X247.43 Y23.127
N1000 X247.506 Y22.929
N1001 X247.567 Y22.726
N1002 X247.613 Y22.519
N1003 X247.644 Y22.31
N1004 X247.66 Y22.098
N1005 Y21.886
N1006 X247.645 Y21.675
N1007 X247.614 Y21.465
N1008 X247.568 Y21.258
N1009 X247.507 Y21.056
N1010 X247.432 Y20.858
N1011 X247.342 Y20.666
N1012 X247.238 Y20.481
N1013 X247.121 Y20.304
N1014 X246.992 Y20.136
N1015 X246.85 Y19.978
N1016 X246.698 Y19.831
N1017 X246.535 Y19.696
N1018 X246.363 Y19.572
N1019 X246.182 Y19.462
N1020 X245.993 Y19.365
N1021 X245.798 Y19.282
N1022 X245.598 Y19.214
N1023 X245.393 Y19.16
N1024 X245.184 Y19.121
N1025 X244.974 Y19.098
N1026 X244.762 Y19.09
N1027 X175.961
N1028 Y0
N1029 X175.954 Y-0.207
N1030 X175.931 Y-0.413
N1031 X175.895 Y-0.616
N1032 X175.844 Y-0.817
N1033 X175.778 Y-1.013
N1034 X175.699 Y-1.205
N1035 X175.606 Y-1.39
N1036 X175.501 Y-1.568
N1037 X175.383 Y-1.738
N1038 X175.253 Y-1.899
N1039 X175.112 Y-2.051
N1040 X174.96 Y-2.192
N1041 X174.799 Y-2.322
N1042 X174.629 Y-2.44
N1043 X174.451 Y-2.545
N1044 X174.266 Y-2.638
N1045 X174.074 Y-2.717
N1046 X173.878 Y-2.783
N1047 X173.677 Y-2.834
N1048 X173.474 Y-2.87
N1049 X173.268 Y-2.893
N1050 X173.061 Y-2.9
N1051 X71.7
N1052 X71.493 Y-2.893
N1053 X71.288 Y-2.87
N1054 X71.084 Y-2.834
N1055 X70.883 Y-2.783
N1056 X70.687 Y-2.717
N1057 X70.496 Y-2.638
N1058 X70.31 Y-2.545
N1059 X70.132 Y-2.44
N1060 X69.962 Y-2.322
N1061 X69.801 Y-2.192
N1062 X69.65 Y-2.051
N1063 X69.509 Y-1.899
N1064 X69.379 Y-1.738
N1065 X69.261 Y-1.568
N1066 X69.155 Y-1.39
N1067 X69.062 Y-1.205
N1068 X68.983 Y-1.013
N1069 X68.918 Y-0.817
N1070 X68.867 Y-0.616
N1071 X68.83 Y-0.413
N1072 X68.808 Y-0.207
N1073 X68.8 Y0
N1074 Y19.09
N1075 X6.143
N1076 X0 Z11.935 F2500
N1077 X-0.212 Y19.098 Z11.933
N1078 X-0.422 Y19.121 Z11.931
N1079 X-0.631 Y19.16 Z11.929
N1080 X-0.836 Y19.214 Z11.926
N1081 X-1.036 Y19.282 Z11.924
N1082 X-1.231 Y19.365 Z11.922
N1083 X-1.42 Y19.462 Z11.92
N1084 X-1.601 Y19.572 Z11.918
N1085 X-1.773 Y19.696 Z11.915
N1086 X-1.936 Y19.831 Z11.913
N1087 X-2.088 Y19.978 Z11.911
N1088 X-2.23 Y20.136 Z11.909
N1089 X-2.359 Y20.304 Z11.906
N1090 X-2.476 Y20.481 Z11.904
N1091 X-2.58 Y20.666 Z11.902
N1092 X-2.67 Y20.858 Z11.9
N1093 X-2.745 Y21.056 Z11.898
N1094 X-2.806 Y21.258 Z11.895
N1095 X-2.852 Y21.465 Z11.893
N1096 X-2.883 Y21.675 Z11.891
N1097 X-2.898 Y21.886 Z11.889
N1098 Y22.098 Z11.886
N1099 X-2.882 Y22.31 Z11.884
N1100 X-2.851 Y22.519 Z11.882
N1101 X-2.805 Y22.726 Z11.88
N1102 X-2.744 Y22.929 Z11.877
N1103 X-2.668 Y23.127 Z11.875
N1104 X-2.578 Y23.319 Z11.873
N1105 X-2.474 Y23.503 Z11.871
N1106 X39.328 Y91.868 Z11.028
N1107 X20.07 Z10.826
N1108 X19.858 Y91.876 Z10.824
N1109 X19.647 Y91.899 Z10.821
N1110 X19.439 Y91.937 Z10.819
N1111 X19.234 Y91.991 Z10.817
N1112 X19.033 Y92.059 Z10.815
N1113 X18.838 Y92.142 Z10.812
N1114 X18.65 Y92.239 Z10.81
N1115 X18.469 Y92.35 Z10.808
N1116 X18.297 Y92.473 Z10.806
N1117 X18.134 Y92.609 Z10.803
N1118 X17.981 Y92.756 Z10.801
N1119 X17.84 Y92.914 Z10.799
N1120 X17.71 Y93.081 Z10.797
N1121 X17.594 Y93.258 Z10.795
N1122 X17.49 Y93.443 Z10.792
N1123 X17.4 Y93.635 Z10.79
N1124 X17.324 Y93.833 Z10.788
N1125 X17.264 Y94.036 Z10.786
N1126 X17.218 Y94.243 Z10.783
N1127 X17.187 Y94.452 Z10.781
N1128 X17.171 Y94.664 Z10.779
N1129 X17.172 Y94.876 Z10.777
N1130 X17.187 Y95.087 Z10.775
N1131 X17.218 Y95.297 Z10.772
N1132 X17.264 Y95.503 Z10.77
N1133 X17.326 Y95.706 Z10.768
N1134 X17.401 Y95.904 Z10.766
N1135 X17.492 Y96.096 Z10.763
N1136 X17.595 Y96.281 Z10.761
N1137 X58.687 Y163.482 Z9.933
N1138 X38.639 Z9.722
N1139 X38.428 Y163.49 Z9.72
N1140 X38.217 Y163.513 Z9.718
N1141 X38.009 Y163.551 Z9.716
N1142 X37.804 Y163.605 Z9.713
N1143 X37.603 Y163.674 Z9.711
N1144 X37.408 Y163.756 Z9.709
N1145 X37.22 Y163.853 Z9.707
N1146 X37.039 Y163.964 Z9.704
N1147 X36.866 Y164.087 Z9.702
N1148 X36.704 Y164.223 Z9.7
N1149 X36.551 Y164.37 Z9.698
N1150 X36.41 Y164.528 Z9.695
N1151 X36.28 Y164.696 Z9.693
N1152 X36.163 Y164.872 Z9.691
N1153 X36.06 Y165.057 Z9.689
N1154 X35.97 Y165.249 Z9.687
N1155 X35.894 Y165.447 Z9.684
N1156 X35.833 Y165.65 Z9.682
N1157 X35.787 Y165.857 Z9.68
N1158 X35.757 Y166.067 Z9.678
N1159 X35.741 Y166.278 Z9.675
N1160 X35.742 Y166.49 Z9.673
N1161 X35.757 Y166.701 Z9.671
N1162 X35.788 Y166.911 Z9.669
N1163 X35.834 Y167.118 Z9.666
N1164 X35.896 Y167.32 Z9.664
N1165 X35.971 Y167.518 Z9.662
N1166 X36.062 Y167.71 Z9.66
N1167 X36.165 Y167.895 Z9.658
N1168 X68.791 Y221.251 Z9
N1169 X78.737 Y237.518 F2760
N1170 X60.332
N1171 X60.119 Y237.526
N1172 X59.909 Y237.549
N1173 X59.7 Y237.588
N1174 X59.494 Y237.641
N1175 X59.294 Y237.71
N1176 X59.098 Y237.793
N1177 X58.91 Y237.891
N1178 X58.729 Y238.001
N1179 X58.556 Y238.125
N1180 X58.393 Y238.261
N1181 X58.241 Y238.409
N1182 X58.099 Y238.567
N1183 X57.97 Y238.735
N1184 X57.853 Y238.912
N1185 X57.75 Y239.098
N1186 X57.66 Y239.29
N1187 X57.585 Y239.489
N1188 X57.524 Y239.692
N1189 X57.478 Y239.899
N1190 X57.448 Y240.109
N1191 X57.433 Y240.321
N1192 X57.434 Y240.533
N1193 X57.45 Y240.745
N1194 X57.482 Y240.955
N1195 X57.529 Y241.162
N1196 X57.591 Y241.365
N1197 X57.667 Y241.563
N1198 X57.758 Y241.755
N1199 X93.279 Y310.139
N1200 X79.666
N1201 X79.453 Y310.147
N1202 X79.242 Y310.17
N1203 X79.032 Y310.209
N1204 X78.827 Y310.263
N1205 X78.625 Y310.332
N1206 X78.43 Y310.416
N1207 X78.24 Y310.513
N1208 X78.059 Y310.625
N1209 X77.886 Y310.749
N1210 X77.723 Y310.886
N1211 X77.571 Y311.034
N1212 X77.429 Y311.193
N1213 X77.3 Y311.362
N1214 X77.183 Y311.54
N1215 X77.08 Y311.726
N1216 X76.991 Y311.919
N1217 X76.916 Y312.118
N1218 X76.856 Y312.323
N1219 X76.811 Y312.531
N1220 X76.781 Y312.741
N1221 X76.767 Y312.954
N1222 X76.769 Y313.167
N1223 X76.786 Y313.379
N1224 X76.818 Y313.589
N1225 X76.866 Y313.796
N1226 X76.929 Y314
N1227 X77.007 Y314.198
N1228 X77.099 Y314.389
N1229 X77.205 Y314.574
N1230 X110.871 Y368.535
N1231 X110.99 Y368.712
N1232 X111.123 Y368.88
N1233 X111.268 Y369.038
N1234 X111.424 Y369.185
N1235 X111.59 Y369.319
N1236 X111.766 Y369.441
N1237 X111.95 Y369.55
N1238 X112.142 Y369.645
N1239 X112.34 Y369.726
N1240 X112.544 Y369.791
N1241 X112.752 Y369.842
N1242 X112.963 Y369.877
N1243 X113.176 Y369.896
N1244 X113.39 Y369.899
N1245 X113.604 Y369.887
N1246 X113.816 Y369.859
N1247 X114.026 Y369.816
N1248 X114.232 Y369.757
N1249 X114.433 Y369.683
N1250 X114.627 Y369.594
N1251 X114.815 Y369.491
N1252 X114.995 Y369.375
N1253 X115.166 Y369.246
N1254 X115.326 Y369.105
N1255 X115.476 Y368.952
N1256 X115.614 Y368.788
N1257 X115.74 Y368.615
N1258 X115.852 Y368.433
N1259 X115.951 Y368.243
N1260 X116.036 Y368.046
N1261 X116.105 Y367.844
N1262 X116.16 Y367.637
N1263 X116.199 Y367.427
N1264 X116.223 Y367.214
N1265 X116.231 Y367
N1266 Y202.613
N1267 X116.224 Y202.41
N1268 X116.203 Y202.208
N1269 X116.167 Y202.008
N1270 X116.118 Y201.811
N1271 X116.055 Y201.618
N1272 X115.979 Y201.43
N1273 X115.89 Y201.248
N1274 X115.788 Y201.072
N1275 X115.674 Y200.904
N1276 X115.549 Y200.745
N1277 X115.413 Y200.594
N1278 X115.266 Y200.453
N1279 X115.111 Y200.323
N1280 X114.946 Y200.204
N1281 X114.92 Y200.179
N1282 X114.905 Y200.145
N1283 X114.903 Y200.108
N1284 X114.914 Y200.073
N1285 X114.938 Y200.045
N1286 X114.97 Y200.027
N1287 X115.006 Y200.021
N1288 X115.042 Y200.03
N1289 X115.072 Y200.051
N1290 X115.224 Y200.192
N1291 X115.385 Y200.322
N1292 X115.555 Y200.44
N1293 X115.733 Y200.545
N1294 X115.918 Y200.638
N1295 X116.11 Y200.717
N1296 X116.306 Y200.783
N1297 X116.507 Y200.834
N1298 X116.71 Y200.87
N1299 X116.916 Y200.893
N1300 X117.123 Y200.9
N1301 X127.188
N1302 X127.395 Y200.893
N1303 X127.601 Y200.87
N1304 X127.804 Y200.834
N1305 X128.005 Y200.783
N1306 X128.201 Y200.717
N1307 X128.392 Y200.638
N1308 X128.577 Y200.545
N1309 X128.755 Y200.44
N1310 X128.925 Y200.322
N1311 X129.087 Y200.192
N1312 X129.238 Y200.051
N1313 X129.271 Y200.029
N1314 X129.309 Y200.022
N1315 X129.347 Y200.029
N1316 X129.38 Y200.051
N1317 X129.402 Y200.084
N1318 X129.409 Y200.122
N1319 X129.402 Y200.16
N1320 X129.38 Y200.193
N1321 X129.239 Y200.344
N1322 X129.109 Y200.506
N1323 X128.991 Y200.676
N1324 X128.886 Y200.854
N1325 X128.793 Y201.039
N1326 X128.714 Y201.23
N1327 X128.648 Y201.426
N1328 X128.597 Y201.627
N1329 X128.561 Y201.83
N1330 X128.538 Y202.036
N1331 X128.531 Y202.243
N1332 Y367
N1333 X128.539 Y367.214
N1334 X128.563 Y367.427
N1335 X128.602 Y367.637
N1336 X128.657 Y367.844
N1337 X128.726 Y368.046
N1338 X128.811 Y368.243
N1339 X128.91 Y368.433
N1340 X129.022 Y368.615
N1341 X129.148 Y368.788
N1342 X129.286 Y368.952
N1343 X129.436 Y369.105
N1344 X129.596 Y369.246
N1345 X129.767 Y369.375
N1346 X129.947 Y369.491
N1347 X130.135 Y369.594
N1348 X130.329 Y369.683
N1349 X130.53 Y369.757
N1350 X130.736 Y369.816
N1351 X130.946 Y369.859
N1352 X131.158 Y369.887
N1353 X131.372 Y369.899
N1354 X131.586 Y369.896
N1355 X131.799 Y369.877
N1356 X132.01 Y369.842
N1357 X132.218 Y369.791
N1358 X132.422 Y369.726
N1359 X132.62 Y369.645
N1360 X132.812 Y369.55
N1361 X132.996 Y369.441
N1362 X133.172 Y369.319
N1363 X133.338 Y369.185
N1364 X133.494 Y369.038
N1365 X133.639 Y368.88
N1366 X133.772 Y368.712
N1367 X133.891 Y368.535
N1368 X167.556 Y314.574
N1369 X167.662 Y314.389
N1370 X167.755 Y314.198
N1371 X167.832 Y314
N1372 X167.895 Y313.796
N1373 X167.943 Y313.589
N1374 X167.976 Y313.379
N1375 X167.993 Y313.167
N1376 X167.995 Y312.954
N1377 X167.981 Y312.741
N1378 X167.951 Y312.531
N1379 X167.906 Y312.323
N1380 X167.846 Y312.118
N1381 X167.771 Y311.919
N1382 X167.682 Y311.726
N1383 X167.579 Y311.54
N1384 X167.462 Y311.362
N1385 X167.333 Y311.193
N1386 X167.191 Y311.034
N1387 X167.039 Y310.886
N1388 X166.875 Y310.749
N1389 X166.703 Y310.625
N1390 X166.521 Y310.513
N1391 X166.332 Y310.416
N1392 X166.137 Y310.332
N1393 X165.935 Y310.263
N1394 X165.729 Y310.209
N1395 X165.52 Y310.17
N1396 X165.309 Y310.147
N1397 X165.096 Y310.139
N1398 X151.482
N1399 X187.004 Y241.755
N1400 X187.094 Y241.563
N1401 X187.171 Y241.365
N1402 X187.233 Y241.162
N1403 X187.28 Y240.955
N1404 X187.311 Y240.745
N1405 X187.328 Y240.533
N1406 Y240.321
N1407 X187.314 Y240.109
N1408 X187.283 Y239.899
N1409 X187.238 Y239.692
N1410 X187.177 Y239.489
N1411 X187.102 Y239.29
N1412 X187.012 Y239.098
N1413 X186.909 Y238.912
N1414 X186.792 Y238.735
N1415 X186.662 Y238.567
N1416 X186.521 Y238.409
N1417 X186.368 Y238.261
N1418 X186.205 Y238.125
N1419 X186.033 Y238.001
N1420 X185.852 Y237.891
N1421 X185.663 Y237.793
N1422 X185.468 Y237.71
N1423 X185.267 Y237.641
N1424 X185.062 Y237.588
N1425 X184.853 Y237.549
N1426 X184.642 Y237.526
N1427 X184.43 Y237.518
N1428 X166.024
N1429 X208.596 Y167.895
N1430 X208.7 Y167.71
N1431 X208.79 Y167.518
N1432 X208.866 Y167.32
N1433 X208.927 Y167.118
N1434 X208.973 Y166.911
N1435 X209.004 Y166.701
N1436 X209.02 Y166.49
N1437 Y166.278
N1438 X209.005 Y166.067
N1439 X208.974 Y165.857
N1440 X208.928 Y165.65
N1441 X208.867 Y165.447
N1442 X208.792 Y165.249
N1443 X208.702 Y165.057
N1444 X208.598 Y164.872
N1445 X208.481 Y164.696
N1446 X208.352 Y164.528
N1447 X208.21 Y164.37
N1448 X208.058 Y164.223
N1449 X207.895 Y164.087
N1450 X207.723 Y163.964
N1451 X207.542 Y163.853
N1452 X207.353 Y163.756
N1453 X207.158 Y163.674
N1454 X206.958 Y163.605
N1455 X206.753 Y163.551
N1456 X206.544 Y163.513
N1457 X206.334 Y163.49
N1458 X206.122 Y163.482
N1459 X186.075
N1460 X227.166 Y96.281
N1461 X227.27 Y96.096
N1462 X227.36 Y95.904
N1463 X227.436 Y95.706
N1464 X227.497 Y95.503
N1465 X227.543 Y95.297
N1466 X227.574 Y95.087
N1467 X227.59 Y94.876
N1468 Y94.664
N1469 X227.575 Y94.452
N1470 X227.544 Y94.243
N1471 X227.498 Y94.036
N1472 X227.437 Y93.833
N1473 X227.362 Y93.635
N1474 X227.272 Y93.443
N1475 X227.168 Y93.258
N1476 X227.051 Y93.081
N1477 X226.922 Y92.914
N1478 X226.78 Y92.756
N1479 X226.628 Y92.609
N1480 X226.465 Y92.473
N1481 X226.293 Y92.35
N1482 X226.112 Y92.239
N1483 X225.923 Y92.142
N1484 X225.728 Y92.059
N1485 X225.528 Y91.991
N1486 X225.323 Y91.937
N1487 X225.114 Y91.899
N1488 X224.904 Y91.876
N1489 X224.692 Y91.868
N1490 X205.433
N1491 X247.236 Y23.503
N1492 X247.34 Y23.319
N1493 X247.43 Y23.127
N1494 X247.506 Y22.929
N1495 X247.567 Y22.726
N1496 X247.613 Y22.519
N1497 X247.644 Y22.31
N1498 X247.66 Y22.098
N1499 Y21.886
N1500 X247.645 Y21.675
N1501 X247.614 Y21.465
N1502 X247.568 Y21.258
N1503 X247.507 Y21.056
N1504 X247.432 Y20.858
N1505 X247.342 Y20.666
N1506 X247.238 Y20.481
N1507 X247.121 Y20.304
N1508 X246.992 Y20.136
N1509 X246.85 Y19.978
N1510 X246.698 Y19.831
N1511 X246.535 Y19.696
N1512 X246.363 Y19.572
N1513 X246.182 Y19.462
N1514 X245.993 Y19.365
N1515 X245.798 Y19.282
N1516 X245.598 Y19.214
N1517 X245.393 Y19.16
N1518 X245.184 Y19.121
N1519 X244.974 Y19.098
N1520 X244.762 Y19.09
N1521 X175.961
N1522 Y0
N1523 X175.954 Y-0.207
N1524 X175.931 Y-0.413
N1525 X175.895 Y-0.616
N1526 X175.844 Y-0.817
N1527 X175.778 Y-1.013
N1528 X175.699 Y-1.205
N1529 X175.606 Y-1.39
N1530 X175.501 Y-1.568
N1531 X175.383 Y-1.738
N1532 X175.253 Y-1.899
N1533 X175.112 Y-2.051
N1534 X174.96 Y-2.192
N1535 X174.799 Y-2.322
N1536 X174.629 Y-2.44
N1537 X174.451 Y-2.545
N1538 X174.266 Y-2.638
N1539 X174.074 Y-2.717
N1540 X173.878 Y-2.783
N1541 X173.677 Y-2.834
N1542 X173.474 Y-2.87
N1543 X173.268 Y-2.893
N1544 X173.061 Y-2.9
N1545 X71.7
N1546 X71.493 Y-2.893
N1547 X71.288 Y-2.87
N1548 X71.084 Y-2.834
N1549 X70.883 Y-2.783
N1550 X70.687 Y-2.717
N1551 X70.496 Y-2.638
N1552 X70.31 Y-2.545
N1553 X70.132 Y-2.44
N1554 X69.962 Y-2.322
N1555 X69.801 Y-2.192
N1556 X69.65 Y-2.051
N1557 X69.509 Y-1.899
N1558 X69.379 Y-1.738
N1559 X69.261 Y-1.568
N1560 X69.155 Y-1.39
N1561 X69.062 Y-1.205
N1562 X68.983 Y-1.013
N1563 X68.918 Y-0.817
N1564 X68.867 Y-0.616
N1565 X68.83 Y-0.413
N1566 X68.808 Y-0.207
N1567 X68.8 Y0
N1568 Y19.09
N1569 X6.143
N1570 X0
N1571 X-0.212 Y19.098
N1572 X-0.422 Y19.121
N1573 X-0.631 Y19.16
N1574 X-0.836 Y19.214
N1575 X-1.036 Y19.282
N1576 X-1.231 Y19.365
N1577 X-1.42 Y19.462
N1578 X-1.601 Y19.572
N1579 X-1.773 Y19.696
N1580 X-1.936 Y19.831
N1581 X-2.088 Y19.978
N1582 X-2.23 Y20.136
N1583 X-2.359 Y20.304
N1584 X-2.476 Y20.481
N1585 X-2.58 Y20.666
N1586 X-2.67 Y20.858
N1587 X-2.745 Y21.056
N1588 X-2.806 Y21.258
N1589 X-2.852 Y21.465
N1590 X-2.883 Y21.675
N1591 X-2.898 Y21.886
N1592 Y22.098
N1593 X-2.882 Y22.31
N1594 X-2.851 Y22.519
N1595 X-2.805 Y22.726
N1596 X-2.744 Y22.929
N1597 X-2.668 Y23.127
N1598 X-2.578 Y23.319
N1599 X-2.474 Y23.503
N1600 X39.328 Y91.868
N1601 X20.07
N1602 X19.858 Y91.876
N1603 X19.647 Y91.899
N1604 X19.439 Y91.937
N1605 X19.234 Y91.991
N1606 X19.033 Y92.059
N1607 X18.838 Y92.142
N1608 X18.65 Y92.239
N1609 X18.469 Y92.35
N1610 X18.297 Y92.473
N1611 X18.134 Y92.609
N1612 X17.981 Y92.756
N1613 X17.84 Y92.914
N1614 X17.71 Y93.081
N1615 X17.594 Y93.258
N1616 X17.49 Y93.443
N1617 X17.4 Y93.635
N1618 X17.324 Y93.833
N1619 X17.264 Y94.036
N1620 X17.218 Y94.243
N1621 X17.187 Y94.452
N1622 X17.171 Y94.664
N1623 X17.172 Y94.876
N1624 X17.187 Y95.087
N1625 X17.218 Y95.297
N1626 X17.264 Y95.503
N1627 X17.326 Y95.706
N1628 X17.401 Y95.904
N1629 X17.492 Y96.096
N1630 X17.595 Y96.281
N1631 X58.687 Y163.482
N1632 X38.639
N1633 X38.428 Y163.49
N1634 X38.217 Y163.513
N1635 X38.009 Y163.551
N1636 X37.804 Y163.605
N1637 X37.603 Y163.674
N1638 X37.408 Y163.756
N1639 X37.22 Y163.853
N1640 X37.039 Y163.964
N1641 X36.866 Y164.087
N1642 X36.704 Y164.223
N1643 X36.551 Y164.37
N1644 X36.41 Y164.528
N1645 X36.28 Y164.696
N1646 X36.163 Y164.872
N1647 X36.06 Y165.057
N1648 X35.97 Y165.249
N1649 X35.894 Y165.447
N1650 X35.833 Y165.65
N1651 X35.787 Y165.857
N1652 X35.757 Y166.067
N1653 X35.741 Y166.278
N1654 X35.742 Y166.49
N1655 X35.757 Y166.701
N1656 X35.788 Y166.911
N1657 X35.834 Y167.118
N1658 X35.896 Y167.32
N1659 X35.971 Y167.518
N1660 X36.062 Y167.71
N1661 X36.165 Y167.895
N1662 X68.791 Y221.251
N1663 X78.737 Y237.518 Z8.8 F2500
N1664 X60.332 Z8.606
N1665 X60.119 Y237.526 Z8.604
N1666 X59.909 Y237.549 Z8.602
N1667 X59.7 Y237.588 Z8.599
N1668 X59.494 Y237.641 Z8.597
N1669 X59.294 Y237.71 Z8.595
N1670 X59.098 Y237.793 Z8.593
N1671 X58.91 Y237.891 Z8.59
N1672 X58.729 Y238.001 Z8.588
N1673 X58.556 Y238.125 Z8.586
N1674 X58.393 Y238.261 Z8.584
N1675 X58.241 Y238.409 Z8.581
N1676 X58.099 Y238.567 Z8.579
N1677 X57.97 Y238.735 Z8.577
N1678 X57.853 Y238.912 Z8.575
N1679 X57.75 Y239.098 Z8.573
N1680 X57.66 Y239.29 Z8.57
N1681 X57.585 Y239.489 Z8.568
N1682 X57.524 Y239.692 Z8.566
N1683 X57.478 Y239.899 Z8.564
N1684 X57.448 Y240.109 Z8.561
N1685 X57.433 Y240.321 Z8.559
N1686 X57.434 Y240.533 Z8.557
N1687 X57.45 Y240.745 Z8.555
N1688 X57.482 Y240.955 Z8.552
N1689 X57.529 Y241.162 Z8.55
N1690 X57.591 Y241.365 Z8.548
N1691 X57.667 Y241.563 Z8.546
N1692 X57.758 Y241.755 Z8.544
N1693 X93.279 Y310.139 Z7.733
N1694 X79.666 Z7.59
N1695 X79.453 Y310.147 Z7.588
N1696 X79.242 Y310.17 Z7.586
N1697 X79.032 Y310.209 Z7.583
N1698 X78.827 Y310.263 Z7.581
N1699 X78.625 Y310.332 Z7.579
N1700 X78.43 Y310.416 Z7.577
N1701 X78.24 Y310.513 Z7.574
N1702 X78.059 Y310.625 Z7.572
N1703 X77.886 Y310.749 Z7.57
N1704 X77.723 Y310.886 Z7.568
N1705 X77.571 Y311.034 Z7.566
N1706 X77.429 Y311.193 Z7.563
N1707 X77.3 Y311.362 Z7.561
N1708 X77.183 Y311.54 Z7.559
N1709 X77.08 Y311.726 Z7.557
N1710 X76.991 Y311.919 Z7.554
N1711 X76.916 Y312.118 Z7.552
N1712 X76.856 Y312.323 Z7.55
N1713 X76.811 Y312.531 Z7.548
N1714 X76.781 Y312.741 Z7.545
N1715 X76.767 Y312.954 Z7.543
N1716 X76.769 Y313.167 Z7.541
N1717 X76.786 Y313.379 Z7.539
N1718 X76.818 Y313.589 Z7.536
N1719 X76.866 Y313.796 Z7.534
N1720 X76.929 Y314 Z7.532
N1721 X77.007 Y314.198 Z7.53
N1722 X77.099 Y314.389 Z7.527
N1723 X77.205 Y314.574 Z7.525
N1724 X110.871 Y368.535 Z6.857
N1725 X110.99 Y368.712 Z6.854
N1726 X111.123 Y368.88 Z6.852
N1727 X111.268 Y369.038 Z6.85
N1728 X111.424 Y369.185 Z6.848
N1729 X111.59 Y369.319 Z6.845
N1730 X111.766 Y369.441 Z6.843
N1731 X111.95 Y369.55 Z6.841
N1732 X112.142 Y369.645 Z6.839
N1733 X112.34 Y369.726 Z6.836
N1734 X112.544 Y369.791 Z6.834
N1735 X112.752 Y369.842 Z6.832
N1736 X112.963 Y369.877 Z6.83
N1737 X113.176 Y369.896 Z6.827
N1738 X113.39 Y369.899 Z6.825
N1739 X113.604 Y369.887 Z6.823
N1740 X113.816 Y369.859 Z6.821
N1741 X114.026 Y369.816 Z6.818
N1742 X114.232 Y369.757 Z6.816
N1743 X114.433 Y369.683 Z6.814
N1744 X114.627 Y369.594 Z6.812
N1745 X114.815 Y369.491 Z6.809
N1746 X114.995 Y369.375 Z6.807
N1747 X115.166 Y369.246 Z6.805
N1748 X115.326 Y369.105 Z6.803
N1749 X115.476 Y368.952 Z6.8
N1750 X115.614 Y368.788 Z6.798
N1751 X115.74 Y368.615 Z6.796
N1752 X115.852 Y368.433 Z6.794
N1753 X115.951 Y368.243 Z6.791
N1754 X116.036 Y368.046 Z6.789
N1755 X116.105 Y367.844 Z6.787
N1756 X116.16 Y367.637 Z6.785
N1757 X116.199 Y367.427 Z6.782
N1758 X116.223 Y367.214 Z6.78
N1759 X116.231 Y367 Z6.778
N1760 Y293.027 Z6
N1761 Y202.613 F2760
N1762 X116.224 Y202.41
N1763 X116.203 Y202.208
N1764 X116.167 Y202.008
N1765 X116.118 Y201.811
N1766 X116.055 Y201.618
N1767 X115.979 Y201.43
N1768 X115.89 Y201.248
N1769 X115.788 Y201.072
N1770 X115.674 Y200.904
N1771 X115.549 Y200.745
N1772 X115.413 Y200.594
N1773 X115.266 Y200.453
N1774 X115.111 Y200.323
N1775 X114.946 Y200.204
N1776 X114.92 Y200.179
N1777 X114.905 Y200.145
N1778 X114.903 Y200.108
N1779 X114.914 Y200.073
N1780 X114.938 Y200.045
N1781 X114.97 Y200.027
N1782 X115.006 Y200.021
N1783 X115.042 Y200.03
N1784 X115.072 Y200.051
N1785 X115.224 Y200.192
N1786 X115.385 Y200.322
N1787 X115.555 Y200.44
N1788 X115.733 Y200.545
N1789 X115.918 Y200.638
N1790 X116.11 Y200.717
N1791 X116.306 Y200.783
N1792 X116.507 Y200.834
N1793 X116.71 Y200.87
N1794 X116.916 Y200.893
N1795 X117.123 Y200.9
N1796 X127.188
N1797 X127.395 Y200.893
N1798 X127.601 Y200.87
N1799 X127.804 Y200.834
N1800 X128.005 Y200.783
N1801 X128.201 Y200.717
N1802 X128.392 Y200.638
N1803 X128.577 Y200.545
N1804 X128.755 Y200.44
N1805 X128.925 Y200.322
N1806 X129.087 Y200.192
N1807 X129.238 Y200.051
N1808 X129.271 Y200.029
N1809 X129.309 Y200.022
N1810 X129.347 Y200.029
N1811 X129.38 Y200.051
N1812 X129.402 Y200.084
N1813 X129.409 Y200.122
N1814 X129.402 Y200.16
N1815 X129.38 Y200.193
N1816 X129.239 Y200.344
N1817 X129.109 Y200.506
N1818 X128.991 Y200.676
N1819 X128.886 Y200.854
N1820 X128.793 Y201.039
N1821 X128.714 Y201.23
N1822 X128.648 Y201.426
N1823 X128.597 Y201.627
N1824 X128.561 Y201.83
N1825 X128.538 Y202.036
N1826 X128.531 Y202.243
N1827 Y367
N1828 X128.539 Y367.214
N1829 X128.563 Y367.427
N1830 X128.602 Y367.637
N1831 X128.657 Y367.844
N1832 X128.726 Y368.046
N1833 X128.811 Y368.243
N1834 X128.91 Y368.433
N1835 X129.022 Y368.615
N1836 X129.148 Y368.788
N1837 X129.286 Y368.952
N1838 X129.436 Y369.105
N1839 X129.596 Y369.246
N1840 X129.767 Y369.375
N1841 X129.947 Y369.491
N1842 X130.135 Y369.594
N1843 X130.329 Y369.683
N1844 X130.53 Y369.757
N1845 X130.736 Y369.816
N1846 X130.946 Y369.859
N1847 X131.158 Y369.887
N1848 X131.372 Y369.899
N1849 X131.586 Y369.896
N1850 X131.799 Y369.877
N1851 X132.01 Y369.842
N1852 X132.218 Y369.791
N1853 X132.422 Y369.726
N1854 X132.62 Y369.645
N1855 X132.812 Y369.55
N1856 X132.996 Y369.441
N1857 X133.172 Y369.319
N1858 X133.338 Y369.185
N1859 X133.494 Y369.038
N1860 X133.639 Y368.88
N1861 X133.772 Y368.712
N1862 X133.891 Y368.535
N1863 X167.556 Y314.574
N1864 X167.662 Y314.389
N1865 X167.755 Y314.198
N1866 X167.832 Y314
N1867 X167.895 Y313.796
N1868 X167.943 Y313.589
N1869 X167.976 Y313.379
N1870 X167.993 Y313.167
N1871 X167.995 Y312.954
N1872 X167.981 Y312.741
N1873 X167.951 Y312.531
N1874 X167.906 Y312.323
N1875 X167.846 Y312.118
N1876 X167.771 Y311.919
N1877 X167.682 Y311.726
N1878 X167.579 Y311.54
N1879 X167.462 Y311.362
N1880 X167.333 Y311.193
N1881 X167.191 Y311.034
N1882 X167.039 Y310.886
N1883 X166.875 Y310.749
N1884 X166.703 Y310.625
N1885 X166.521 Y310.513
N1886 X166.332 Y310.416
N1887 X166.137 Y310.332
N1888 X165.935 Y310.263
N1889 X165.729 Y310.209
N1890 X165.52 Y310.17
N1891 X165.309 Y310.147
N1892 X165.096 Y310.139
N1893 X151.482
N1894 X187.004 Y241.755
N1895 X187.094 Y241.563
N1896 X187.171 Y241.365
N1897 X187.233 Y241.162
N1898 X187.28 Y240.955
N1899 X187.311 Y240.745
N1900 X187.328 Y240.533
N1901 Y240.321
N1902 X187.314 Y240.109
N1903 X187.283 Y239.899
N1904 X187.238 Y239.692
N1905 X187.177 Y239.489
N1906 X187.102 Y239.29
N1907 X187.012 Y239.098
N1908 X186.909 Y238.912
N1909 X186.792 Y238.735
N1910 X186.662 Y238.567
N1911 X186.521 Y238.409
N1912 X186.368 Y238.261
N1913 X186.205 Y238.125
N1914 X186.033 Y238.001
N1915 X185.852 Y237.891
N1916 X185.663 Y237.793
N1917 X185.468 Y237.71
N1918 X185.267 Y237.641
N1919 X185.062 Y237.588
N1920 X184.853 Y237.549
N1921 X184.642 Y237.526
N1922 X184.43 Y237.518
N1923 X166.024
N1924 X208.596 Y167.895
N1925 X208.7 Y167.71
N1926 X208.79 Y167.518
N1927 X208.866 Y167.32
N1928 X208.927 Y167.118
N1929 X208.973 Y166.911
N1930 X209.004 Y166.701
N1931 X209.02 Y166.49
N1932 Y166.278
N1933 X209.005 Y166.067
N1934 X208.974 Y165.857
N1935 X208.928 Y165.65
N1936 X208.867 Y165.447
N1937 X208.792 Y165.249
N1938 X208.702 Y165.057
N1939 X208.598 Y164.872
N1940 X208.481 Y164.696
N1941 X208.352 Y164.528
N1942 X208.21 Y164.37
N1943 X208.058 Y164.223
N1944 X207.895 Y164.087
N1945 X207.723 Y163.964
N1946 X207.542 Y163.853
N1947 X207.353 Y163.756
N1948 X207.158 Y163.674
N1949 X206.958 Y163.605
N1950 X206.753 Y163.551
N1951 X206.544 Y163.513
N1952 X206.334 Y163.49
N1953 X206.122 Y163.482
N1954 X186.075
N1955 X227.166 Y96.281
N1956 X227.27 Y96.096
N1957 X227.36 Y95.904
N1958 X227.436 Y95.706
N1959 X227.497 Y95.503
N1960 X227.543 Y95.297
N1961 X227.574 Y95.087
N1962 X227.59 Y94.876
N1963 Y94.664
N1964 X227.575 Y94.452
N1965 X227.544 Y94.243
N1966 X227.498 Y94.036
N1967 X227.437 Y93.833
N1968 X227.362 Y93.635
N1969 X227.272 Y93.443
N1970 X227.168 Y93.258
N1971 X227.051 Y93.081
N1972 X226.922 Y92.914
N1973 X226.78 Y92.756
N1974 X226.628 Y92.609
N1975 X226.465 Y92.473
N1976 X226.293 Y92.35
N1977 X226.112 Y92.239
N1978 X225.923 Y92.142
N1979 X225.728 Y92.059
N1980 X225.528 Y91.991
N1981 X225.323 Y91.937
N1982 X225.114 Y91.899
N1983 X224.904 Y91.876
N1984 X224.692 Y91.868
N1985 X205.433
N1986 X247.236 Y23.503
N1987 X247.34 Y23.319
N1988 X247.43 Y23.127
N1989 X247.506 Y22.929
N1990 X247.567 Y22.726
N1991 X247.613 Y22.519
N1992 X247.644 Y22.31
N1993 X247.66 Y22.098
N1994 Y21.886
N1995 X247.645 Y21.675
N1996 X247.614 Y21.465
N1997 X247.568 Y21.258
N1998 X247.507 Y21.056
N1999 X247.432 Y20.858
N2000 X247.342 Y20.666
N2001 X247.238 Y20.481
N2002 X247.121 Y20.304
N2003 X246.992 Y20.136
N2004 X246.85 Y19.978
N2005 X246.698 Y19.831
N2006 X246.535 Y19.696
N2007 X246.363 Y19.572
N2008 X246.182 Y19.462
N2009 X245.993 Y19.365
N2010 X245.798 Y19.282
N2011 X245.598 Y19.214
N2012 X245.393 Y19.16
N2013 X245.184 Y19.121
N2014 X244.974 Y19.098
N2015 X244.762 Y19.09
N2016 X175.961
N2017 Y0
N2018 X175.954 Y-0.207
N2019 X175.931 Y-0.413
N2020 X175.895 Y-0.616
N2021 X175.844 Y-0.817
N2022 X175.778 Y-1.013
N2023 X175.699 Y-1.205
N2024 X175.606 Y-1.39
N2025 X175.501 Y-1.568
N2026 X175.383 Y-1.738
N2027 X175.253 Y-1.899
N2028 X175.112 Y-2.051
N2029 X174.96 Y-2.192
N2030 X174.799 Y-2.322
N2031 X174.629 Y-2.44
N2032 X174.451 Y-2.545
N2033 X174.266 Y-2.638
N2034 X174.074 Y-2.717
N2035 X173.878 Y-2.783
N2036 X173.677 Y-2.834
N2037 X173.474 Y-2.87
N2038 X173.268 Y-2.893
N2039 X173.061 Y-2.9
N2040 X71.7
N2041 X71.493 Y-2.893
N2042 X71.288 Y-2.87
N2043 X71.084 Y-2.834
N2044 X70.883 Y-2.783
N2045 X70.687 Y-2.717
N2046 X70.496 Y-2.638
N2047 X70.31 Y-2.545
N2048 X70.132 Y-2.44
N2049 X69.962 Y-2.322
N2050 X69.801 Y-2.192
N2051 X69.65 Y-2.051
N2052 X69.509 Y-1.899
N2053 X69.379 Y-1.738
N2054 X69.261 Y-1.568
N2055 X69.155 Y-1.39
N2056 X69.062 Y-1.205
N2057 X68.983 Y-1.013
N2058 X68.918 Y-0.817
N2059 X68.867 Y-0.616
N2060 X68.83 Y-0.413
N2061 X68.808 Y-0.207
N2062 X68.8 Y0
N2063 Y19.09
N2064 X0
N2065 X-0.212 Y19.098
N2066 X-0.422 Y19.121
N2067 X-0.631 Y19.16
N2068 X-0.836 Y19.214
N2069 X-1.036 Y19.282
N2070 X-1.231 Y19.365
N2071 X-1.42 Y19.462
N2072 X-1.601 Y19.572
N2073 X-1.773 Y19.696
N2074 X-1.936 Y19.831
N2075 X-2.088 Y19.978
N2076 X-2.23 Y20.136
N2077 X-2.359 Y20.304
N2078 X-2.476 Y20.481
N2079 X-2.58 Y20.666
N2080 X-2.67 Y20.858
N2081 X-2.745 Y21.056
N2082 X-2.806 Y21.258
N2083 X-2.852 Y21.465
N2084 X-2.883 Y21.675
N2085 X-2.898 Y21.886
N2086 Y22.098
N2087 X-2.882 Y22.31
N2088 X-2.851 Y22.519
N2089 X-2.805 Y22.726
N2090 X-2.744 Y22.929
N2091 X-2.668 Y23.127
N2092 X-2.578 Y23.319
N2093 X-2.474 Y23.503
N2094 X39.328 Y91.868
N2095 X20.07
N2096 X19.858 Y91.876
N2097 X19.647 Y91.899
N2098 X19.439 Y91.937
N2099 X19.234 Y91.991
N2100 X19.033 Y92.059
N2101 X18.838 Y92.142
N2102 X18.65 Y92.239
N2103 X18.469 Y92.35
N2104 X18.297 Y92.473
N2105 X18.134 Y92.609
N2106 X17.981 Y92.756
N2107 X17.84 Y92.914
N2108 X17.71 Y93.081
N2109 X17.594 Y93.258
N2110 X17.49 Y93.443
N2111 X17.4 Y93.635
N2112 X17.324 Y93.833
N2113 X17.264 Y94.036
N2114 X17.218 Y94.243
N2115 X17.187 Y94.452
N2116 X17.171 Y94.664
N2117 X17.172 Y94.876
N2118 X17.187 Y95.087
N2119 X17.218 Y95.297
N2120 X17.264 Y95.503
N2121 X17.326 Y95.706
N2122 X17.401 Y95.904
N2123 X17.492 Y96.096
N2124 X17.595 Y96.281
N2125 X58.687 Y163.482
N2126 X38.639
N2127 X38.428 Y163.49
N2128 X38.217 Y163.513
N2129 X38.009 Y163.551
N2130 X37.804 Y163.605
N2131 X37.603 Y163.674
N2132 X37.408 Y163.756
N2133 X37.22 Y163.853
N2134 X37.039 Y163.964
N2135 X36.866 Y164.087
N2136 X36.704 Y164.223
N2137 X36.551 Y164.37
N2138 X36.41 Y164.528
N2139 X36.28 Y164.696
N2140 X36.163 Y164.872
N2141 X36.06 Y165.057
N2142 X35.97 Y165.249
N2143 X35.894 Y165.447
N2144 X35.833 Y165.65
N2145 X35.787 Y165.857
N2146 X35.757 Y166.067
N2147 X35.741 Y166.278
N2148 X35.742 Y166.49
N2149 X35.757 Y166.701
N2150 X35.788 Y166.911
N2151 X35.834 Y167.118
N2152 X35.896 Y167.32
N2153 X35.971 Y167.518
N2154 X36.062 Y167.71
N2155 X36.165 Y167.895
N2156 X68.791 Y221.251
N2157 X78.737 Y237.518
N2158 X60.332
N2159 X60.119 Y237.526
N2160 X59.909 Y237.549
N2161 X59.7 Y237.588
N2162 X59.494 Y237.641
N2163 X59.294 Y237.71
N2164 X59.098 Y237.793
N2165 X58.91 Y237.891
N2166 X58.729 Y238.001
N2167 X58.556 Y238.125
N2168 X58.393 Y238.261
N2169 X58.241 Y238.409
N2170 X58.099 Y238.567
N2171 X57.97 Y238.735
N2172 X57.853 Y238.912
N2173 X57.75 Y239.098
N2174 X57.66 Y239.29
N2175 X57.585 Y239.489
N2176 X57.524 Y239.692
N2177 X57.478 Y239.899
N2178 X57.448 Y240.109
N2179 X57.433 Y240.321
N2180 X57.434 Y240.533
N2181 X57.45 Y240.745
N2182 X57.482 Y240.955
N2183 X57.529 Y241.162
N2184 X57.591 Y241.365
N2185 X57.667 Y241.563
N2186 X57.758 Y241.755
N2187 X93.279 Y310.139
N2188 X79.666
N2189 X79.453 Y310.147
N2190 X79.242 Y310.17
N2191 X79.032 Y310.209
N2192 X78.827 Y310.263
N2193 X78.625 Y310.332
N2194 X78.43 Y310.416
N2195 X78.24 Y310.513
N2196 X78.059 Y310.625
N2197 X77.886 Y310.749
N2198 X77.723 Y310.886
N2199 X77.571 Y311.034
N2200 X77.429 Y311.193
N2201 X77.3 Y311.362
N2202 X77.183 Y311.54
N2203 X77.08 Y311.726
N2204 X76.991 Y311.919
N2205 X76.916 Y312.118
N2206 X76.856 Y312.323
N2207 X76.811 Y312.531
N2208 X76.781 Y312.741
N2209 X76.767 Y312.954
N2210 X76.769 Y313.167
N2211 X76.786 Y313.379
N2212 X76.818 Y313.589
N2213 X76.866 Y313.796
N2214 X76.929 Y314
N2215 X77.007 Y314.198
N2216 X77.099 Y314.389
N2217 X77.205 Y314.574
N2218 X110.871 Y368.535
N2219 X110.99 Y368.712
N2220 X111.123 Y368.88
N2221 X111.268 Y369.038
N2222 X111.424 Y369.185
N2223 X111.59 Y369.319
N2224 X111.766 Y369.441
N2225 X111.95 Y369.55
N2226 X112.142 Y369.645
N2227 X112.34 Y369.726
N2228 X112.544 Y369.791
N2229 X112.752 Y369.842
N2230 X112.963 Y369.877
N2231 X113.176 Y369.896
N2232 X113.39 Y369.899
N2233 X113.604 Y369.887
N2234 X113.816 Y369.859
N2235 X114.026 Y369.816
N2236 X114.232 Y369.757
N2237 X114.433 Y369.683
N2238 X114.627 Y369.594
N2239 X114.815 Y369.491
N2240 X114.995 Y369.375
N2241 X115.166 Y369.246
N2242 X115.326 Y369.105
N2243 X115.476 Y368.952
N2244 X115.614 Y368.788
N2245 X115.74 Y368.615
N2246 X115.852 Y368.433
N2247 X115.951 Y368.243
N2248 X116.036 Y368.046
N2249 X116.105 Y367.844
N2250 X116.16 Y367.637
N2251 X116.199 Y367.427
N2252 X116.223 Y367.214
N2253 X116.231 Y367
N2254 Y293.027
N2255 Y202.613 Z5.049 F2500
N2256 X116.224 Y202.41 Z5.047
N2257 X116.203 Y202.208 Z5.045
N2258 X116.167 Y202.008 Z5.043
N2259 X116.118 Y201.811 Z5.041
N2260 X116.055 Y201.618 Z5.039
N2261 X115.979 Y201.43 Z5.037
N2262 X115.89 Y201.248 Z5.034
N2263 X115.788 Y201.072 Z5.032
N2264 X115.674 Y200.904 Z5.03
N2265 X115.549 Y200.745 Z5.028
N2266 X115.413 Y200.594 Z5.026
N2267 X115.266 Y200.453 Z5.024
N2268 X115.111 Y200.323 Z5.022
N2269 X114.946 Y200.204 Z5.019
N2270 X114.92 Y200.179
N2271 X114.905 Y200.145
N2272 X114.903 Y200.108 Z5.018
N2273 X114.914 Y200.073
N2274 X114.938 Y200.045
N2275 X114.97 Y200.027 Z5.017
N2276 X115.006 Y200.021
N2277 X115.042 Y200.03 Z5.016
N2278 X115.072 Y200.051
N2279 X115.224 Y200.192 Z5.014
N2280 X115.385 Y200.322 Z5.012
N2281 X115.555 Y200.44 Z5.009
N2282 X115.733 Y200.545 Z5.007
N2283 X115.918 Y200.638 Z5.005
N2284 X116.11 Y200.717 Z5.003
N2285 X116.306 Y200.783 Z5.001
N2286 X116.507 Y200.834 Z4.999
N2287 X116.71 Y200.87 Z4.996
N2288 X116.916 Y200.893 Z4.994
N2289 X117.123 Y200.9 Z4.992
N2290 X127.188 Z4.886
N2291 X127.395 Y200.893 Z4.884
N2292 X127.601 Y200.87 Z4.882
N2293 X127.804 Y200.834 Z4.88
N2294 X128.005 Y200.783 Z4.878
N2295 X128.201 Y200.717 Z4.875
N2296 X128.392 Y200.638 Z4.873
N2297 X128.577 Y200.545 Z4.871
N2298 X128.755 Y200.44 Z4.869
N2299 X128.925 Y200.322 Z4.867
N2300 X129.087 Y200.192 Z4.864
N2301 X129.238 Y200.051 Z4.862
N2302 X129.271 Y200.029
N2303 X129.309 Y200.022 Z4.861
N2304 X129.347 Y200.029
N2305 X129.38 Y200.051
N2306 X129.402 Y200.084 Z4.86
N2307 X129.409 Y200.122
N2308 X129.402 Y200.16 Z4.859
N2309 X129.38 Y200.193
N2310 X129.239 Y200.344 Z4.857
N2311 X129.109 Y200.506 Z4.855
N2312 X128.991 Y200.676 Z4.852
N2313 X128.886 Y200.854 Z4.85
N2314 X128.793 Y201.039 Z4.848
N2315 X128.714 Y201.23 Z4.846
N2316 X128.648 Y201.426 Z4.844
N2317 X128.597 Y201.627 Z4.842
N2318 X128.561 Y201.83 Z4.839
N2319 X128.538 Y202.036 Z4.837
N2320 X128.531 Y202.243 Z4.835
N2321 Y367 Z3.103
N2322 X128.539 Y367.214 Z3.101
N2323 X128.563 Y367.427 Z3.098
N2324 X128.602 Y367.637 Z3.096
N2325 X128.657 Y367.844 Z3.094
N2326 X128.726 Y368.046 Z3.091
N2327 X128.811 Y368.243 Z3.089
N2328 X128.91 Y368.433 Z3.087
N2329 X129.022 Y368.615 Z3.085
N2330 X129.148 Y368.788 Z3.082
N2331 X129.286 Y368.952 Z3.08
N2332 X129.436 Y369.105 Z3.078
N2333 X129.596 Y369.246 Z3.076
N2334 X129.767 Y369.375 Z3.073
N2335 X129.947 Y369.491 Z3.071
N2336 X130.135 Y369.594 Z3.069
N2337 X130.329 Y369.683 Z3.067
N2338 X130.53 Y369.757 Z3.064
N2339 X130.736 Y369.816 Z3.062
N2340 X130.946 Y369.859 Z3.06
N2341 X131.158 Y369.887 Z3.058
N2342 X131.372 Y369.899 Z3.055
N2343 X131.586 Y369.896 Z3.053
N2344 X131.799 Y369.877 Z3.051
N2345 X132.01 Y369.842 Z3.049
N2346 X132.218 Y369.791 Z3.046
N2347 X132.422 Y369.726 Z3.044
N2348 X132.62 Y369.645 Z3.042
N2349 X132.812 Y369.55 Z3.04
N2350 X132.996 Y369.441 Z3.037
N2351 X133.172 Y369.319 Z3.035
N2352 X133.338 Y369.185 Z3.033
N2353 X133.494 Y369.038 Z3.031
N2354 X133.639 Y368.88 Z3.028
N2355 X133.772 Y368.712 Z3.026
N2356 X133.891 Y368.535 Z3.024
N2357 X135.098 Y366.601 Z3
N2358 X167.556 Y314.574 F2760
N2359 X167.662 Y314.389
N2360 X167.755 Y314.198
N2361 X167.832 Y314
N2362 X167.895 Y313.796
N2363 X167.943 Y313.589
N2364 X167.976 Y313.379
N2365 X167.993 Y313.167
N2366 X167.995 Y312.954
N2367 X167.981 Y312.741
N2368 X167.951 Y312.531
N2369 X167.906 Y312.323
N2370 X167.846 Y312.118
N2371 X167.771 Y311.919
N2372 X167.682 Y311.726
N2373 X167.579 Y311.54
N2374 X167.462 Y311.362
N2375 X167.333 Y311.193
N2376 X167.191 Y311.034
N2377 X167.039 Y310.886
N2378 X166.875 Y310.749
N2379 X166.703 Y310.625
N2380 X166.521 Y310.513
N2381 X166.332 Y310.416
N2382 X166.137 Y310.332
N2383 X165.935 Y310.263
N2384 X165.729 Y310.209
N2385 X165.52 Y310.17
N2386 X165.309 Y310.147
N2387 X165.096 Y310.139
N2388 X151.482
N2389 X187.004 Y241.755
N2390 X187.094 Y241.563
N2391 X187.171 Y241.365
N2392 X187.233 Y241.162
N2393 X187.28 Y240.955
N2394 X187.311 Y240.745
N2395 X187.328 Y240.533
N2396 Y240.321
N2397 X187.314 Y240.109
N2398 X187.283 Y239.899
N2399 X187.238 Y239.692
N2400 X187.177 Y239.489
N2401 X187.102 Y239.29
N2402 X187.012 Y239.098
N2403 X186.909 Y238.912
N2404 X186.792 Y238.735
N2405 X186.662 Y238.567
N2406 X186.521 Y238.409
N2407 X186.368 Y238.261
N2408 X186.205 Y238.125
N2409 X186.033 Y238.001
N2410 X185.852 Y237.891
N2411 X185.663 Y237.793
N2412 X185.468 Y237.71
N2413 X185.267 Y237.641
N2414 X185.062 Y237.588
N2415 X184.853 Y237.549
N2416 X184.642 Y237.526
N2417 X184.43 Y237.518
N2418 X166.024
N2419 X208.596 Y167.895
N2420 X208.7 Y167.71
N2421 X208.79 Y167.518
N2422 X208.866 Y167.32
N2423 X208.927 Y167.118
N2424 X208.973 Y166.911
N2425 X209.004 Y166.701
N2426 X209.02 Y166.49
N2427 Y166.278
N2428 X209.005 Y166.067
N2429 X208.974 Y165.857
N2430 X208.928 Y165.65
N2431 X208.867 Y165.447
N2432 X208.792 Y165.249
N2433 X208.702 Y165.057
N2434 X208.598 Y164.872
N2435 X208.481 Y164.696
N2436 X208.352 Y164.528
N2437 X208.21 Y164.37
N2438 X208.058 Y164.223
N2439 X207.895 Y164.087
N2440 X207.723 Y163.964
N2441 X207.542 Y163.853
N2442 X207.353 Y163.756
N2443 X207.158 Y163.674
N2444 X206.958 Y163.605
N2445 X206.753 Y163.551
N2446 X206.544 Y163.513
N2447 X206.334 Y163.49
N2448 X206.122 Y163.482
N2449 X186.075
N2450 X227.166 Y96.281
N2451 X227.27 Y96.096
N2452 X227.36 Y95.904
N2453 X227.436 Y95.706
N2454 X227.497 Y95.503
N2455 X227.543 Y95.297
N2456 X227.574 Y95.087
N2457 X227.59 Y94.876
N2458 Y94.664
N2459 X227.575 Y94.452
N2460 X227.544 Y94.243
N2461 X227.498 Y94.036
N2462 X227.437 Y93.833
N2463 X227.362 Y93.635
N2464 X227.272 Y93.443
N2465 X227.168 Y93.258
N2466 X227.051 Y93.081
N2467 X226.922 Y92.914
N2468 X226.78 Y92.756
N2469 X226.628 Y92.609
N2470 X226.465 Y92.473
N2471 X226.293 Y92.35
N2472 X226.112 Y92.239
N2473 X225.923 Y92.142
N2474 X225.728 Y92.059
N2475 X225.528 Y91.991
N2476 X225.323 Y91.937
N2477 X225.114 Y91.899
N2478 X224.904 Y91.876
N2479 X224.692 Y91.868
N2480 X205.433
N2481 X247.236 Y23.503
N2482 X247.34 Y23.319
N2483 X247.43 Y23.127
N2484 X247.506 Y22.929
N2485 X247.567 Y22.726
N2486 X247.613 Y22.519
N2487 X247.644 Y22.31
N2488 X247.66 Y22.098
N2489 Y21.886
N2490 X247.645 Y21.675
N2491 X247.614 Y21.465
N2492 X247.568 Y21.258
N2493 X247.507 Y21.056
N2494 X247.432 Y20.858
N2495 X247.342 Y20.666
N2496 X247.238 Y20.481
N2497 X247.121 Y20.304
N2498 X246.992 Y20.136
N2499 X246.85 Y19.978
N2500 X246.698 Y19.831
N2501 X246.535 Y19.696
N2502 X246.363 Y19.572
N2503 X246.182 Y19.462
N2504 X245.993 Y19.365
N2505 X245.798 Y19.282
N2506 X245.598 Y19.214
N2507 X245.393 Y19.16
N2508 X245.184 Y19.121
N2509 X244.974 Y19.098
N2510 X244.762 Y19.09
N2511 X175.961
N2512 Y0
N2513 X175.954 Y-0.207
N2514 X175.931 Y-0.413
N2515 X175.895 Y-0.616
N2516 X175.844 Y-0.817
N2517 X175.778 Y-1.013
N2518 X175.699 Y-1.205
N2519 X175.606 Y-1.39
N2520 X175.501 Y-1.568
N2521 X175.383 Y-1.738
N2522 X175.253 Y-1.899
N2523 X175.112 Y-2.051
N2524 X174.96 Y-2.192
N2525 X174.799 Y-2.322
N2526 X174.629 Y-2.44
N2527 X174.451 Y-2.545
N2528 X174.266 Y-2.638
N2529 X174.074 Y-2.717
N2530 X173.878 Y-2.783
N2531 X173.677 Y-2.834
N2532 X173.474 Y-2.87
N2533 X173.268 Y-2.893
N2534 X173.061 Y-2.9
N2535 X71.7
N2536 X71.493 Y-2.893
N2537 X71.288 Y-2.87
N2538 X71.084 Y-2.834
N2539 X70.883 Y-2.783
N2540 X70.687 Y-2.717
N2541 X70.496 Y-2.638
N2542 X70.31 Y-2.545
N2543 X70.132 Y-2.44
N2544 X69.962 Y-2.322
N2545 X69.801 Y-2.192
N2546 X69.65 Y-2.051
N2547 X69.509 Y-1.899
N2548 X69.379 Y-1.738
N2549 X69.261 Y-1.568
N2550 X69.155 Y-1.39
N2551 X69.062 Y-1.205
N2552 X68.983 Y-1.013
N2553 X68.918 Y-0.817
N2554 X68.867 Y-0.616
N2555 X68.83 Y-0.413
N2556 X68.808 Y-0.207
N2557 X68.8 Y0
N2558 Y19.09
N2559 X0
N2560 X-0.212 Y19.098
N2561 X-0.422 Y19.121
N2562 X-0.631 Y19.16
N2563 X-0.836 Y19.214
N2564 X-1.036 Y19.282
N2565 X-1.231 Y19.365
N2566 X-1.42 Y19.462
N2567 X-1.601 Y19.572
N2568 X-1.773 Y19.696
N2569 X-1.936 Y19.831
N2570 X-2.088 Y19.978
N2571 X-2.23 Y20.136
N2572 X-2.359 Y20.304
N2573 X-2.476 Y20.481
N2574 X-2.58 Y20.666
N2575 X-2.67 Y20.858
N2576 X-2.745 Y21.056
N2577 X-2.806 Y21.258
N2578 X-2.852 Y21.465
N2579 X-2.883 Y21.675
N2580 X-2.898 Y21.886
N2581 Y22.098
N2582 X-2.882 Y22.31
N2583 X-2.851 Y22.519
N2584 X-2.805 Y22.726
N2585 X-2.744 Y22.929
N2586 X-2.668 Y23.127
N2587 X-2.578 Y23.319
N2588 X-2.474 Y23.503
N2589 X39.328 Y91.868
N2590 X20.07
N2591 X19.858 Y91.876
N2592 X19.647 Y91.899
N2593 X19.439 Y91.937
N2594 X19.234 Y91.991
N2595 X19.033 Y92.059
N2596 X18.838 Y92.142
N2597 X18.65 Y92.239
N2598 X18.469 Y92.35
N2599 X18.297 Y92.473
N2600 X18.134 Y92.609
N2601 X17.981 Y92.756
N2602 X17.84 Y92.914
N2603 X17.71 Y93.081
N2604 X17.594 Y93.258
N2605 X17.49 Y93.443
N2606 X17.4 Y93.635
N2607 X17.324 Y93.833
N2608 X17.264 Y94.036
N2609 X17.218 Y94.243
N2610 X17.187 Y94.452
N2611 X17.171 Y94.664
N2612 X17.172 Y94.876
N2613 X17.187 Y95.087
N2614 X17.218 Y95.297
N2615 X17.264 Y95.503
N2616 X17.326 Y95.706
N2617 X17.401 Y95.904
N2618 X17.492 Y96.096
N2619 X17.595 Y96.281
N2620 X58.687 Y163.482
N2621 X38.639
N2622 X38.428 Y163.49
N2623 X38.217 Y163.513
N2624 X38.009 Y163.551
N2625 X37.804 Y163.605
N2626 X37.603 Y163.674
N2627 X37.408 Y163.756
N2628 X37.22 Y163.853
N2629 X37.039 Y163.964
N2630 X36.866 Y164.087
N2631 X36.704 Y164.223
N2632 X36.551 Y164.37
N2633 X36.41 Y164.528
N2634 X36.28 Y164.696
N2635 X36.163 Y164.872
N2636 X36.06 Y165.057
N2637 X35.97 Y165.249
N2638 X35.894 Y165.447
N2639 X35.833 Y165.65
N2640 X35.787 Y165.857
N2641 X35.757 Y166.067
N2642 X35.741 Y166.278
N2643 X35.742 Y166.49
N2644 X35.757 Y166.701
N2645 X35.788 Y166.911
N2646 X35.834 Y167.118
N2647 X35.896 Y167.32
N2648 X35.971 Y167.518
N2649 X36.062 Y167.71
N2650 X36.165 Y167.895
N2651 X78.737 Y237.518
N2652 X60.332
N2653 X60.119 Y237.526
N2654 X59.909 Y237.549
N2655 X59.7 Y237.588
N2656 X59.494 Y237.641
N2657 X59.294 Y237.71
N2658 X59.098 Y237.793
N2659 X58.91 Y237.891
N2660 X58.729 Y238.001
N2661 X58.556 Y238.125
N2662 X58.393 Y238.261
N2663 X58.241 Y238.409
N2664 X58.099 Y238.567
N2665 X57.97 Y238.735
N2666 X57.853 Y238.912
N2667 X57.75 Y239.098
N2668 X57.66 Y239.29
N2669 X57.585 Y239.489
N2670 X57.524 Y239.692
N2671 X57.478 Y239.899
N2672 X57.448 Y240.109
N2673 X57.433 Y240.321
N2674 X57.434 Y240.533
N2675 X57.45 Y240.745
N2676 X57.482 Y240.955
N2677 X57.529 Y241.162
N2678 X57.591 Y241.365
N2679 X57.667 Y241.563
N2680 X57.758 Y241.755
N2681 X93.279 Y310.139
N2682 X79.666
N2683 X79.453 Y310.147
N2684 X79.242 Y310.17
N2685 X79.032 Y310.209
N2686 X78.827 Y310.263
N2687 X78.625 Y310.332
N2688 X78.43 Y310.416
N2689 X78.24 Y310.513
N2690 X78.059 Y310.625
N2691 X77.886 Y310.749
N2692 X77.723 Y310.886
N2693 X77.571 Y311.034
N2694 X77.429 Y311.193
N2695 X77.3 Y311.362
N2696 X77.183 Y311.54
N2697 X77.08 Y311.726
N2698 X76.991 Y311.919
N2699 X76.916 Y312.118
N2700 X76.856 Y312.323
N2701 X76.811 Y312.531
N2702 X76.781 Y312.741
N2703 X76.767 Y312.954
N2704 X76.769 Y313.167
N2705 X76.786 Y313.379
N2706 X76.818 Y313.589
N2707 X76.866 Y313.796
N2708 X76.929 Y314
N2709 X77.007 Y314.198
N2710 X77.099 Y314.389
N2711 X77.205 Y314.574
N2712 X110.871 Y368.535
N2713 X110.99 Y368.712
N2714 X111.123 Y368.88
N2715 X111.268 Y369.038
N2716 X111.424 Y369.185
N2717 X111.59 Y369.319
N2718 X111.766 Y369.441
N2719 X111.95 Y369.55
N2720 X112.142 Y369.645
N2721 X112.34 Y369.726
N2722 X112.544 Y369.791
N2723 X112.752 Y369.842
N2724 X112.963 Y369.877
N2725 X113.176 Y369.896
N2726 X113.39 Y369.899
N2727 X113.604 Y369.887
N2728 X113.816 Y369.859
N2729 X114.026 Y369.816
N2730 X114.232 Y369.757
N2731 X114.433 Y369.683
N2732 X114.627 Y369.594
N2733 X114.815 Y369.491
N2734 X114.995 Y369.375
N2735 X115.166 Y369.246
N2736 X115.326 Y369.105
N2737 X115.476 Y368.952
N2738 X115.614 Y368.788
N2739 X115.74 Y368.615
N2740 X115.852 Y368.433
N2741 X115.951 Y368.243
N2742 X116.036 Y368.046
N2743 X116.105 Y367.844
N2744 X116.16 Y367.637
N2745 X116.199 Y367.427
N2746 X116.223 Y367.214
N2747 X116.231 Y367
N2748 Y202.613
N2749 X116.224 Y202.41
N2750 X116.203 Y202.208
N2751 X116.167 Y202.008
N2752 X116.118 Y201.811
N2753 X116.055 Y201.618
N2754 X115.979 Y201.43
N2755 X115.89 Y201.248
N2756 X115.788 Y201.072
N2757 X115.674 Y200.904
N2758 X115.549 Y200.745
N2759 X115.413 Y200.594
N2760 X115.266 Y200.453
N2761 X115.111 Y200.323
N2762 X114.946 Y200.204
N2763 X114.92 Y200.179
N2764 X114.905 Y200.145
N2765 X114.903 Y200.108
N2766 X114.914 Y200.073
N2767 X114.938 Y200.045
N2768 X114.97 Y200.027
N2769 X115.006 Y200.021
N2770 X115.042 Y200.03
N2771 X115.072 Y200.051
N2772 X115.224 Y200.192
N2773 X115.385 Y200.322
N2774 X115.555 Y200.44
N2775 X115.733 Y200.545
N2776 X115.918 Y200.638
N2777 X116.11 Y200.717
N2778 X116.306 Y200.783
N2779 X116.507 Y200.834
N2780 X116.71 Y200.87
N2781 X116.916 Y200.893
N2782 X117.123 Y200.9
N2783 X127.188
N2784 X127.395 Y200.893
N2785 X127.601 Y200.87
N2786 X127.804 Y200.834
N2787 X128.005 Y200.783
N2788 X128.201 Y200.717
N2789 X128.392 Y200.638
N2790 X128.577 Y200.545
N2791 X128.755 Y200.44
N2792 X128.925 Y200.322
N2793 X129.087 Y200.192
N2794 X129.238 Y200.051
N2795 X129.271 Y200.029
N2796 X129.309 Y200.022
N2797 X129.347 Y200.029
N2798 X129.38 Y200.051
N2799 X129.402 Y200.084
N2800 X129.409 Y200.122
N2801 X129.402 Y200.16
N2802 X129.38 Y200.193
N2803 X129.239 Y200.344
N2804 X129.109 Y200.506
N2805 X128.991 Y200.676
N2806 X128.886 Y200.854
N2807 X128.793 Y201.039
N2808 X128.714 Y201.23
N2809 X128.648 Y201.426
N2810 X128.597 Y201.627
N2811 X128.561 Y201.83
N2812 X128.538 Y202.036
N2813 X128.531 Y202.243
N2814 Y367
N2815 X128.539 Y367.214
N2816 X128.563 Y367.427
N2817 X128.602 Y367.637
N2818 X128.657 Y367.844
N2819 X128.726 Y368.046
N2820 X128.811 Y368.243
N2821 X128.91 Y368.433
N2822 X129.022 Y368.615
N2823 X129.148 Y368.788
N2824 X129.286 Y368.952
N2825 X129.436 Y369.105
N2826 X129.596 Y369.246
N2827 X129.767 Y369.375
N2828 X129.947 Y369.491
N2829 X130.135 Y369.594
N2830 X130.329 Y369.683
N2831 X130.53 Y369.757
N2832 X130.736 Y369.816
N2833 X130.946 Y369.859
N2834 X131.158 Y369.887
N2835 X131.372 Y369.899
N2836 X131.586 Y369.896
N2837 X131.799 Y369.877
N2838 X132.01 Y369.842
N2839 X132.218 Y369.791
N2840 X132.422 Y369.726
N2841 X132.62 Y369.645
N2842 X132.812 Y369.55
N2843 X132.996 Y369.441
N2844 X133.172 Y369.319
N2845 X133.338 Y369.185
N2846 X133.494 Y369.038
N2847 X133.639 Y368.88
N2848 X133.772 Y368.712
N2849 X133.891 Y368.535
N2850 X135.098 Y366.601
N2851 X167.556 Y314.574 Z2.355 F2500
N2852 X167.662 Y314.389 Z2.353
N2853 X167.755 Y314.198 Z2.351
N2854 X167.832 Y314 Z2.349
N2855 X167.895 Y313.796 Z2.346
N2856 X167.943 Y313.589 Z2.344
N2857 X167.976 Y313.379 Z2.342
N2858 X167.993 Y313.167 Z2.34
N2859 X167.995 Y312.954 Z2.337
N2860 X167.981 Y312.741 Z2.335
N2861 X167.951 Y312.531 Z2.333
N2862 X167.906 Y312.323 Z2.331
N2863 X167.846 Y312.118 Z2.328
N2864 X167.771 Y311.919 Z2.326
N2865 X167.682 Y311.726 Z2.324
N2866 X167.579 Y311.54 Z2.322
N2867 X167.462 Y311.362 Z2.319
N2868 X167.333 Y311.193 Z2.317
N2869 X167.191 Y311.034 Z2.315
N2870 X167.039 Y310.886 Z2.313
N2871 X166.875 Y310.749 Z2.31
N2872 X166.703 Y310.625 Z2.308
N2873 X166.521 Y310.513 Z2.306
N2874 X166.332 Y310.416 Z2.304
N2875 X166.137 Y310.332 Z2.302
N2876 X165.935 Y310.263 Z2.299
N2877 X165.729 Y310.209 Z2.297
N2878 X165.52 Y310.17 Z2.295
N2879 X165.309 Y310.147 Z2.293
N2880 X165.096 Y310.139 Z2.29
N2881 X151.482 Z2.147
N2882 X187.004 Y241.755 Z1.337
N2883 X187.094 Y241.563 Z1.335
N2884 X187.171 Y241.365 Z1.333
N2885 X187.233 Y241.162 Z1.33
N2886 X187.28 Y240.955 Z1.328
N2887 X187.311 Y240.745 Z1.326
N2888 X187.328 Y240.533 Z1.324
N2889 Y240.321 Z1.321
N2890 X187.314 Y240.109 Z1.319
N2891 X187.283 Y239.899 Z1.317
N2892 X187.238 Y239.692 Z1.315
N2893 X187.177 Y239.489 Z1.312
N2894 X187.102 Y239.29 Z1.31
N2895 X187.012 Y239.098 Z1.308
N2896 X186.909 Y238.912 Z1.306
N2897 X186.792 Y238.735 Z1.304
N2898 X186.662 Y238.567 Z1.301
N2899 X186.521 Y238.409 Z1.299
N2900 X186.368 Y238.261 Z1.297
N2901 X186.205 Y238.125 Z1.295
N2902 X186.033 Y238.001 Z1.292
N2903 X185.852 Y237.891 Z1.29
N2904 X185.663 Y237.793 Z1.288
N2905 X185.468 Y237.71 Z1.286
N2906 X185.267 Y237.641 Z1.283
N2907 X185.062 Y237.588 Z1.281
N2908 X184.853 Y237.549 Z1.279
N2909 X184.642 Y237.526 Z1.277
N2910 X184.43 Y237.518 Z1.275
N2911 X166.024 Z1.081
N2912 X208.596 Y167.895 Z0.223
N2913 X208.694 Y167.722 Z0.221
N2914 X208.779 Y167.543 Z0.219
N2915 X208.853 Y167.359 Z0.217
N2916 X208.913 Y167.169 Z0.215
N2917 X208.96 Y166.977 Z0.213
N2918 X208.994 Y166.781 Z0.21
N2919 X209.015 Y166.584 Z0.208
N2920 X209.022 Y166.385 Z0.206
N2921 X209.015 Y166.187 Z0.204
N2922 X208.995 Y165.99 Z0.202
N2923 X208.962 Y165.794 Z0.2
N2924 X208.912 Y165.592 F2760
N2925 X208.848 Y165.393
N2926 X208.77 Y165.2
N2927 X208.678 Y165.012
N2928 X208.573 Y164.832
N2929 X208.455 Y164.66
N2930 X208.326 Y164.497
N2931 X208.185 Y164.343
N2932 X208.033 Y164.2
N2933 X207.871 Y164.069
N2934 X207.7 Y163.949
N2935 X207.521 Y163.842
N2936 X207.335 Y163.748
N2937 X207.143 Y163.668
N2938 X206.945 Y163.601
N2939 X206.743 Y163.549
N2940 X206.538 Y163.512
N2941 X206.33 Y163.489
N2942 X206.122 Y163.482
N2943 X186.075
N2944 X227.166 Y96.281
N2945 X227.27 Y96.096
N2946 X227.36 Y95.904
N2947 X227.436 Y95.706
N2948 X227.497 Y95.503
N2949 X227.543 Y95.297
N2950 X227.574 Y95.087
N2951 X227.59 Y94.876
N2952 Y94.664
N2953 X227.575 Y94.452
N2954 X227.544 Y94.243
N2955 X227.498 Y94.036
N2956 X227.437 Y93.833
N2957 X227.362 Y93.635
N2958 X227.272 Y93.443
N2959 X227.168 Y93.258
N2960 X227.051 Y93.081
N2961 X226.922 Y92.914
N2962 X226.78 Y92.756
N2963 X226.628 Y92.609
N2964 X226.465 Y92.473
N2965 X226.293 Y92.35
N2966 X226.112 Y92.239
N2967 X225.923 Y92.142
N2968 X225.728 Y92.059
N2969 X225.528 Y91.991
N2970 X225.323 Y91.937
N2971 X225.114 Y91.899
N2972 X224.904 Y91.876
N2973 X224.692 Y91.868
N2974 X205.433
N2975 X247.236 Y23.503
N2976 X247.34 Y23.319
N2977 X247.43 Y23.127
N2978 X247.506 Y22.929
N2979 X247.567 Y22.726
N2980 X247.613 Y22.519
N2981 X247.644 Y22.31
N2982 X247.66 Y22.098
N2983 Y21.886
N2984 X247.645 Y21.675
N2985 X247.614 Y21.465
N2986 X247.568 Y21.258
N2987 X247.507 Y21.056
N2988 X247.432 Y20.858
N2989 X247.342 Y20.666
N2990 X247.238 Y20.481
N2991 X247.121 Y20.304
N2992 X246.992 Y20.136
N2993 X246.85 Y19.978
N2994 X246.698 Y19.831
N2995 X246.535 Y19.696
N2996 X246.363 Y19.572
N2997 X246.182 Y19.462
N2998 X245.993 Y19.365
N2999 X245.798 Y19.282
N3000 X245.598 Y19.214
N3001 X245.393 Y19.16
N3002 X245.184 Y19.121
N3003 X244.974 Y19.098
N3004 X244.762 Y19.09
N3005 X175.961
N3006 Y0
N3007 X175.954 Y-0.207
N3008 X175.931 Y-0.413
N3009 X175.895 Y-0.616
N3010 X175.844 Y-0.817
N3011 X175.778 Y-1.013
N3012 X175.699 Y-1.205
N3013 X175.606 Y-1.39
N3014 X175.501 Y-1.568
N3015 X175.383 Y-1.738
N3016 X175.253 Y-1.899
N3017 X175.112 Y-2.051
N3018 X174.96 Y-2.192
N3019 X174.799 Y-2.322
N3020 X174.629 Y-2.44
N3021 X174.451 Y-2.545
N3022 X174.266 Y-2.638
N3023 X174.074 Y-2.717
N3024 X173.878 Y-2.783
N3025 X173.677 Y-2.834
N3026 X173.474 Y-2.87
N3027 X173.268 Y-2.893
N3028 X173.061 Y-2.9
N3029 X71.7
N3030 X71.493 Y-2.893
N3031 X71.288 Y-2.87
N3032 X71.084 Y-2.834
N3033 X70.883 Y-2.783
N3034 X70.687 Y-2.717
N3035 X70.496 Y-2.638
N3036 X70.31 Y-2.545
N3037 X70.132 Y-2.44
N3038 X69.962 Y-2.322
N3039 X69.801 Y-2.192
N3040 X69.65 Y-2.051
N3041 X69.509 Y-1.899
N3042 X69.379 Y-1.738
N3043 X69.261 Y-1.568
N3044 X69.155 Y-1.39
N3045 X69.062 Y-1.205
N3046 X68.983 Y-1.013
N3047 X68.918 Y-0.817
N3048 X68.867 Y-0.616
N3049 X68.83 Y-0.413
N3050 X68.808 Y-0.207
N3051 X68.8 Y0
N3052 Y19.09
N3053 X0
N3054 X-0.212 Y19.098
N3055 X-0.422 Y19.121
N3056 X-0.631 Y19.16
N3057 X-0.836 Y19.214
N3058 X-1.036 Y19.282
N3059 X-1.231 Y19.365
N3060 X-1.42 Y19.462
N3061 X-1.601 Y19.572
N3062 X-1.773 Y19.696
N3063 X-1.936 Y19.831
N3064 X-2.088 Y19.978
N3065 X-2.23 Y20.136
N3066 X-2.359 Y20.304
N3067 X-2.476 Y20.481
N3068 X-2.58 Y20.666
N3069 X-2.67 Y20.858
N3070 X-2.745 Y21.056
N3071 X-2.806 Y21.258
N3072 X-2.852 Y21.465
N3073 X-2.883 Y21.675
N3074 X-2.898 Y21.886
N3075 Y22.098
N3076 X-2.882 Y22.31
N3077 X-2.851 Y22.519
N3078 X-2.805 Y22.726
N3079 X-2.744 Y22.929
N3080 X-2.668 Y23.127
N3081 X-2.578 Y23.319
N3082 X-2.474 Y23.503
N3083 X39.328 Y91.868
N3084 X20.07
N3085 X19.858 Y91.876
N3086 X19.647 Y91.899
N3087 X19.439 Y91.937
N3088 X19.234 Y91.991
N3089 X19.033 Y92.059
N3090 X18.838 Y92.142
N3091 X18.65 Y92.239
N3092 X18.469 Y92.35
N3093 X18.297 Y92.473
N3094 X18.134 Y92.609
N3095 X17.981 Y92.756
N3096 X17.84 Y92.914
N3097 X17.71 Y93.081
N3098 X17.594 Y93.258
N3099 X17.49 Y93.443
N3100 X17.4 Y93.635
N3101 X17.324 Y93.833
N3102 X17.264 Y94.036
N3103 X17.218 Y94.243
N3104 X17.187 Y94.452
N3105 X17.171 Y94.664
N3106 X17.172 Y94.876
N3107 X17.187 Y95.087
N3108 X17.218 Y95.297
N3109 X17.264 Y95.503
N3110 X17.326 Y95.706
N3111 X17.401 Y95.904
N3112 X17.492 Y96.096
N3113 X17.595 Y96.281
N3114 X58.687 Y163.482
N3115 X38.639
N3116 X38.428 Y163.49
N3117 X38.217 Y163.513
N3118 X38.009 Y163.551
N3119 X37.804 Y163.605
N3120 X37.603 Y163.674
N3121 X37.408 Y163.756
N3122 X37.22 Y163.853
N3123 X37.039 Y163.964
N3124 X36.866 Y164.087
N3125 X36.704 Y164.223
N3126 X36.551 Y164.37
N3127 X36.41 Y164.528
N3128 X36.28 Y164.696
N3129 X36.163 Y164.872
N3130 X36.06 Y165.057
N3131 X35.97 Y165.249
N3132 X35.894 Y165.447
N3133 X35.833 Y165.65
N3134 X35.787 Y165.857
N3135 X35.757 Y166.067
N3136 X35.741 Y166.278
N3137 X35.742 Y166.49
N3138 X35.757 Y166.701
N3139 X35.788 Y166.911
N3140 X35.834 Y167.118
N3141 X35.896 Y167.32
N3142 X35.971 Y167.518
N3143 X36.062 Y167.71
N3144 X36.165 Y167.895
N3145 X78.737 Y237.518
N3146 X60.332
N3147 X60.119 Y237.526
N3148 X59.909 Y237.549
N3149 X59.7 Y237.588
N3150 X59.494 Y237.641
N3151 X59.294 Y237.71
N3152 X59.098 Y237.793
N3153 X58.91 Y237.891
N3154 X58.729 Y238.001
N3155 X58.556 Y238.125
N3156 X58.393 Y238.261
N3157 X58.241 Y238.409
N3158 X58.099 Y238.567
N3159 X57.97 Y238.735
N3160 X57.853 Y238.912
N3161 X57.75 Y239.098
N3162 X57.66 Y239.29
N3163 X57.585 Y239.489
N3164 X57.524 Y239.692
N3165 X57.478 Y239.899
N3166 X57.448 Y240.109
N3167 X57.433 Y240.321
N3168 X57.434 Y240.533
N3169 X57.45 Y240.745
N3170 X57.482 Y240.955
N3171 X57.529 Y241.162
N3172 X57.591 Y241.365
N3173 X57.667 Y241.563
N3174 X57.758 Y241.755
N3175 X93.279 Y310.139
N3176 X79.666
N3177 X79.453 Y310.147
N3178 X79.242 Y310.17
N3179 X79.032 Y310.209
N3180 X78.827 Y310.263
N3181 X78.625 Y310.332
N3182 X78.43 Y310.416
N3183 X78.24 Y310.513
N3184 X78.059 Y310.625
N3185 X77.886 Y310.749
N3186 X77.723 Y310.886
N3187 X77.571 Y311.034
N3188 X77.429 Y311.193
N3189 X77.3 Y311.362
N3190 X77.183 Y311.54
N3191 X77.08 Y311.726
N3192 X76.991 Y311.919
N3193 X76.916 Y312.118
N3194 X76.856 Y312.323
N3195 X76.811 Y312.531
N3196 X76.781 Y312.741
N3197 X76.767 Y312.954
N3198 X76.769 Y313.167
N3199 X76.786 Y313.379
N3200 X76.818 Y313.589
N3201 X76.866 Y313.796
N3202 X76.929 Y314
N3203 X77.007 Y314.198
N3204 X77.099 Y314.389
N3205 X77.205 Y314.574
N3206 X110.871 Y368.535
N3207 X110.99 Y368.712
N3208 X111.123 Y368.88
N3209 X111.268 Y369.038
N3210 X111.424 Y369.185
N3211 X111.59 Y369.319
N3212 X111.766 Y369.441
N3213 X111.95 Y369.55
N3214 X112.142 Y369.645
N3215 X112.34 Y369.726
N3216 X112.544 Y369.791
N3217 X112.752 Y369.842
N3218 X112.963 Y369.877
N3219 X113.176 Y369.896
N3220 X113.39 Y369.899
N3221 X113.604 Y369.887
N3222 X113.816 Y369.859
N3223 X114.026 Y369.816
N3224 X114.232 Y369.757
N3225 X114.433 Y369.683
N3226 X114.627 Y369.594
N3227 X114.815 Y369.491
N3228 X114.995 Y369.375
N3229 X115.166 Y369.246
N3230 X115.326 Y369.105
N3231 X115.476 Y368.952
N3232 X115.614 Y368.788
N3233 X115.74 Y368.615
N3234 X115.852 Y368.433
N3235 X115.951 Y368.243
N3236 X116.036 Y368.046
N3237 X116.105 Y367.844
N3238 X116.16 Y367.637
N3239 X116.199 Y367.427
N3240 X116.223 Y367.214
N3241 X116.231 Y367
N3242 Y202.613
N3243 X116.224 Y202.41
N3244 X116.203 Y202.208
N3245 X116.167 Y202.008
N3246 X116.118 Y201.811
N3247 X116.055 Y201.618
N3248 X115.979 Y201.43
N3249 X115.89 Y201.248
N3250 X115.788 Y201.072
N3251 X115.674 Y200.904
N3252 X115.549 Y200.745
N3253 X115.413 Y200.594
N3254 X115.266 Y200.453
N3255 X115.111 Y200.323
N3256 X114.946 Y200.204
N3257 X114.92 Y200.179
N3258 X114.905 Y200.145
N3259 X114.903 Y200.108
N3260 X114.914 Y200.073
N3261 X114.938 Y200.045
N3262 X114.97 Y200.027
N3263 X115.006 Y200.021
N3264 X115.042 Y200.03
N3265 X115.072 Y200.051
N3266 X115.224 Y200.192
N3267 X115.385 Y200.322
N3268 X115.555 Y200.44
N3269 X115.733 Y200.545
N3270 X115.918 Y200.638
N3271 X116.11 Y200.717
N3272 X116.306 Y200.783
N3273 X116.507 Y200.834
N3274 X116.71 Y200.87
N3275 X116.916 Y200.893
N3276 X117.123 Y200.9
N3277 X127.188
N3278 X127.395 Y200.893
N3279 X127.601 Y200.87
N3280 X127.804 Y200.834
N3281 X128.005 Y200.783
N3282 X128.201 Y200.717
N3283 X128.392 Y200.638
N3284 X128.577 Y200.545
N3285 X128.755 Y200.44
N3286 X128.925 Y200.322
N3287 X129.087 Y200.192
N3288 X129.238 Y200.051
N3289 X129.271 Y200.029
N3290 X129.309 Y200.022
N3291 X129.347 Y200.029
N3292 X129.38 Y200.051
N3293 X129.402 Y200.084
N3294 X129.409 Y200.122
N3295 X129.402 Y200.16
N3296 X129.38 Y200.193
N3297 X129.239 Y200.344
N3298 X129.109 Y200.506
N3299 X128.991 Y200.676
N3300 X128.886 Y200.854
N3301 X128.793 Y201.039
N3302 X128.714 Y201.23
N3303 X128.648 Y201.426
N3304 X128.597 Y201.627
N3305 X128.561 Y201.83
N3306 X128.538 Y202.036
N3307 X128.531 Y202.243
N3308 Y367
N3309 X128.539 Y367.214
N3310 X128.563 Y367.427
N3311 X128.602 Y367.637
N3312 X128.657 Y367.844
N3313 X128.726 Y368.046
N3314 X128.811 Y368.243
N3315 X128.91 Y368.433
N3316 X129.022 Y368.615
N3317 X129.148 Y368.788
N3318 X129.286 Y368.952
N3319 X129.436 Y369.105
N3320 X129.596 Y369.246
N3321 X129.767 Y369.375
N3322 X129.947 Y369.491
N3323 X130.135 Y369.594
N3324 X130.329 Y369.683
N3325 X130.53 Y369.757
N3326 X130.736 Y369.816
N3327 X130.946 Y369.859
N3328 X131.158 Y369.887
N3329 X131.372 Y369.899
N3330 X131.586 Y369.896
N3331 X131.799 Y369.877
N3332 X132.01 Y369.842
N3333 X132.218 Y369.791
N3334 X132.422 Y369.726
N3335 X132.62 Y369.645
N3336 X132.812 Y369.55
N3337 X132.996 Y369.441
N3338 X133.172 Y369.319
N3339 X133.338 Y369.185
N3340 X133.494 Y369.038
N3341 X133.639 Y368.88
N3342 X133.772 Y368.712
N3343 X133.891 Y368.535
N3344 X167.556 Y314.574
N3345 X167.662 Y314.389
N3346 X167.755 Y314.198
N3347 X167.832 Y314
N3348 X167.895 Y313.796
N3349 X167.943 Y313.589
N3350 X167.976 Y313.379
N3351 X167.993 Y313.167
N3352 X167.995 Y312.954
N3353 X167.981 Y312.741
N3354 X167.951 Y312.531
N3355 X167.906 Y312.323
N3356 X167.846 Y312.118
N3357 X167.771 Y311.919
N3358 X167.682 Y311.726
N3359 X167.579 Y311.54
N3360 X167.462 Y311.362
N3361 X167.333 Y311.193
N3362 X167.191 Y311.034
N3363 X167.039 Y310.886
N3364 X166.875 Y310.749
N3365 X166.703 Y310.625
N3366 X166.521 Y310.513
N3367 X166.332 Y310.416
N3368 X166.137 Y310.332
N3369 X165.935 Y310.263
N3370 X165.729 Y310.209
N3371 X165.52 Y310.17
N3372 X165.309 Y310.147
N3373 X165.096 Y310.139
N3374 X151.482
N3375 X187.004 Y241.755
N3376 X187.094 Y241.563
N3377 X187.171 Y241.365
N3378 X187.233 Y241.162
N3379 X187.28 Y240.955
N3380 X187.311 Y240.745
N3381 X187.328 Y240.533
N3382 Y240.321
N3383 X187.314 Y240.109
N3384 X187.283 Y239.899
N3385 X187.238 Y239.692
N3386 X187.177 Y239.489
N3387 X187.102 Y239.29
N3388 X187.012 Y239.098
N3389 X186.909 Y238.912
N3390 X186.792 Y238.735
N3391 X186.662 Y238.567
N3392 X186.521 Y238.409
N3393 X186.368 Y238.261
N3394 X186.205 Y238.125
N3395 X186.033 Y238.001
N3396 X185.852 Y237.891
N3397 X185.663 Y237.793
N3398 X185.468 Y237.71
N3399 X185.267 Y237.641
N3400 X185.062 Y237.588
N3401 X184.853 Y237.549
N3402 X184.642 Y237.526
N3403 X184.43 Y237.518
N3404 X166.024
N3405 X208.596 Y167.895
N3406 X208.694 Y167.722
N3407 X208.779 Y167.543
N3408 X208.853 Y167.359
N3409 X208.913 Y167.169
N3410 X208.96 Y166.977
N3411 X208.994 Y166.781
N3412 X209.015 Y166.584
N3413 X209.022 Y166.385
N3414 X209.015 Y166.187
N3415 X208.995 Y165.99
N3416 X208.962 Y165.794
N3417 G0 Z33
N3418 M5
N3419 M0
%
