%
(40-B)
(T2  D=6 CR=0 - ZMIN=0.2 - flat end mill)
N1 G90
N2 G21

(2D Contour6)
N3 T2
N4 S20000 M3
N5 G0 X20.668 Y19.09
N6 Z33
N7 Z23
N8 G1 Z22 F1000
N9 Z20.5
N10 X0 Z16.107 F2500
N11 X-0.208 Y19.098 Z16.063
N12 X-0.415 Y19.12 Z16.018
N13 X-0.62 Y19.158 Z15.974
N14 X-0.822 Y19.209 Z15.93
N15 X-1.019 Y19.276 Z15.886
N16 X-1.212 Y19.356 Z15.841
N17 X-1.398 Y19.449 Z15.797
N18 X-1.576 Y19.556 Z15.753
N19 X-1.747 Y19.676 Z15.708
N20 X-1.909 Y19.807 Z15.664
N21 X-2.06 Y19.95 Z15.62
N22 X-2.202 Y20.103 Z15.576
N23 X-2.331 Y20.266 Z15.531
N24 X-2.449 Y20.437 Z15.487
N25 X-2.554 Y20.617 Z15.443
N26 X-2.646 Y20.804 Z15.399
N27 X-2.725 Y20.997 Z15.354
N28 X-2.789 Y21.195 Z15.31
N29 X-2.839 Y21.397 Z15.266
N30 X-2.874 Y21.603 Z15.221
N31 X-2.894 Y21.81 Z15.177
N32 X-2.9 Y22.018 Z15.133
N33 X-2.89 Y22.226 Z15.089
N34 X-2.866 Y22.433 Z15.044
N35 X-2.827 Y22.638 Z15
N36 X-2.779 Y22.819 F2760
N37 X-2.72 Y22.997
N38 X-2.649 Y23.171
N39 X-2.567 Y23.34
N40 X-2.474 Y23.503
N41 X39.328 Y91.868
N42 X20.07
N43 X19.858 Y91.876
N44 X19.647 Y91.899
N45 X19.439 Y91.937
N46 X19.234 Y91.991
N47 X19.033 Y92.059
N48 X18.838 Y92.142
N49 X18.65 Y92.239
N50 X18.469 Y92.35
N51 X18.297 Y92.473
N52 X18.134 Y92.609
N53 X17.981 Y92.756
N54 X17.84 Y92.914
N55 X17.71 Y93.081
N56 X17.594 Y93.258
N57 X17.49 Y93.443
N58 X17.4 Y93.635
N59 X17.324 Y93.833
N60 X17.264 Y94.036
N61 X17.218 Y94.243
N62 X17.187 Y94.452
N63 X17.171 Y94.664
N64 X17.172 Y94.876
N65 X17.187 Y95.087
N66 X17.218 Y95.297
N67 X17.264 Y95.503
N68 X17.326 Y95.706
N69 X17.401 Y95.904
N70 X17.492 Y96.096
N71 X17.595 Y96.281
N72 X58.687 Y163.482
N73 X38.639
N74 X38.428 Y163.49
N75 X38.217 Y163.513
N76 X38.009 Y163.551
N77 X37.804 Y163.605
N78 X37.603 Y163.674
N79 X37.408 Y163.756
N80 X37.22 Y163.853
N81 X37.039 Y163.964
N82 X36.866 Y164.087
N83 X36.704 Y164.223
N84 X36.551 Y164.37
N85 X36.41 Y164.528
N86 X36.28 Y164.696
N87 X36.163 Y164.872
N88 X36.06 Y165.057
N89 X35.97 Y165.249
N90 X35.894 Y165.447
N91 X35.833 Y165.65
N92 X35.787 Y165.857
N93 X35.757 Y166.067
N94 X35.741 Y166.278
N95 X35.742 Y166.49
N96 X35.757 Y166.701
N97 X35.788 Y166.911
N98 X35.834 Y167.118
N99 X35.896 Y167.32
N100 X35.971 Y167.518
N101 X36.062 Y167.71
N102 X36.165 Y167.895
N103 X78.737 Y237.518
N104 X60.332
N105 X60.119 Y237.526
N106 X59.909 Y237.549
N107 X59.7 Y237.588
N108 X59.494 Y237.641
N109 X59.294 Y237.71
N110 X59.098 Y237.793
N111 X58.91 Y237.891
N112 X58.729 Y238.001
N113 X58.556 Y238.125
N114 X58.393 Y238.261
N115 X58.241 Y238.409
N116 X58.099 Y238.567
N117 X57.97 Y238.735
N118 X57.853 Y238.912
N119 X57.75 Y239.098
N120 X57.66 Y239.29
N121 X57.585 Y239.489
N122 X57.524 Y239.692
N123 X57.478 Y239.899
N124 X57.448 Y240.109
N125 X57.433 Y240.321
N126 X57.434 Y240.533
N127 X57.45 Y240.745
N128 X57.482 Y240.955
N129 X57.529 Y241.162
N130 X57.591 Y241.365
N131 X57.667 Y241.563
N132 X57.758 Y241.755
N133 X93.279 Y310.139
N134 X79.666
N135 X79.453 Y310.147
N136 X79.242 Y310.17
N137 X79.032 Y310.209
N138 X78.827 Y310.263
N139 X78.625 Y310.332
N140 X78.43 Y310.416
N141 X78.24 Y310.513
N142 X78.059 Y310.625
N143 X77.886 Y310.749
N144 X77.723 Y310.886
N145 X77.571 Y311.034
N146 X77.429 Y311.193
N147 X77.3 Y311.362
N148 X77.183 Y311.54
N149 X77.08 Y311.726
N150 X76.991 Y311.919
N151 X76.916 Y312.118
N152 X76.856 Y312.323
N153 X76.811 Y312.531
N154 X76.781 Y312.741
N155 X76.767 Y312.954
N156 X76.769 Y313.167
N157 X76.786 Y313.379
N158 X76.818 Y313.589
N159 X76.866 Y313.796
N160 X76.929 Y314
N161 X77.007 Y314.198
N162 X77.099 Y314.389
N163 X77.205 Y314.574
N164 X119.921 Y383.041
N165 X120.038 Y383.215
N166 X120.168 Y383.38
N167 X120.309 Y383.535
N168 X120.461 Y383.679
N169 X120.623 Y383.813
N170 X120.794 Y383.934
N171 X120.974 Y384.042
N172 X121.161 Y384.137
N173 X121.355 Y384.218
N174 X121.553 Y384.285
N175 X121.756 Y384.338
N176 X121.963 Y384.376
N177 X122.171 Y384.398
N178 X122.381 Y384.406
N179 X122.591 Y384.398
N180 X122.799 Y384.376
N181 X123.006 Y384.338
N182 X123.209 Y384.285
N183 X123.407 Y384.218
N184 X123.601 Y384.137
N185 X123.788 Y384.042
N186 X123.968 Y383.934
N187 X124.139 Y383.813
N188 X124.301 Y383.679
N189 X124.453 Y383.535
N190 X124.594 Y383.38
N191 X124.724 Y383.215
N192 X124.841 Y383.041
N193 X167.556 Y314.574
N194 X167.662 Y314.389
N195 X167.755 Y314.198
N196 X167.832 Y314
N197 X167.895 Y313.796
N198 X167.943 Y313.589
N199 X167.976 Y313.379
N200 X167.993 Y313.167
N201 X167.995 Y312.954
N202 X167.981 Y312.741
N203 X167.951 Y312.531
N204 X167.906 Y312.323
N205 X167.846 Y312.118
N206 X167.771 Y311.919
N207 X167.682 Y311.726
N208 X167.579 Y311.54
N209 X167.462 Y311.362
N210 X167.333 Y311.193
N211 X167.191 Y311.034
N212 X167.039 Y310.886
N213 X166.875 Y310.749
N214 X166.703 Y310.625
N215 X166.521 Y310.513
N216 X166.332 Y310.416
N217 X166.137 Y310.332
N218 X165.935 Y310.263
N219 X165.729 Y310.209
N220 X165.52 Y310.17
N221 X165.309 Y310.147
N222 X165.096 Y310.139
N223 X151.482
N224 X187.004 Y241.755
N225 X187.094 Y241.563
N226 X187.171 Y241.365
N227 X187.233 Y241.162
N228 X187.28 Y240.955
N229 X187.311 Y240.745
N230 X187.328 Y240.533
N231 Y240.321
N232 X187.314 Y240.109
N233 X187.283 Y239.899
N234 X187.238 Y239.692
N235 X187.177 Y239.489
N236 X187.102 Y239.29
N237 X187.012 Y239.098
N238 X186.909 Y238.912
N239 X186.792 Y238.735
N240 X186.662 Y238.567
N241 X186.521 Y238.409
N242 X186.368 Y238.261
N243 X186.205 Y238.125
N244 X186.033 Y238.001
N245 X185.852 Y237.891
N246 X185.663 Y237.793
N247 X185.468 Y237.71
N248 X185.267 Y237.641
N249 X185.062 Y237.588
N250 X184.853 Y237.549
N251 X184.642 Y237.526
N252 X184.43 Y237.518
N253 X166.024
N254 X208.596 Y167.895
N255 X208.7 Y167.71
N256 X208.79 Y167.518
N257 X208.866 Y167.32
N258 X208.927 Y167.118
N259 X208.973 Y166.911
N260 X209.004 Y166.701
N261 X209.02 Y166.49
N262 Y166.278
N263 X209.005 Y166.067
N264 X208.974 Y165.857
N265 X208.928 Y165.65
N266 X208.867 Y165.447
N267 X208.792 Y165.249
N268 X208.702 Y165.057
N269 X208.598 Y164.872
N270 X208.481 Y164.696
N271 X208.352 Y164.528
N272 X208.21 Y164.37
N273 X208.058 Y164.223
N274 X207.895 Y164.087
N275 X207.723 Y163.964
N276 X207.542 Y163.853
N277 X207.353 Y163.756
N278 X207.158 Y163.674
N279 X206.958 Y163.605
N280 X206.753 Y163.551
N281 X206.544 Y163.513
N282 X206.334 Y163.49
N283 X206.122 Y163.482
N284 X186.075
N285 X227.166 Y96.281
N286 X227.27 Y96.096
N287 X227.36 Y95.904
N288 X227.436 Y95.706
N289 X227.497 Y95.503
N290 X227.543 Y95.297
N291 X227.574 Y95.087
N292 X227.59 Y94.876
N293 Y94.664
N294 X227.575 Y94.452
N295 X227.544 Y94.243
N296 X227.498 Y94.036
N297 X227.437 Y93.833
N298 X227.362 Y93.635
N299 X227.272 Y93.443
N300 X227.168 Y93.258
N301 X227.051 Y93.081
N302 X226.922 Y92.914
N303 X226.78 Y92.756
N304 X226.628 Y92.609
N305 X226.465 Y92.473
N306 X226.293 Y92.35
N307 X226.112 Y92.239
N308 X225.923 Y92.142
N309 X225.728 Y92.059
N310 X225.528 Y91.991
N311 X225.323 Y91.937
N312 X225.114 Y91.899
N313 X224.904 Y91.876
N314 X224.692 Y91.868
N315 X205.433
N316 X247.236 Y23.503
N317 X247.34 Y23.319
N318 X247.43 Y23.127
N319 X247.506 Y22.929
N320 X247.567 Y22.726
N321 X247.613 Y22.519
N322 X247.644 Y22.31
N323 X247.66 Y22.098
N324 Y21.886
N325 X247.645 Y21.675
N326 X247.614 Y21.465
N327 X247.568 Y21.258
N328 X247.507 Y21.056
N329 X247.432 Y20.858
N330 X247.342 Y20.666
N331 X247.238 Y20.481
N332 X247.121 Y20.304
N333 X246.992 Y20.136
N334 X246.85 Y19.978
N335 X246.698 Y19.831
N336 X246.535 Y19.696
N337 X246.363 Y19.572
N338 X246.182 Y19.462
N339 X245.993 Y19.365
N340 X245.798 Y19.282
N341 X245.598 Y19.214
N342 X245.393 Y19.16
N343 X245.184 Y19.121
N344 X244.974 Y19.098
N345 X244.762 Y19.09
N346 X174.095
N347 Y0
N348 X174.088 Y-0.207
N349 X174.065 Y-0.413
N350 X174.029 Y-0.616
N351 X173.978 Y-0.817
N352 X173.912 Y-1.013
N353 X173.833 Y-1.205
N354 X173.74 Y-1.39
N355 X173.635 Y-1.568
N356 X173.517 Y-1.738
N357 X173.387 Y-1.899
N358 X173.246 Y-2.051
N359 X173.094 Y-2.192
N360 X172.933 Y-2.322
N361 X172.763 Y-2.44
N362 X172.585 Y-2.545
N363 X172.4 Y-2.638
N364 X172.208 Y-2.717
N365 X172.012 Y-2.783
N366 X171.811 Y-2.834
N367 X171.608 Y-2.87
N368 X171.402 Y-2.893
N369 X171.195 Y-2.9
N370 X129.564
N371 X129.357 Y-2.893
N372 X129.151 Y-2.87
N373 X128.948 Y-2.834
N374 X128.747 Y-2.783
N375 X128.551 Y-2.717
N376 X128.359 Y-2.638
N377 X128.174 Y-2.545
N378 X127.996 Y-2.44
N379 X127.826 Y-2.322
N380 X127.665 Y-2.192
N381 X127.513 Y-2.051
N382 X127.372 Y-1.899
N383 X127.242 Y-1.738
N384 X127.124 Y-1.568
N385 X127.019 Y-1.39
N386 X126.926 Y-1.205
N387 X126.847 Y-1.013
N388 X126.781 Y-0.817
N389 X126.73 Y-0.616
N390 X126.694 Y-0.413
N391 X126.671 Y-0.207
N392 X126.664 Y0
N393 Y193.757
N394 X126.671 Y193.964
N395 X126.694 Y194.17
N396 X126.73 Y194.374
N397 X126.782 Y194.574
N398 X126.847 Y194.771
N399 X126.926 Y194.962
N400 X127.019 Y195.147
N401 X127.125 Y195.325
N402 X127.243 Y195.495
N403 X127.373 Y195.657
N404 X127.514 Y195.808
N405 X127.536 Y195.841
N406 X127.543 Y195.879
N407 X127.536 Y195.917
N408 X127.514 Y195.95
N409 X127.481 Y195.972
N410 X127.443 Y195.979
N411 X127.405 Y195.972
N412 X127.372 Y195.95
N413 X127.221 Y195.809
N414 X127.059 Y195.679
N415 X126.889 Y195.561
N416 X126.711 Y195.455
N417 X126.526 Y195.362
N418 X126.335 Y195.283
N419 X126.138 Y195.218
N420 X125.938 Y195.166
N421 X125.734 Y195.13
N422 X125.528 Y195.107
N423 X125.321 Y195.1
N424 X115.707
N425 X115.5 Y195.107
N426 X115.294 Y195.13
N427 X115.09 Y195.166
N428 X114.89 Y195.218
N429 X114.693 Y195.283
N430 X114.502 Y195.362
N431 X114.317 Y195.455
N432 X114.139 Y195.561
N433 X113.969 Y195.679
N434 X113.807 Y195.809
N435 X113.656 Y195.95
N436 X113.623 Y195.972
N437 X113.585 Y195.979
N438 X113.547 Y195.972
N439 X113.514 Y195.95
N440 X113.492 Y195.917
N441 X113.485 Y195.879
N442 X113.492 Y195.841
N443 X113.514 Y195.808
N444 X113.655 Y195.657
N445 X113.785 Y195.495
N446 X113.903 Y195.325
N447 X114.009 Y195.147
N448 X114.102 Y194.962
N449 X114.181 Y194.771
N450 X114.246 Y194.574
N451 X114.298 Y194.374
N452 X114.334 Y194.17
N453 X114.357 Y193.964
N454 X114.364 Y193.757
N455 Y22.527
N456 X114.392 Y22.349
N457 X114.408 Y22.17
N458 X114.414 Y21.99
N459 Y0
N460 X114.407 Y-0.207
N461 X114.384 Y-0.413
N462 X114.348 Y-0.616
N463 X114.297 Y-0.817
N464 X114.231 Y-1.013
N465 X114.152 Y-1.205
N466 X114.059 Y-1.39
N467 X113.954 Y-1.568
N468 X113.836 Y-1.738
N469 X113.706 Y-1.899
N470 X113.565 Y-2.051
N471 X113.413 Y-2.192
N472 X113.252 Y-2.322
N473 X113.082 Y-2.44
N474 X112.904 Y-2.545
N475 X112.719 Y-2.638
N476 X112.527 Y-2.717
N477 X112.331 Y-2.783
N478 X112.13 Y-2.834
N479 X111.927 Y-2.87
N480 X111.721 Y-2.893
N481 X111.514 Y-2.9
N482 X69.834
N483 X69.627 Y-2.893
N484 X69.421 Y-2.87
N485 X69.217 Y-2.834
N486 X69.016 Y-2.783
N487 X68.82 Y-2.717
N488 X68.629 Y-2.638
N489 X68.444 Y-2.545
N490 X68.266 Y-2.44
N491 X68.096 Y-2.322
N492 X67.934 Y-2.192
N493 X67.783 Y-2.051
N494 X67.642 Y-1.899
N495 X67.512 Y-1.738
N496 X67.394 Y-1.568
N497 X67.288 Y-1.39
N498 X67.196 Y-1.205
N499 X67.116 Y-1.013
N500 X67.051 Y-0.817
N501 X67 Y-0.616
N502 X66.963 Y-0.413
N503 X66.941 Y-0.207
N504 X66.934 Y0
N505 Y19.09
N506 X0
N507 X-0.208 Y19.098
N508 X-0.415 Y19.12
N509 X-0.62 Y19.158
N510 X-0.822 Y19.209
N511 X-1.019 Y19.276
N512 X-1.212 Y19.356
N513 X-1.398 Y19.449
N514 X-1.576 Y19.556
N515 X-1.747 Y19.676
N516 X-1.909 Y19.807
N517 X-2.06 Y19.95
N518 X-2.202 Y20.103
N519 X-2.331 Y20.266
N520 X-2.449 Y20.437
N521 X-2.554 Y20.617
N522 X-2.646 Y20.804
N523 X-2.725 Y20.997
N524 X-2.789 Y21.195
N525 X-2.839 Y21.397
N526 X-2.874 Y21.603
N527 X-2.894 Y21.81
N528 X-2.9 Y22.018
N529 X-2.89 Y22.226
N530 X-2.866 Y22.433
N531 X-2.827 Y22.638
N532 X-2.779 Y22.819 Z14.998 F2500
N533 X-2.72 Y22.997 Z14.996
N534 X-2.649 Y23.171 Z14.994
N535 X-2.567 Y23.34 Z14.992
N536 X-2.474 Y23.503 Z14.991
N537 X39.328 Y91.868 Z14.185
N538 X20.07 Z13.991
N539 X19.858 Y91.876 Z13.989
N540 X19.647 Y91.899 Z13.987
N541 X19.439 Y91.937 Z13.985
N542 X19.234 Y91.991 Z13.982
N543 X19.033 Y92.059 Z13.98
N544 X18.838 Y92.142 Z13.978
N545 X18.65 Y92.239 Z13.976
N546 X18.469 Y92.35 Z13.974
N547 X18.297 Y92.473 Z13.972
N548 X18.134 Y92.609 Z13.97
N549 X17.981 Y92.756 Z13.968
N550 X17.84 Y92.914 Z13.965
N551 X17.71 Y93.081 Z13.963
N552 X17.594 Y93.258 Z13.961
N553 X17.49 Y93.443 Z13.959
N554 X17.4 Y93.635 Z13.957
N555 X17.324 Y93.833 Z13.955
N556 X17.264 Y94.036 Z13.953
N557 X17.218 Y94.243 Z13.95
N558 X17.187 Y94.452 Z13.948
N559 X17.171 Y94.664 Z13.946
N560 X17.172 Y94.876 Z13.944
N561 X17.187 Y95.087 Z13.942
N562 X17.218 Y95.297 Z13.94
N563 X17.264 Y95.503 Z13.938
N564 X17.326 Y95.706 Z13.936
N565 X17.401 Y95.904 Z13.933
N566 X17.492 Y96.096 Z13.931
N567 X17.595 Y96.281 Z13.929
N568 X58.687 Y163.482 Z13.137
N569 X38.639 Z12.935
N570 X38.428 Y163.49 Z12.933
N571 X38.217 Y163.513 Z12.931
N572 X38.009 Y163.551 Z12.929
N573 X37.804 Y163.605 Z12.927
N574 X37.603 Y163.674 Z12.925
N575 X37.408 Y163.756 Z12.923
N576 X37.22 Y163.853 Z12.92
N577 X37.039 Y163.964 Z12.918
N578 X36.866 Y164.087 Z12.916
N579 X36.704 Y164.223 Z12.914
N580 X36.551 Y164.37 Z12.912
N581 X36.41 Y164.528 Z12.91
N582 X36.28 Y164.696 Z12.908
N583 X36.163 Y164.872 Z12.906
N584 X36.06 Y165.057 Z12.903
N585 X35.97 Y165.249 Z12.901
N586 X35.894 Y165.447 Z12.899
N587 X35.833 Y165.65 Z12.897
N588 X35.787 Y165.857 Z12.895
N589 X35.757 Y166.067 Z12.893
N590 X35.741 Y166.278 Z12.891
N591 X35.742 Y166.49 Z12.888
N592 X35.757 Y166.701 Z12.886
N593 X35.788 Y166.911 Z12.884
N594 X35.834 Y167.118 Z12.882
N595 X35.896 Y167.32 Z12.88
N596 X35.971 Y167.518 Z12.878
N597 X36.062 Y167.71 Z12.876
N598 X36.165 Y167.895 Z12.874
N599 X78.737 Y237.518 Z12.053
N600 X73.485 Z12
N601 X60.332 F2760
N602 X60.119 Y237.526
N603 X59.909 Y237.549
N604 X59.7 Y237.588
N605 X59.494 Y237.641
N606 X59.294 Y237.71
N607 X59.098 Y237.793
N608 X58.91 Y237.891
N609 X58.729 Y238.001
N610 X58.556 Y238.125
N611 X58.393 Y238.261
N612 X58.241 Y238.409
N613 X58.099 Y238.567
N614 X57.97 Y238.735
N615 X57.853 Y238.912
N616 X57.75 Y239.098
N617 X57.66 Y239.29
N618 X57.585 Y239.489
N619 X57.524 Y239.692
N620 X57.478 Y239.899
N621 X57.448 Y240.109
N622 X57.433 Y240.321
N623 X57.434 Y240.533
N624 X57.45 Y240.745
N625 X57.482 Y240.955
N626 X57.529 Y241.162
N627 X57.591 Y241.365
N628 X57.667 Y241.563
N629 X57.758 Y241.755
N630 X93.279 Y310.139
N631 X79.666
N632 X79.453 Y310.147
N633 X79.242 Y310.17
N634 X79.032 Y310.209
N635 X78.827 Y310.263
N636 X78.625 Y310.332
N637 X78.43 Y310.416
N638 X78.24 Y310.513
N639 X78.059 Y310.625
N640 X77.886 Y310.749
N641 X77.723 Y310.886
N642 X77.571 Y311.034
N643 X77.429 Y311.193
N644 X77.3 Y311.362
N645 X77.183 Y311.54
N646 X77.08 Y311.726
N647 X76.991 Y311.919
N648 X76.916 Y312.118
N649 X76.856 Y312.323
N650 X76.811 Y312.531
N651 X76.781 Y312.741
N652 X76.767 Y312.954
N653 X76.769 Y313.167
N654 X76.786 Y313.379
N655 X76.818 Y313.589
N656 X76.866 Y313.796
N657 X76.929 Y314
N658 X77.007 Y314.198
N659 X77.099 Y314.389
N660 X77.205 Y314.574
N661 X119.921 Y383.041
N662 X120.038 Y383.215
N663 X120.168 Y383.38
N664 X120.309 Y383.535
N665 X120.461 Y383.679
N666 X120.623 Y383.813
N667 X120.794 Y383.934
N668 X120.974 Y384.042
N669 X121.161 Y384.137
N670 X121.355 Y384.218
N671 X121.553 Y384.285
N672 X121.756 Y384.338
N673 X121.963 Y384.376
N674 X122.171 Y384.398
N675 X122.381 Y384.406
N676 X122.591 Y384.398
N677 X122.799 Y384.376
N678 X123.006 Y384.338
N679 X123.209 Y384.285
N680 X123.407 Y384.218
N681 X123.601 Y384.137
N682 X123.788 Y384.042
N683 X123.968 Y383.934
N684 X124.139 Y383.813
N685 X124.301 Y383.679
N686 X124.453 Y383.535
N687 X124.594 Y383.38
N688 X124.724 Y383.215
N689 X124.841 Y383.041
N690 X167.556 Y314.574
N691 X167.662 Y314.389
N692 X167.755 Y314.198
N693 X167.832 Y314
N694 X167.895 Y313.796
N695 X167.943 Y313.589
N696 X167.976 Y313.379
N697 X167.993 Y313.167
N698 X167.995 Y312.954
N699 X167.981 Y312.741
N700 X167.951 Y312.531
N701 X167.906 Y312.323
N702 X167.846 Y312.118
N703 X167.771 Y311.919
N704 X167.682 Y311.726
N705 X167.579 Y311.54
N706 X167.462 Y311.362
N707 X167.333 Y311.193
N708 X167.191 Y311.034
N709 X167.039 Y310.886
N710 X166.875 Y310.749
N711 X166.703 Y310.625
N712 X166.521 Y310.513
N713 X166.332 Y310.416
N714 X166.137 Y310.332
N715 X165.935 Y310.263
N716 X165.729 Y310.209
N717 X165.52 Y310.17
N718 X165.309 Y310.147
N719 X165.096 Y310.139
N720 X151.482
N721 X187.004 Y241.755
N722 X187.094 Y241.563
N723 X187.171 Y241.365
N724 X187.233 Y241.162
N725 X187.28 Y240.955
N726 X187.311 Y240.745
N727 X187.328 Y240.533
N728 Y240.321
N729 X187.314 Y240.109
N730 X187.283 Y239.899
N731 X187.238 Y239.692
N732 X187.177 Y239.489
N733 X187.102 Y239.29
N734 X187.012 Y239.098
N735 X186.909 Y238.912
N736 X186.792 Y238.735
N737 X186.662 Y238.567
N738 X186.521 Y238.409
N739 X186.368 Y238.261
N740 X186.205 Y238.125
N741 X186.033 Y238.001
N742 X185.852 Y237.891
N743 X185.663 Y237.793
N744 X185.468 Y237.71
N745 X185.267 Y237.641
N746 X185.062 Y237.588
N747 X184.853 Y237.549
N748 X184.642 Y237.526
N749 X184.43 Y237.518
N750 X166.024
N751 X208.596 Y167.895
N752 X208.7 Y167.71
N753 X208.79 Y167.518
N754 X208.866 Y167.32
N755 X208.927 Y167.118
N756 X208.973 Y166.911
N757 X209.004 Y166.701
N758 X209.02 Y166.49
N759 Y166.278
N760 X209.005 Y166.067
N761 X208.974 Y165.857
N762 X208.928 Y165.65
N763 X208.867 Y165.447
N764 X208.792 Y165.249
N765 X208.702 Y165.057
N766 X208.598 Y164.872
N767 X208.481 Y164.696
N768 X208.352 Y164.528
N769 X208.21 Y164.37
N770 X208.058 Y164.223
N771 X207.895 Y164.087
N772 X207.723 Y163.964
N773 X207.542 Y163.853
N774 X207.353 Y163.756
N775 X207.158 Y163.674
N776 X206.958 Y163.605
N777 X206.753 Y163.551
N778 X206.544 Y163.513
N779 X206.334 Y163.49
N780 X206.122 Y163.482
N781 X186.075
N782 X227.166 Y96.281
N783 X227.27 Y96.096
N784 X227.36 Y95.904
N785 X227.436 Y95.706
N786 X227.497 Y95.503
N787 X227.543 Y95.297
N788 X227.574 Y95.087
N789 X227.59 Y94.876
N790 Y94.664
N791 X227.575 Y94.452
N792 X227.544 Y94.243
N793 X227.498 Y94.036
N794 X227.437 Y93.833
N795 X227.362 Y93.635
N796 X227.272 Y93.443
N797 X227.168 Y93.258
N798 X227.051 Y93.081
N799 X226.922 Y92.914
N800 X226.78 Y92.756
N801 X226.628 Y92.609
N802 X226.465 Y92.473
N803 X226.293 Y92.35
N804 X226.112 Y92.239
N805 X225.923 Y92.142
N806 X225.728 Y92.059
N807 X225.528 Y91.991
N808 X225.323 Y91.937
N809 X225.114 Y91.899
N810 X224.904 Y91.876
N811 X224.692 Y91.868
N812 X205.433
N813 X247.236 Y23.503
N814 X247.34 Y23.319
N815 X247.43 Y23.127
N816 X247.506 Y22.929
N817 X247.567 Y22.726
N818 X247.613 Y22.519
N819 X247.644 Y22.31
N820 X247.66 Y22.098
N821 Y21.886
N822 X247.645 Y21.675
N823 X247.614 Y21.465
N824 X247.568 Y21.258
N825 X247.507 Y21.056
N826 X247.432 Y20.858
N827 X247.342 Y20.666
N828 X247.238 Y20.481
N829 X247.121 Y20.304
N830 X246.992 Y20.136
N831 X246.85 Y19.978
N832 X246.698 Y19.831
N833 X246.535 Y19.696
N834 X246.363 Y19.572
N835 X246.182 Y19.462
N836 X245.993 Y19.365
N837 X245.798 Y19.282
N838 X245.598 Y19.214
N839 X245.393 Y19.16
N840 X245.184 Y19.121
N841 X244.974 Y19.098
N842 X244.762 Y19.09
N843 X174.095
N844 Y0
N845 X174.088 Y-0.207
N846 X174.065 Y-0.413
N847 X174.029 Y-0.616
N848 X173.978 Y-0.817
N849 X173.912 Y-1.013
N850 X173.833 Y-1.205
N851 X173.74 Y-1.39
N852 X173.635 Y-1.568
N853 X173.517 Y-1.738
N854 X173.387 Y-1.899
N855 X173.246 Y-2.051
N856 X173.094 Y-2.192
N857 X172.933 Y-2.322
N858 X172.763 Y-2.44
N859 X172.585 Y-2.545
N860 X172.4 Y-2.638
N861 X172.208 Y-2.717
N862 X172.012 Y-2.783
N863 X171.811 Y-2.834
N864 X171.608 Y-2.87
N865 X171.402 Y-2.893
N866 X171.195 Y-2.9
N867 X129.564
N868 X129.357 Y-2.893
N869 X129.151 Y-2.87
N870 X128.948 Y-2.834
N871 X128.747 Y-2.783
N872 X128.551 Y-2.717
N873 X128.359 Y-2.638
N874 X128.174 Y-2.545
N875 X127.996 Y-2.44
N876 X127.826 Y-2.322
N877 X127.665 Y-2.192
N878 X127.513 Y-2.051
N879 X127.372 Y-1.899
N880 X127.242 Y-1.738
N881 X127.124 Y-1.568
N882 X127.019 Y-1.39
N883 X126.926 Y-1.205
N884 X126.847 Y-1.013
N885 X126.781 Y-0.817
N886 X126.73 Y-0.616
N887 X126.694 Y-0.413
N888 X126.671 Y-0.207
N889 X126.664 Y0
N890 Y193.757
N891 X126.671 Y193.964
N892 X126.694 Y194.17
N893 X126.73 Y194.374
N894 X126.782 Y194.574
N895 X126.847 Y194.771
N896 X126.926 Y194.962
N897 X127.019 Y195.147
N898 X127.125 Y195.325
N899 X127.243 Y195.495
N900 X127.373 Y195.657
N901 X127.514 Y195.808
N902 X127.536 Y195.841
N903 X127.543 Y195.879
N904 X127.536 Y195.917
N905 X127.514 Y195.95
N906 X127.481 Y195.972
N907 X127.443 Y195.979
N908 X127.405 Y195.972
N909 X127.372 Y195.95
N910 X127.221 Y195.809
N911 X127.059 Y195.679
N912 X126.889 Y195.561
N913 X126.711 Y195.455
N914 X126.526 Y195.362
N915 X126.335 Y195.283
N916 X126.138 Y195.218
N917 X125.938 Y195.166
N918 X125.734 Y195.13
N919 X125.528 Y195.107
N920 X125.321 Y195.1
N921 X115.707
N922 X115.5 Y195.107
N923 X115.294 Y195.13
N924 X115.09 Y195.166
N925 X114.89 Y195.218
N926 X114.693 Y195.283
N927 X114.502 Y195.362
N928 X114.317 Y195.455
N929 X114.139 Y195.561
N930 X113.969 Y195.679
N931 X113.807 Y195.809
N932 X113.656 Y195.95
N933 X113.623 Y195.972
N934 X113.585 Y195.979
N935 X113.547 Y195.972
N936 X113.514 Y195.95
N937 X113.492 Y195.917
N938 X113.485 Y195.879
N939 X113.492 Y195.841
N940 X113.514 Y195.808
N941 X113.655 Y195.657
N942 X113.785 Y195.495
N943 X113.903 Y195.325
N944 X114.009 Y195.147
N945 X114.102 Y194.962
N946 X114.181 Y194.771
N947 X114.246 Y194.574
N948 X114.298 Y194.374
N949 X114.334 Y194.17
N950 X114.357 Y193.964
N951 X114.364 Y193.757
N952 Y22.527
N953 X114.392 Y22.349
N954 X114.408 Y22.17
N955 X114.414 Y21.99
N956 Y0
N957 X114.407 Y-0.207
N958 X114.384 Y-0.413
N959 X114.348 Y-0.616
N960 X114.297 Y-0.817
N961 X114.231 Y-1.013
N962 X114.152 Y-1.205
N963 X114.059 Y-1.39
N964 X113.954 Y-1.568
N965 X113.836 Y-1.738
N966 X113.706 Y-1.899
N967 X113.565 Y-2.051
N968 X113.413 Y-2.192
N969 X113.252 Y-2.322
N970 X113.082 Y-2.44
N971 X112.904 Y-2.545
N972 X112.719 Y-2.638
N973 X112.527 Y-2.717
N974 X112.331 Y-2.783
N975 X112.13 Y-2.834
N976 X111.927 Y-2.87
N977 X111.721 Y-2.893
N978 X111.514 Y-2.9
N979 X69.834
N980 X69.627 Y-2.893
N981 X69.421 Y-2.87
N982 X69.217 Y-2.834
N983 X69.016 Y-2.783
N984 X68.82 Y-2.717
N985 X68.629 Y-2.638
N986 X68.444 Y-2.545
N987 X68.266 Y-2.44
N988 X68.096 Y-2.322
N989 X67.934 Y-2.192
N990 X67.783 Y-2.051
N991 X67.642 Y-1.899
N992 X67.512 Y-1.738
N993 X67.394 Y-1.568
N994 X67.288 Y-1.39
N995 X67.196 Y-1.205
N996 X67.116 Y-1.013
N997 X67.051 Y-0.817
N998 X67 Y-0.616
N999 X66.963 Y-0.413
N1000 X66.941 Y-0.207
N1001 X66.934 Y0
N1002 Y19.09
N1003 X0
N1004 X-0.212 Y19.098
N1005 X-0.422 Y19.121
N1006 X-0.631 Y19.16
N1007 X-0.836 Y19.214
N1008 X-1.036 Y19.282
N1009 X-1.231 Y19.365
N1010 X-1.42 Y19.462
N1011 X-1.601 Y19.572
N1012 X-1.773 Y19.696
N1013 X-1.936 Y19.831
N1014 X-2.088 Y19.978
N1015 X-2.23 Y20.136
N1016 X-2.359 Y20.304
N1017 X-2.476 Y20.481
N1018 X-2.58 Y20.666
N1019 X-2.67 Y20.858
N1020 X-2.745 Y21.056
N1021 X-2.806 Y21.258
N1022 X-2.852 Y21.465
N1023 X-2.883 Y21.675
N1024 X-2.898 Y21.886
N1025 Y22.098
N1026 X-2.882 Y22.31
N1027 X-2.851 Y22.519
N1028 X-2.805 Y22.726
N1029 X-2.744 Y22.929
N1030 X-2.668 Y23.127
N1031 X-2.578 Y23.319
N1032 X-2.474 Y23.503
N1033 X39.328 Y91.868
N1034 X20.07
N1035 X19.858 Y91.876
N1036 X19.647 Y91.899
N1037 X19.439 Y91.937
N1038 X19.234 Y91.991
N1039 X19.033 Y92.059
N1040 X18.838 Y92.142
N1041 X18.65 Y92.239
N1042 X18.469 Y92.35
N1043 X18.297 Y92.473
N1044 X18.134 Y92.609
N1045 X17.981 Y92.756
N1046 X17.84 Y92.914
N1047 X17.71 Y93.081
N1048 X17.594 Y93.258
N1049 X17.49 Y93.443
N1050 X17.4 Y93.635
N1051 X17.324 Y93.833
N1052 X17.264 Y94.036
N1053 X17.218 Y94.243
N1054 X17.187 Y94.452
N1055 X17.171 Y94.664
N1056 X17.172 Y94.876
N1057 X17.187 Y95.087
N1058 X17.218 Y95.297
N1059 X17.264 Y95.503
N1060 X17.326 Y95.706
N1061 X17.401 Y95.904
N1062 X17.492 Y96.096
N1063 X17.595 Y96.281
N1064 X58.687 Y163.482
N1065 X38.639
N1066 X38.428 Y163.49
N1067 X38.217 Y163.513
N1068 X38.009 Y163.551
N1069 X37.804 Y163.605
N1070 X37.603 Y163.674
N1071 X37.408 Y163.756
N1072 X37.22 Y163.853
N1073 X37.039 Y163.964
N1074 X36.866 Y164.087
N1075 X36.704 Y164.223
N1076 X36.551 Y164.37
N1077 X36.41 Y164.528
N1078 X36.28 Y164.696
N1079 X36.163 Y164.872
N1080 X36.06 Y165.057
N1081 X35.97 Y165.249
N1082 X35.894 Y165.447
N1083 X35.833 Y165.65
N1084 X35.787 Y165.857
N1085 X35.757 Y166.067
N1086 X35.741 Y166.278
N1087 X35.742 Y166.49
N1088 X35.757 Y166.701
N1089 X35.788 Y166.911
N1090 X35.834 Y167.118
N1091 X35.896 Y167.32
N1092 X35.971 Y167.518
N1093 X36.062 Y167.71
N1094 X36.165 Y167.895
N1095 X78.737 Y237.518
N1096 X73.485
N1097 X60.332 Z11.868 F2500
N1098 X60.119 Y237.526 Z11.866
N1099 X59.909 Y237.549 Z11.863
N1100 X59.7 Y237.588 Z11.861
N1101 X59.494 Y237.641 Z11.859
N1102 X59.294 Y237.71 Z11.857
N1103 X59.098 Y237.793 Z11.855
N1104 X58.91 Y237.891 Z11.853
N1105 X58.729 Y238.001 Z11.851
N1106 X58.556 Y238.125 Z11.849
N1107 X58.393 Y238.261 Z11.846
N1108 X58.241 Y238.409 Z11.844
N1109 X58.099 Y238.567 Z11.842
N1110 X57.97 Y238.735 Z11.84
N1111 X57.853 Y238.912 Z11.838
N1112 X57.75 Y239.098 Z11.836
N1113 X57.66 Y239.29 Z11.834
N1114 X57.585 Y239.489 Z11.831
N1115 X57.524 Y239.692 Z11.829
N1116 X57.478 Y239.899 Z11.827
N1117 X57.448 Y240.109 Z11.825
N1118 X57.433 Y240.321 Z11.823
N1119 X57.434 Y240.533 Z11.821
N1120 X57.45 Y240.745 Z11.819
N1121 X57.482 Y240.955 Z11.816
N1122 X57.529 Y241.162 Z11.814
N1123 X57.591 Y241.365 Z11.812
N1124 X57.667 Y241.563 Z11.81
N1125 X57.758 Y241.755 Z11.808
N1126 X93.279 Y310.139 Z11.033
N1127 X79.666 Z10.896
N1128 X79.453 Y310.147 Z10.894
N1129 X79.242 Y310.17 Z10.892
N1130 X79.032 Y310.209 Z10.89
N1131 X78.827 Y310.263 Z10.887
N1132 X78.625 Y310.332 Z10.885
N1133 X78.43 Y310.416 Z10.883
N1134 X78.24 Y310.513 Z10.881
N1135 X78.059 Y310.625 Z10.879
N1136 X77.886 Y310.749 Z10.877
N1137 X77.723 Y310.886 Z10.875
N1138 X77.571 Y311.034 Z10.872
N1139 X77.429 Y311.193 Z10.87
N1140 X77.3 Y311.362 Z10.868
N1141 X77.183 Y311.54 Z10.866
N1142 X77.08 Y311.726 Z10.864
N1143 X76.991 Y311.919 Z10.862
N1144 X76.916 Y312.118 Z10.86
N1145 X76.856 Y312.323 Z10.858
N1146 X76.811 Y312.531 Z10.855
N1147 X76.781 Y312.741 Z10.853
N1148 X76.767 Y312.954 Z10.851
N1149 X76.769 Y313.167 Z10.849
N1150 X76.786 Y313.379 Z10.847
N1151 X76.818 Y313.589 Z10.845
N1152 X76.866 Y313.796 Z10.843
N1153 X76.929 Y314 Z10.84
N1154 X77.007 Y314.198 Z10.838
N1155 X77.099 Y314.389 Z10.836
N1156 X77.205 Y314.574 Z10.834
N1157 X119.921 Y383.041 Z10.022
N1158 X120.038 Y383.215 Z10.02
N1159 X120.168 Y383.38 Z10.018
N1160 X120.309 Y383.535 Z10.016
N1161 X120.461 Y383.679 Z10.014
N1162 X120.623 Y383.813 Z10.012
N1163 X120.794 Y383.934 Z10.01
N1164 X120.974 Y384.042 Z10.008
N1165 X121.161 Y384.137 Z10.005
N1166 X121.355 Y384.218 Z10.003
N1167 X121.553 Y384.285 Z10.001
N1168 X121.756 Y384.338 Z9.999
N1169 X121.963 Y384.376 Z9.997
N1170 X122.171 Y384.398 Z9.995
N1171 X122.381 Y384.406 Z9.993
N1172 X122.591 Y384.398 Z9.991
N1173 X122.799 Y384.376 Z9.989
N1174 X123.006 Y384.338 Z9.986
N1175 X123.209 Y384.285 Z9.984
N1176 X123.407 Y384.218 Z9.982
N1177 X123.601 Y384.137 Z9.98
N1178 X123.788 Y384.042 Z9.978
N1179 X123.968 Y383.934 Z9.976
N1180 X124.139 Y383.813 Z9.974
N1181 X124.301 Y383.679 Z9.972
N1182 X124.453 Y383.535 Z9.97
N1183 X124.594 Y383.38 Z9.967
N1184 X124.724 Y383.215 Z9.965
N1185 X124.841 Y383.041 Z9.963
N1186 X167.556 Y314.574 Z9.152
N1187 X167.662 Y314.389 Z9.15
N1188 X167.755 Y314.198 Z9.147
N1189 X167.832 Y314 Z9.145
N1190 X167.895 Y313.796 Z9.143
N1191 X167.943 Y313.589 Z9.141
N1192 X167.976 Y313.379 Z9.139
N1193 X167.993 Y313.167 Z9.137
N1194 X167.995 Y312.954 Z9.135
N1195 X167.981 Y312.741 Z9.132
N1196 X167.951 Y312.531 Z9.13
N1197 X167.906 Y312.323 Z9.128
N1198 X167.846 Y312.118 Z9.126
N1199 X167.771 Y311.919 Z9.124
N1200 X167.682 Y311.726 Z9.122
N1201 X167.579 Y311.54 Z9.12
N1202 X167.462 Y311.362 Z9.117
N1203 X167.333 Y311.193 Z9.115
N1204 X167.191 Y311.034 Z9.113
N1205 X167.039 Y310.886 Z9.111
N1206 X166.875 Y310.749 Z9.109
N1207 X166.703 Y310.625 Z9.107
N1208 X166.521 Y310.513 Z9.105
N1209 X166.332 Y310.416 Z9.102
N1210 X166.137 Y310.332 Z9.1
N1211 X165.935 Y310.263 Z9.098
N1212 X165.729 Y310.209 Z9.096
N1213 X165.52 Y310.17 Z9.094
N1214 X165.309 Y310.147 Z9.092
N1215 X165.096 Y310.139 Z9.09
N1216 X156.186 Z9
N1217 X151.482 F2760
N1218 X187.004 Y241.755
N1219 X187.094 Y241.563
N1220 X187.171 Y241.365
N1221 X187.233 Y241.162
N1222 X187.28 Y240.955
N1223 X187.311 Y240.745
N1224 X187.328 Y240.533
N1225 Y240.321
N1226 X187.314 Y240.109
N1227 X187.283 Y239.899
N1228 X187.238 Y239.692
N1229 X187.177 Y239.489
N1230 X187.102 Y239.29
N1231 X187.012 Y239.098
N1232 X186.909 Y238.912
N1233 X186.792 Y238.735
N1234 X186.662 Y238.567
N1235 X186.521 Y238.409
N1236 X186.368 Y238.261
N1237 X186.205 Y238.125
N1238 X186.033 Y238.001
N1239 X185.852 Y237.891
N1240 X185.663 Y237.793
N1241 X185.468 Y237.71
N1242 X185.267 Y237.641
N1243 X185.062 Y237.588
N1244 X184.853 Y237.549
N1245 X184.642 Y237.526
N1246 X184.43 Y237.518
N1247 X166.024
N1248 X208.596 Y167.895
N1249 X208.7 Y167.71
N1250 X208.79 Y167.518
N1251 X208.866 Y167.32
N1252 X208.927 Y167.118
N1253 X208.973 Y166.911
N1254 X209.004 Y166.701
N1255 X209.02 Y166.49
N1256 Y166.278
N1257 X209.005 Y166.067
N1258 X208.974 Y165.857
N1259 X208.928 Y165.65
N1260 X208.867 Y165.447
N1261 X208.792 Y165.249
N1262 X208.702 Y165.057
N1263 X208.598 Y164.872
N1264 X208.481 Y164.696
N1265 X208.352 Y164.528
N1266 X208.21 Y164.37
N1267 X208.058 Y164.223
N1268 X207.895 Y164.087
N1269 X207.723 Y163.964
N1270 X207.542 Y163.853
N1271 X207.353 Y163.756
N1272 X207.158 Y163.674
N1273 X206.958 Y163.605
N1274 X206.753 Y163.551
N1275 X206.544 Y163.513
N1276 X206.334 Y163.49
N1277 X206.122 Y163.482
N1278 X186.075
N1279 X227.166 Y96.281
N1280 X227.27 Y96.096
N1281 X227.36 Y95.904
N1282 X227.436 Y95.706
N1283 X227.497 Y95.503
N1284 X227.543 Y95.297
N1285 X227.574 Y95.087
N1286 X227.59 Y94.876
N1287 Y94.664
N1288 X227.575 Y94.452
N1289 X227.544 Y94.243
N1290 X227.498 Y94.036
N1291 X227.437 Y93.833
N1292 X227.362 Y93.635
N1293 X227.272 Y93.443
N1294 X227.168 Y93.258
N1295 X227.051 Y93.081
N1296 X226.922 Y92.914
N1297 X226.78 Y92.756
N1298 X226.628 Y92.609
N1299 X226.465 Y92.473
N1300 X226.293 Y92.35
N1301 X226.112 Y92.239
N1302 X225.923 Y92.142
N1303 X225.728 Y92.059
N1304 X225.528 Y91.991
N1305 X225.323 Y91.937
N1306 X225.114 Y91.899
N1307 X224.904 Y91.876
N1308 X224.692 Y91.868
N1309 X205.433
N1310 X247.236 Y23.503
N1311 X247.34 Y23.319
N1312 X247.43 Y23.127
N1313 X247.506 Y22.929
N1314 X247.567 Y22.726
N1315 X247.613 Y22.519
N1316 X247.644 Y22.31
N1317 X247.66 Y22.098
N1318 Y21.886
N1319 X247.645 Y21.675
N1320 X247.614 Y21.465
N1321 X247.568 Y21.258
N1322 X247.507 Y21.056
N1323 X247.432 Y20.858
N1324 X247.342 Y20.666
N1325 X247.238 Y20.481
N1326 X247.121 Y20.304
N1327 X246.992 Y20.136
N1328 X246.85 Y19.978
N1329 X246.698 Y19.831
N1330 X246.535 Y19.696
N1331 X246.363 Y19.572
N1332 X246.182 Y19.462
N1333 X245.993 Y19.365
N1334 X245.798 Y19.282
N1335 X245.598 Y19.214
N1336 X245.393 Y19.16
N1337 X245.184 Y19.121
N1338 X244.974 Y19.098
N1339 X244.762 Y19.09
N1340 X174.095
N1341 Y0
N1342 X174.088 Y-0.207
N1343 X174.065 Y-0.413
N1344 X174.029 Y-0.616
N1345 X173.978 Y-0.817
N1346 X173.912 Y-1.013
N1347 X173.833 Y-1.205
N1348 X173.74 Y-1.39
N1349 X173.635 Y-1.568
N1350 X173.517 Y-1.738
N1351 X173.387 Y-1.899
N1352 X173.246 Y-2.051
N1353 X173.094 Y-2.192
N1354 X172.933 Y-2.322
N1355 X172.763 Y-2.44
N1356 X172.585 Y-2.545
N1357 X172.4 Y-2.638
N1358 X172.208 Y-2.717
N1359 X172.012 Y-2.783
N1360 X171.811 Y-2.834
N1361 X171.608 Y-2.87
N1362 X171.402 Y-2.893
N1363 X171.195 Y-2.9
N1364 X129.564
N1365 X129.357 Y-2.893
N1366 X129.151 Y-2.87
N1367 X128.948 Y-2.834
N1368 X128.747 Y-2.783
N1369 X128.551 Y-2.717
N1370 X128.359 Y-2.638
N1371 X128.174 Y-2.545
N1372 X127.996 Y-2.44
N1373 X127.826 Y-2.322
N1374 X127.665 Y-2.192
N1375 X127.513 Y-2.051
N1376 X127.372 Y-1.899
N1377 X127.242 Y-1.738
N1378 X127.124 Y-1.568
N1379 X127.019 Y-1.39
N1380 X126.926 Y-1.205
N1381 X126.847 Y-1.013
N1382 X126.781 Y-0.817
N1383 X126.73 Y-0.616
N1384 X126.694 Y-0.413
N1385 X126.671 Y-0.207
N1386 X126.664 Y0
N1387 Y193.757
N1388 X126.671 Y193.964
N1389 X126.694 Y194.17
N1390 X126.73 Y194.374
N1391 X126.782 Y194.574
N1392 X126.847 Y194.771
N1393 X126.926 Y194.962
N1394 X127.019 Y195.147
N1395 X127.125 Y195.325
N1396 X127.243 Y195.495
N1397 X127.373 Y195.657
N1398 X127.514 Y195.808
N1399 X127.536 Y195.841
N1400 X127.543 Y195.879
N1401 X127.536 Y195.917
N1402 X127.514 Y195.95
N1403 X127.481 Y195.972
N1404 X127.443 Y195.979
N1405 X127.405 Y195.972
N1406 X127.372 Y195.95
N1407 X127.221 Y195.809
N1408 X127.059 Y195.679
N1409 X126.889 Y195.561
N1410 X126.711 Y195.455
N1411 X126.526 Y195.362
N1412 X126.335 Y195.283
N1413 X126.138 Y195.218
N1414 X125.938 Y195.166
N1415 X125.734 Y195.13
N1416 X125.528 Y195.107
N1417 X125.321 Y195.1
N1418 X115.707
N1419 X115.5 Y195.107
N1420 X115.294 Y195.13
N1421 X115.09 Y195.166
N1422 X114.89 Y195.218
N1423 X114.693 Y195.283
N1424 X114.502 Y195.362
N1425 X114.317 Y195.455
N1426 X114.139 Y195.561
N1427 X113.969 Y195.679
N1428 X113.807 Y195.809
N1429 X113.656 Y195.95
N1430 X113.623 Y195.972
N1431 X113.585 Y195.979
N1432 X113.547 Y195.972
N1433 X113.514 Y195.95
N1434 X113.492 Y195.917
N1435 X113.485 Y195.879
N1436 X113.492 Y195.841
N1437 X113.514 Y195.808
N1438 X113.655 Y195.657
N1439 X113.785 Y195.495
N1440 X113.903 Y195.325
N1441 X114.009 Y195.147
N1442 X114.102 Y194.962
N1443 X114.181 Y194.771
N1444 X114.246 Y194.574
N1445 X114.298 Y194.374
N1446 X114.334 Y194.17
N1447 X114.357 Y193.964
N1448 X114.364 Y193.757
N1449 Y22.527
N1450 X114.392 Y22.349
N1451 X114.408 Y22.17
N1452 X114.414 Y21.99
N1453 Y0
N1454 X114.407 Y-0.207
N1455 X114.384 Y-0.413
N1456 X114.348 Y-0.616
N1457 X114.297 Y-0.817
N1458 X114.231 Y-1.013
N1459 X114.152 Y-1.205
N1460 X114.059 Y-1.39
N1461 X113.954 Y-1.568
N1462 X113.836 Y-1.738
N1463 X113.706 Y-1.899
N1464 X113.565 Y-2.051
N1465 X113.413 Y-2.192
N1466 X113.252 Y-2.322
N1467 X113.082 Y-2.44
N1468 X112.904 Y-2.545
N1469 X112.719 Y-2.638
N1470 X112.527 Y-2.717
N1471 X112.331 Y-2.783
N1472 X112.13 Y-2.834
N1473 X111.927 Y-2.87
N1474 X111.721 Y-2.893
N1475 X111.514 Y-2.9
N1476 X69.834
N1477 X69.627 Y-2.893
N1478 X69.421 Y-2.87
N1479 X69.217 Y-2.834
N1480 X69.016 Y-2.783
N1481 X68.82 Y-2.717
N1482 X68.629 Y-2.638
N1483 X68.444 Y-2.545
N1484 X68.266 Y-2.44
N1485 X68.096 Y-2.322
N1486 X67.934 Y-2.192
N1487 X67.783 Y-2.051
N1488 X67.642 Y-1.899
N1489 X67.512 Y-1.738
N1490 X67.394 Y-1.568
N1491 X67.288 Y-1.39
N1492 X67.196 Y-1.205
N1493 X67.116 Y-1.013
N1494 X67.051 Y-0.817
N1495 X67 Y-0.616
N1496 X66.963 Y-0.413
N1497 X66.941 Y-0.207
N1498 X66.934 Y0
N1499 Y19.09
N1500 X0
N1501 X-0.212 Y19.098
N1502 X-0.422 Y19.121
N1503 X-0.631 Y19.16
N1504 X-0.836 Y19.214
N1505 X-1.036 Y19.282
N1506 X-1.231 Y19.365
N1507 X-1.42 Y19.462
N1508 X-1.601 Y19.572
N1509 X-1.773 Y19.696
N1510 X-1.936 Y19.831
N1511 X-2.088 Y19.978
N1512 X-2.23 Y20.136
N1513 X-2.359 Y20.304
N1514 X-2.476 Y20.481
N1515 X-2.58 Y20.666
N1516 X-2.67 Y20.858
N1517 X-2.745 Y21.056
N1518 X-2.806 Y21.258
N1519 X-2.852 Y21.465
N1520 X-2.883 Y21.675
N1521 X-2.898 Y21.886
N1522 Y22.098
N1523 X-2.882 Y22.31
N1524 X-2.851 Y22.519
N1525 X-2.805 Y22.726
N1526 X-2.744 Y22.929
N1527 X-2.668 Y23.127
N1528 X-2.578 Y23.319
N1529 X-2.474 Y23.503
N1530 X39.328 Y91.868
N1531 X20.07
N1532 X19.858 Y91.876
N1533 X19.647 Y91.899
N1534 X19.439 Y91.937
N1535 X19.234 Y91.991
N1536 X19.033 Y92.059
N1537 X18.838 Y92.142
N1538 X18.65 Y92.239
N1539 X18.469 Y92.35
N1540 X18.297 Y92.473
N1541 X18.134 Y92.609
N1542 X17.981 Y92.756
N1543 X17.84 Y92.914
N1544 X17.71 Y93.081
N1545 X17.594 Y93.258
N1546 X17.49 Y93.443
N1547 X17.4 Y93.635
N1548 X17.324 Y93.833
N1549 X17.264 Y94.036
N1550 X17.218 Y94.243
N1551 X17.187 Y94.452
N1552 X17.171 Y94.664
N1553 X17.172 Y94.876
N1554 X17.187 Y95.087
N1555 X17.218 Y95.297
N1556 X17.264 Y95.503
N1557 X17.326 Y95.706
N1558 X17.401 Y95.904
N1559 X17.492 Y96.096
N1560 X17.595 Y96.281
N1561 X58.687 Y163.482
N1562 X38.639
N1563 X38.428 Y163.49
N1564 X38.217 Y163.513
N1565 X38.009 Y163.551
N1566 X37.804 Y163.605
N1567 X37.603 Y163.674
N1568 X37.408 Y163.756
N1569 X37.22 Y163.853
N1570 X37.039 Y163.964
N1571 X36.866 Y164.087
N1572 X36.704 Y164.223
N1573 X36.551 Y164.37
N1574 X36.41 Y164.528
N1575 X36.28 Y164.696
N1576 X36.163 Y164.872
N1577 X36.06 Y165.057
N1578 X35.97 Y165.249
N1579 X35.894 Y165.447
N1580 X35.833 Y165.65
N1581 X35.787 Y165.857
N1582 X35.757 Y166.067
N1583 X35.741 Y166.278
N1584 X35.742 Y166.49
N1585 X35.757 Y166.701
N1586 X35.788 Y166.911
N1587 X35.834 Y167.118
N1588 X35.896 Y167.32
N1589 X35.971 Y167.518
N1590 X36.062 Y167.71
N1591 X36.165 Y167.895
N1592 X78.737 Y237.518
N1593 X60.332
N1594 X60.119 Y237.526
N1595 X59.909 Y237.549
N1596 X59.7 Y237.588
N1597 X59.494 Y237.641
N1598 X59.294 Y237.71
N1599 X59.098 Y237.793
N1600 X58.91 Y237.891
N1601 X58.729 Y238.001
N1602 X58.556 Y238.125
N1603 X58.393 Y238.261
N1604 X58.241 Y238.409
N1605 X58.099 Y238.567
N1606 X57.97 Y238.735
N1607 X57.853 Y238.912
N1608 X57.75 Y239.098
N1609 X57.66 Y239.29
N1610 X57.585 Y239.489
N1611 X57.524 Y239.692
N1612 X57.478 Y239.899
N1613 X57.448 Y240.109
N1614 X57.433 Y240.321
N1615 X57.434 Y240.533
N1616 X57.45 Y240.745
N1617 X57.482 Y240.955
N1618 X57.529 Y241.162
N1619 X57.591 Y241.365
N1620 X57.667 Y241.563
N1621 X57.758 Y241.755
N1622 X93.279 Y310.139
N1623 X79.666
N1624 X79.453 Y310.147
N1625 X79.242 Y310.17
N1626 X79.032 Y310.209
N1627 X78.827 Y310.263
N1628 X78.625 Y310.332
N1629 X78.43 Y310.416
N1630 X78.24 Y310.513
N1631 X78.059 Y310.625
N1632 X77.886 Y310.749
N1633 X77.723 Y310.886
N1634 X77.571 Y311.034
N1635 X77.429 Y311.193
N1636 X77.3 Y311.362
N1637 X77.183 Y311.54
N1638 X77.08 Y311.726
N1639 X76.991 Y311.919
N1640 X76.916 Y312.118
N1641 X76.856 Y312.323
N1642 X76.811 Y312.531
N1643 X76.781 Y312.741
N1644 X76.767 Y312.954
N1645 X76.769 Y313.167
N1646 X76.786 Y313.379
N1647 X76.818 Y313.589
N1648 X76.866 Y313.796
N1649 X76.929 Y314
N1650 X77.007 Y314.198
N1651 X77.099 Y314.389
N1652 X77.205 Y314.574
N1653 X119.921 Y383.041
N1654 X120.038 Y383.215
N1655 X120.168 Y383.38
N1656 X120.309 Y383.535
N1657 X120.461 Y383.679
N1658 X120.623 Y383.813
N1659 X120.794 Y383.934
N1660 X120.974 Y384.042
N1661 X121.161 Y384.137
N1662 X121.355 Y384.218
N1663 X121.553 Y384.285
N1664 X121.756 Y384.338
N1665 X121.963 Y384.376
N1666 X122.171 Y384.398
N1667 X122.381 Y384.406
N1668 X122.591 Y384.398
N1669 X122.799 Y384.376
N1670 X123.006 Y384.338
N1671 X123.209 Y384.285
N1672 X123.407 Y384.218
N1673 X123.601 Y384.137
N1674 X123.788 Y384.042
N1675 X123.968 Y383.934
N1676 X124.139 Y383.813
N1677 X124.301 Y383.679
N1678 X124.453 Y383.535
N1679 X124.594 Y383.38
N1680 X124.724 Y383.215
N1681 X124.841 Y383.041
N1682 X167.556 Y314.574
N1683 X167.662 Y314.389
N1684 X167.755 Y314.198
N1685 X167.832 Y314
N1686 X167.895 Y313.796
N1687 X167.943 Y313.589
N1688 X167.976 Y313.379
N1689 X167.993 Y313.167
N1690 X167.995 Y312.954
N1691 X167.981 Y312.741
N1692 X167.951 Y312.531
N1693 X167.906 Y312.323
N1694 X167.846 Y312.118
N1695 X167.771 Y311.919
N1696 X167.682 Y311.726
N1697 X167.579 Y311.54
N1698 X167.462 Y311.362
N1699 X167.333 Y311.193
N1700 X167.191 Y311.034
N1701 X167.039 Y310.886
N1702 X166.875 Y310.749
N1703 X166.703 Y310.625
N1704 X166.521 Y310.513
N1705 X166.332 Y310.416
N1706 X166.137 Y310.332
N1707 X165.935 Y310.263
N1708 X165.729 Y310.209
N1709 X165.52 Y310.17
N1710 X165.309 Y310.147
N1711 X165.096 Y310.139
N1712 X156.186
N1713 X151.482 Z8.953 F2500
N1714 X187.004 Y241.755 Z8.178
N1715 X187.094 Y241.563 Z8.176
N1716 X187.171 Y241.365 Z8.173
N1717 X187.233 Y241.162 Z8.171
N1718 X187.28 Y240.955 Z8.169
N1719 X187.311 Y240.745 Z8.167
N1720 X187.328 Y240.533 Z8.165
N1721 Y240.321 Z8.163
N1722 X187.314 Y240.109 Z8.161
N1723 X187.283 Y239.899 Z8.158
N1724 X187.238 Y239.692 Z8.156
N1725 X187.177 Y239.489 Z8.154
N1726 X187.102 Y239.29 Z8.152
N1727 X187.012 Y239.098 Z8.15
N1728 X186.909 Y238.912 Z8.148
N1729 X186.792 Y238.735 Z8.146
N1730 X186.662 Y238.567 Z8.144
N1731 X186.521 Y238.409 Z8.141
N1732 X186.368 Y238.261 Z8.139
N1733 X186.205 Y238.125 Z8.137
N1734 X186.033 Y238.001 Z8.135
N1735 X185.852 Y237.891 Z8.133
N1736 X185.663 Y237.793 Z8.131
N1737 X185.468 Y237.71 Z8.129
N1738 X185.267 Y237.641 Z8.126
N1739 X185.062 Y237.588 Z8.124
N1740 X184.853 Y237.549 Z8.122
N1741 X184.642 Y237.526 Z8.12
N1742 X184.43 Y237.518 Z8.118
N1743 X166.024 Z7.933
N1744 X208.596 Y167.895 Z7.112
N1745 X208.7 Y167.71 Z7.11
N1746 X208.79 Y167.518 Z7.108
N1747 X208.866 Y167.32 Z7.106
N1748 X208.927 Y167.118 Z7.104
N1749 X208.973 Y166.911 Z7.101
N1750 X209.004 Y166.701 Z7.099
N1751 X209.02 Y166.49 Z7.097
N1752 Y166.278 Z7.095
N1753 X209.005 Y166.067 Z7.093
N1754 X208.974 Y165.857 Z7.091
N1755 X208.928 Y165.65 Z7.089
N1756 X208.867 Y165.447 Z7.087
N1757 X208.792 Y165.249 Z7.084
N1758 X208.702 Y165.057 Z7.082
N1759 X208.598 Y164.872 Z7.08
N1760 X208.481 Y164.696 Z7.078
N1761 X208.352 Y164.528 Z7.076
N1762 X208.21 Y164.37 Z7.074
N1763 X208.058 Y164.223 Z7.072
N1764 X207.895 Y164.087 Z7.069
N1765 X207.723 Y163.964 Z7.067
N1766 X207.542 Y163.853 Z7.065
N1767 X207.353 Y163.756 Z7.063
N1768 X207.158 Y163.674 Z7.061
N1769 X206.958 Y163.605 Z7.059
N1770 X206.753 Y163.551 Z7.057
N1771 X206.544 Y163.513 Z7.055
N1772 X206.334 Y163.49 Z7.052
N1773 X206.122 Y163.482 Z7.05
N1774 X186.075 Z6.849
N1775 X227.166 Y96.281 Z6.056
N1776 X227.268 Y96.1 Z6.054
N1777 X227.357 Y95.911 Z6.052
N1778 X227.432 Y95.718 Z6.05
N1779 X227.493 Y95.519 Z6.048
N1780 X227.54 Y95.316 Z6.046
N1781 X227.572 Y95.111 Z6.044
N1782 X227.589 Y94.903 Z6.042
N1783 X227.591 Y94.695 Z6.04
N1784 X227.578 Y94.488 Z6.038
N1785 X227.551 Y94.282 Z6.036
N1786 X227.509 Y94.078 Z6.033
N1787 X227.452 Y93.878 Z6.031
N1788 X227.381 Y93.682 Z6.029
N1789 X227.296 Y93.492 Z6.027
N1790 X227.198 Y93.309 Z6.025
N1791 X227.087 Y93.133 Z6.023
N1792 X226.964 Y92.966 Z6.021
N1793 X226.829 Y92.807 Z6.019
N1794 X226.683 Y92.659 Z6.017
N1795 X226.527 Y92.522 Z6.015
N1796 X226.361 Y92.396 Z6.013
N1797 X226.187 Y92.283 Z6.01
N1798 X226.005 Y92.182 Z6.008
N1799 X225.816 Y92.095 Z6.006
N1800 X225.622 Y92.021 Z6.004
N1801 X225.422 Y91.961 Z6.002
N1802 X225.219 Y91.916 Z6
N1803 X225.045 Y91.889 F2760
N1804 X224.869 Y91.873
N1805 X224.692 Y91.868
N1806 X205.433
N1807 X247.236 Y23.503
N1808 X247.34 Y23.319
N1809 X247.43 Y23.127
N1810 X247.506 Y22.929
N1811 X247.567 Y22.726
N1812 X247.613 Y22.519
N1813 X247.644 Y22.31
N1814 X247.66 Y22.098
N1815 Y21.886
N1816 X247.645 Y21.675
N1817 X247.614 Y21.465
N1818 X247.568 Y21.258
N1819 X247.507 Y21.056
N1820 X247.432 Y20.858
N1821 X247.342 Y20.666
N1822 X247.238 Y20.481
N1823 X247.121 Y20.304
N1824 X246.992 Y20.136
N1825 X246.85 Y19.978
N1826 X246.698 Y19.831
N1827 X246.535 Y19.696
N1828 X246.363 Y19.572
N1829 X246.182 Y19.462
N1830 X245.993 Y19.365
N1831 X245.798 Y19.282
N1832 X245.598 Y19.214
N1833 X245.393 Y19.16
N1834 X245.184 Y19.121
N1835 X244.974 Y19.098
N1836 X244.762 Y19.09
N1837 X174.095
N1838 Y0
N1839 X174.088 Y-0.207
N1840 X174.065 Y-0.413
N1841 X174.029 Y-0.616
N1842 X173.978 Y-0.817
N1843 X173.912 Y-1.013
N1844 X173.833 Y-1.205
N1845 X173.74 Y-1.39
N1846 X173.635 Y-1.568
N1847 X173.517 Y-1.738
N1848 X173.387 Y-1.899
N1849 X173.246 Y-2.051
N1850 X173.094 Y-2.192
N1851 X172.933 Y-2.322
N1852 X172.763 Y-2.44
N1853 X172.585 Y-2.545
N1854 X172.4 Y-2.638
N1855 X172.208 Y-2.717
N1856 X172.012 Y-2.783
N1857 X171.811 Y-2.834
N1858 X171.608 Y-2.87
N1859 X171.402 Y-2.893
N1860 X171.195 Y-2.9
N1861 X129.564
N1862 X129.357 Y-2.893
N1863 X129.151 Y-2.87
N1864 X128.948 Y-2.834
N1865 X128.747 Y-2.783
N1866 X128.551 Y-2.717
N1867 X128.359 Y-2.638
N1868 X128.174 Y-2.545
N1869 X127.996 Y-2.44
N1870 X127.826 Y-2.322
N1871 X127.665 Y-2.192
N1872 X127.513 Y-2.051
N1873 X127.372 Y-1.899
N1874 X127.242 Y-1.738
N1875 X127.124 Y-1.568
N1876 X127.019 Y-1.39
N1877 X126.926 Y-1.205
N1878 X126.847 Y-1.013
N1879 X126.781 Y-0.817
N1880 X126.73 Y-0.616
N1881 X126.694 Y-0.413
N1882 X126.671 Y-0.207
N1883 X126.664 Y0
N1884 Y193.757
N1885 X126.671 Y193.964
N1886 X126.694 Y194.17
N1887 X126.73 Y194.374
N1888 X126.782 Y194.574
N1889 X126.847 Y194.771
N1890 X126.926 Y194.962
N1891 X127.019 Y195.147
N1892 X127.125 Y195.325
N1893 X127.243 Y195.495
N1894 X127.373 Y195.657
N1895 X127.514 Y195.808
N1896 X127.536 Y195.841
N1897 X127.543 Y195.879
N1898 X127.536 Y195.917
N1899 X127.514 Y195.95
N1900 X127.481 Y195.972
N1901 X127.443 Y195.979
N1902 X127.405 Y195.972
N1903 X127.372 Y195.95
N1904 X127.221 Y195.809
N1905 X127.059 Y195.679
N1906 X126.889 Y195.561
N1907 X126.711 Y195.455
N1908 X126.526 Y195.362
N1909 X126.335 Y195.283
N1910 X126.138 Y195.218
N1911 X125.938 Y195.166
N1912 X125.734 Y195.13
N1913 X125.528 Y195.107
N1914 X125.321 Y195.1
N1915 X115.707
N1916 X115.5 Y195.107
N1917 X115.294 Y195.13
N1918 X115.09 Y195.166
N1919 X114.89 Y195.218
N1920 X114.693 Y195.283
N1921 X114.502 Y195.362
N1922 X114.317 Y195.455
N1923 X114.139 Y195.561
N1924 X113.969 Y195.679
N1925 X113.807 Y195.809
N1926 X113.656 Y195.95
N1927 X113.623 Y195.972
N1928 X113.585 Y195.979
N1929 X113.547 Y195.972
N1930 X113.514 Y195.95
N1931 X113.492 Y195.917
N1932 X113.485 Y195.879
N1933 X113.492 Y195.841
N1934 X113.514 Y195.808
N1935 X113.655 Y195.657
N1936 X113.785 Y195.495
N1937 X113.903 Y195.325
N1938 X114.009 Y195.147
N1939 X114.102 Y194.962
N1940 X114.181 Y194.771
N1941 X114.246 Y194.574
N1942 X114.298 Y194.374
N1943 X114.334 Y194.17
N1944 X114.357 Y193.964
N1945 X114.364 Y193.757
N1946 Y22.527
N1947 X114.392 Y22.349
N1948 X114.408 Y22.17
N1949 X114.414 Y21.99
N1950 Y0
N1951 X114.407 Y-0.207
N1952 X114.384 Y-0.413
N1953 X114.348 Y-0.616
N1954 X114.297 Y-0.817
N1955 X114.231 Y-1.013
N1956 X114.152 Y-1.205
N1957 X114.059 Y-1.39
N1958 X113.954 Y-1.568
N1959 X113.836 Y-1.738
N1960 X113.706 Y-1.899
N1961 X113.565 Y-2.051
N1962 X113.413 Y-2.192
N1963 X113.252 Y-2.322
N1964 X113.082 Y-2.44
N1965 X112.904 Y-2.545
N1966 X112.719 Y-2.638
N1967 X112.527 Y-2.717
N1968 X112.331 Y-2.783
N1969 X112.13 Y-2.834
N1970 X111.927 Y-2.87
N1971 X111.721 Y-2.893
N1972 X111.514 Y-2.9
N1973 X69.834
N1974 X69.627 Y-2.893
N1975 X69.421 Y-2.87
N1976 X69.217 Y-2.834
N1977 X69.016 Y-2.783
N1978 X68.82 Y-2.717
N1979 X68.629 Y-2.638
N1980 X68.444 Y-2.545
N1981 X68.266 Y-2.44
N1982 X68.096 Y-2.322
N1983 X67.934 Y-2.192
N1984 X67.783 Y-2.051
N1985 X67.642 Y-1.899
N1986 X67.512 Y-1.738
N1987 X67.394 Y-1.568
N1988 X67.288 Y-1.39
N1989 X67.196 Y-1.205
N1990 X67.116 Y-1.013
N1991 X67.051 Y-0.817
N1992 X67 Y-0.616
N1993 X66.963 Y-0.413
N1994 X66.941 Y-0.207
N1995 X66.934 Y0
N1996 Y19.09
N1997 X0
N1998 X-0.212 Y19.098
N1999 X-0.422 Y19.121
N2000 X-0.631 Y19.16
N2001 X-0.836 Y19.214
N2002 X-1.036 Y19.282
N2003 X-1.231 Y19.365
N2004 X-1.42 Y19.462
N2005 X-1.601 Y19.572
N2006 X-1.773 Y19.696
N2007 X-1.936 Y19.831
N2008 X-2.088 Y19.978
N2009 X-2.23 Y20.136
N2010 X-2.359 Y20.304
N2011 X-2.476 Y20.481
N2012 X-2.58 Y20.666
N2013 X-2.67 Y20.858
N2014 X-2.745 Y21.056
N2015 X-2.806 Y21.258
N2016 X-2.852 Y21.465
N2017 X-2.883 Y21.675
N2018 X-2.898 Y21.886
N2019 Y22.098
N2020 X-2.882 Y22.31
N2021 X-2.851 Y22.519
N2022 X-2.805 Y22.726
N2023 X-2.744 Y22.929
N2024 X-2.668 Y23.127
N2025 X-2.578 Y23.319
N2026 X-2.474 Y23.503
N2027 X39.328 Y91.868
N2028 X20.07
N2029 X19.858 Y91.876
N2030 X19.647 Y91.899
N2031 X19.439 Y91.937
N2032 X19.234 Y91.991
N2033 X19.033 Y92.059
N2034 X18.838 Y92.142
N2035 X18.65 Y92.239
N2036 X18.469 Y92.35
N2037 X18.297 Y92.473
N2038 X18.134 Y92.609
N2039 X17.981 Y92.756
N2040 X17.84 Y92.914
N2041 X17.71 Y93.081
N2042 X17.594 Y93.258
N2043 X17.49 Y93.443
N2044 X17.4 Y93.635
N2045 X17.324 Y93.833
N2046 X17.264 Y94.036
N2047 X17.218 Y94.243
N2048 X17.187 Y94.452
N2049 X17.171 Y94.664
N2050 X17.172 Y94.876
N2051 X17.187 Y95.087
N2052 X17.218 Y95.297
N2053 X17.264 Y95.503
N2054 X17.326 Y95.706
N2055 X17.401 Y95.904
N2056 X17.492 Y96.096
N2057 X17.595 Y96.281
N2058 X58.687 Y163.482
N2059 X38.639
N2060 X38.428 Y163.49
N2061 X38.217 Y163.513
N2062 X38.009 Y163.551
N2063 X37.804 Y163.605
N2064 X37.603 Y163.674
N2065 X37.408 Y163.756
N2066 X37.22 Y163.853
N2067 X37.039 Y163.964
N2068 X36.866 Y164.087
N2069 X36.704 Y164.223
N2070 X36.551 Y164.37
N2071 X36.41 Y164.528
N2072 X36.28 Y164.696
N2073 X36.163 Y164.872
N2074 X36.06 Y165.057
N2075 X35.97 Y165.249
N2076 X35.894 Y165.447
N2077 X35.833 Y165.65
N2078 X35.787 Y165.857
N2079 X35.757 Y166.067
N2080 X35.741 Y166.278
N2081 X35.742 Y166.49
N2082 X35.757 Y166.701
N2083 X35.788 Y166.911
N2084 X35.834 Y167.118
N2085 X35.896 Y167.32
N2086 X35.971 Y167.518
N2087 X36.062 Y167.71
N2088 X36.165 Y167.895
N2089 X78.737 Y237.518
N2090 X60.332
N2091 X60.119 Y237.526
N2092 X59.909 Y237.549
N2093 X59.7 Y237.588
N2094 X59.494 Y237.641
N2095 X59.294 Y237.71
N2096 X59.098 Y237.793
N2097 X58.91 Y237.891
N2098 X58.729 Y238.001
N2099 X58.556 Y238.125
N2100 X58.393 Y238.261
N2101 X58.241 Y238.409
N2102 X58.099 Y238.567
N2103 X57.97 Y238.735
N2104 X57.853 Y238.912
N2105 X57.75 Y239.098
N2106 X57.66 Y239.29
N2107 X57.585 Y239.489
N2108 X57.524 Y239.692
N2109 X57.478 Y239.899
N2110 X57.448 Y240.109
N2111 X57.433 Y240.321
N2112 X57.434 Y240.533
N2113 X57.45 Y240.745
N2114 X57.482 Y240.955
N2115 X57.529 Y241.162
N2116 X57.591 Y241.365
N2117 X57.667 Y241.563
N2118 X57.758 Y241.755
N2119 X93.279 Y310.139
N2120 X79.666
N2121 X79.453 Y310.147
N2122 X79.242 Y310.17
N2123 X79.032 Y310.209
N2124 X78.827 Y310.263
N2125 X78.625 Y310.332
N2126 X78.43 Y310.416
N2127 X78.24 Y310.513
N2128 X78.059 Y310.625
N2129 X77.886 Y310.749
N2130 X77.723 Y310.886
N2131 X77.571 Y311.034
N2132 X77.429 Y311.193
N2133 X77.3 Y311.362
N2134 X77.183 Y311.54
N2135 X77.08 Y311.726
N2136 X76.991 Y311.919
N2137 X76.916 Y312.118
N2138 X76.856 Y312.323
N2139 X76.811 Y312.531
N2140 X76.781 Y312.741
N2141 X76.767 Y312.954
N2142 X76.769 Y313.167
N2143 X76.786 Y313.379
N2144 X76.818 Y313.589
N2145 X76.866 Y313.796
N2146 X76.929 Y314
N2147 X77.007 Y314.198
N2148 X77.099 Y314.389
N2149 X77.205 Y314.574
N2150 X119.921 Y383.041
N2151 X120.038 Y383.215
N2152 X120.168 Y383.38
N2153 X120.309 Y383.535
N2154 X120.461 Y383.679
N2155 X120.623 Y383.813
N2156 X120.794 Y383.934
N2157 X120.974 Y384.042
N2158 X121.161 Y384.137
N2159 X121.355 Y384.218
N2160 X121.553 Y384.285
N2161 X121.756 Y384.338
N2162 X121.963 Y384.376
N2163 X122.171 Y384.398
N2164 X122.381 Y384.406
N2165 X122.591 Y384.398
N2166 X122.799 Y384.376
N2167 X123.006 Y384.338
N2168 X123.209 Y384.285
N2169 X123.407 Y384.218
N2170 X123.601 Y384.137
N2171 X123.788 Y384.042
N2172 X123.968 Y383.934
N2173 X124.139 Y383.813
N2174 X124.301 Y383.679
N2175 X124.453 Y383.535
N2176 X124.594 Y383.38
N2177 X124.724 Y383.215
N2178 X124.841 Y383.041
N2179 X167.556 Y314.574
N2180 X167.662 Y314.389
N2181 X167.755 Y314.198
N2182 X167.832 Y314
N2183 X167.895 Y313.796
N2184 X167.943 Y313.589
N2185 X167.976 Y313.379
N2186 X167.993 Y313.167
N2187 X167.995 Y312.954
N2188 X167.981 Y312.741
N2189 X167.951 Y312.531
N2190 X167.906 Y312.323
N2191 X167.846 Y312.118
N2192 X167.771 Y311.919
N2193 X167.682 Y311.726
N2194 X167.579 Y311.54
N2195 X167.462 Y311.362
N2196 X167.333 Y311.193
N2197 X167.191 Y311.034
N2198 X167.039 Y310.886
N2199 X166.875 Y310.749
N2200 X166.703 Y310.625
N2201 X166.521 Y310.513
N2202 X166.332 Y310.416
N2203 X166.137 Y310.332
N2204 X165.935 Y310.263
N2205 X165.729 Y310.209
N2206 X165.52 Y310.17
N2207 X165.309 Y310.147
N2208 X165.096 Y310.139
N2209 X156.186
N2210 X151.482
N2211 X187.004 Y241.755
N2212 X187.094 Y241.563
N2213 X187.171 Y241.365
N2214 X187.233 Y241.162
N2215 X187.28 Y240.955
N2216 X187.311 Y240.745
N2217 X187.328 Y240.533
N2218 Y240.321
N2219 X187.314 Y240.109
N2220 X187.283 Y239.899
N2221 X187.238 Y239.692
N2222 X187.177 Y239.489
N2223 X187.102 Y239.29
N2224 X187.012 Y239.098
N2225 X186.909 Y238.912
N2226 X186.792 Y238.735
N2227 X186.662 Y238.567
N2228 X186.521 Y238.409
N2229 X186.368 Y238.261
N2230 X186.205 Y238.125
N2231 X186.033 Y238.001
N2232 X185.852 Y237.891
N2233 X185.663 Y237.793
N2234 X185.468 Y237.71
N2235 X185.267 Y237.641
N2236 X185.062 Y237.588
N2237 X184.853 Y237.549
N2238 X184.642 Y237.526
N2239 X184.43 Y237.518
N2240 X166.024
N2241 X208.596 Y167.895
N2242 X208.7 Y167.71
N2243 X208.79 Y167.518
N2244 X208.866 Y167.32
N2245 X208.927 Y167.118
N2246 X208.973 Y166.911
N2247 X209.004 Y166.701
N2248 X209.02 Y166.49
N2249 Y166.278
N2250 X209.005 Y166.067
N2251 X208.974 Y165.857
N2252 X208.928 Y165.65
N2253 X208.867 Y165.447
N2254 X208.792 Y165.249
N2255 X208.702 Y165.057
N2256 X208.598 Y164.872
N2257 X208.481 Y164.696
N2258 X208.352 Y164.528
N2259 X208.21 Y164.37
N2260 X208.058 Y164.223
N2261 X207.895 Y164.087
N2262 X207.723 Y163.964
N2263 X207.542 Y163.853
N2264 X207.353 Y163.756
N2265 X207.158 Y163.674
N2266 X206.958 Y163.605
N2267 X206.753 Y163.551
N2268 X206.544 Y163.513
N2269 X206.334 Y163.49
N2270 X206.122 Y163.482
N2271 X186.075
N2272 X227.166 Y96.281
N2273 X227.268 Y96.1
N2274 X227.357 Y95.911
N2275 X227.432 Y95.718
N2276 X227.493 Y95.519
N2277 X227.54 Y95.316
N2278 X227.572 Y95.111
N2279 X227.589 Y94.903
N2280 X227.591 Y94.695
N2281 X227.578 Y94.488
N2282 X227.551 Y94.282
N2283 X227.509 Y94.078
N2284 X227.452 Y93.878
N2285 X227.381 Y93.682
N2286 X227.296 Y93.492
N2287 X227.198 Y93.309
N2288 X227.087 Y93.133
N2289 X226.964 Y92.966
N2290 X226.829 Y92.807
N2291 X226.683 Y92.659
N2292 X226.527 Y92.522
N2293 X226.361 Y92.396
N2294 X226.187 Y92.283
N2295 X226.005 Y92.182
N2296 X225.816 Y92.095
N2297 X225.622 Y92.021
N2298 X225.422 Y91.961
N2299 X225.219 Y91.916
N2300 X225.045 Y91.889 Z5.998 F2500
N2301 X224.869 Y91.873 Z5.996
N2302 X224.692 Y91.868 Z5.995
N2303 X205.433 Z5.801
N2304 X247.236 Y23.503 Z4.995
N2305 X247.34 Y23.319 Z4.993
N2306 X247.43 Y23.127 Z4.991
N2307 X247.506 Y22.929 Z4.989
N2308 X247.567 Y22.726 Z4.987
N2309 X247.613 Y22.519 Z4.984
N2310 X247.644 Y22.31 Z4.982
N2311 X247.66 Y22.098 Z4.98
N2312 Y21.886 Z4.978
N2313 X247.645 Y21.675 Z4.976
N2314 X247.614 Y21.465 Z4.974
N2315 X247.568 Y21.258 Z4.972
N2316 X247.507 Y21.056 Z4.97
N2317 X247.432 Y20.858 Z4.967
N2318 X247.342 Y20.666 Z4.965
N2319 X247.238 Y20.481 Z4.963
N2320 X247.121 Y20.304 Z4.961
N2321 X246.992 Y20.136 Z4.959
N2322 X246.85 Y19.978 Z4.957
N2323 X246.698 Y19.831 Z4.955
N2324 X246.535 Y19.696 Z4.952
N2325 X246.363 Y19.572 Z4.95
N2326 X246.182 Y19.462 Z4.948
N2327 X245.993 Y19.365 Z4.946
N2328 X245.798 Y19.282 Z4.944
N2329 X245.598 Y19.214 Z4.942
N2330 X245.393 Y19.16 Z4.94
N2331 X245.184 Y19.121 Z4.938
N2332 X244.974 Y19.098 Z4.935
N2333 X244.762 Y19.09 Z4.933
N2334 X174.095 Z4.223
N2335 Y0 Z4.031
N2336 X174.088 Y-0.207 Z4.028
N2337 X174.065 Y-0.413 Z4.026
N2338 X174.029 Y-0.616 Z4.024
N2339 X173.978 Y-0.817 Z4.022
N2340 X173.912 Y-1.013 Z4.02
N2341 X173.833 Y-1.205 Z4.018
N2342 X173.74 Y-1.39 Z4.016
N2343 X173.635 Y-1.568 Z4.014
N2344 X173.517 Y-1.738 Z4.012
N2345 X173.387 Y-1.899 Z4.01
N2346 X173.246 Y-2.051 Z4.008
N2347 X173.094 Y-2.192 Z4.006
N2348 X172.933 Y-2.322 Z4.004
N2349 X172.763 Y-2.44 Z4.001
N2350 X172.585 Y-2.545 Z3.999
N2351 X172.4 Y-2.638 Z3.997
N2352 X172.208 Y-2.717 Z3.995
N2353 X172.012 Y-2.783 Z3.993
N2354 X171.811 Y-2.834 Z3.991
N2355 X171.608 Y-2.87 Z3.989
N2356 X171.402 Y-2.893 Z3.987
N2357 X171.195 Y-2.9 Z3.985
N2358 X129.564 Z3.566
N2359 X129.357 Y-2.893 Z3.564
N2360 X129.151 Y-2.87 Z3.562
N2361 X128.948 Y-2.834 Z3.56
N2362 X128.747 Y-2.783 Z3.558
N2363 X128.551 Y-2.717 Z3.556
N2364 X128.359 Y-2.638 Z3.554
N2365 X128.174 Y-2.545 Z3.552
N2366 X127.996 Y-2.44 Z3.549
N2367 X127.826 Y-2.322 Z3.547
N2368 X127.665 Y-2.192 Z3.545
N2369 X127.513 Y-2.051 Z3.543
N2370 X127.372 Y-1.899 Z3.541
N2371 X127.242 Y-1.738 Z3.539
N2372 X127.124 Y-1.568 Z3.537
N2373 X127.019 Y-1.39 Z3.535
N2374 X126.926 Y-1.205 Z3.533
N2375 X126.847 Y-1.013 Z3.531
N2376 X126.781 Y-0.817 Z3.529
N2377 X126.73 Y-0.616 Z3.527
N2378 X126.694 Y-0.413 Z3.524
N2379 X126.671 Y-0.207 Z3.522
N2380 X126.664 Y0 Z3.52
N2381 Y51.732 Z3
N2382 Y193.757 F2760
N2383 X126.671 Y193.964
N2384 X126.694 Y194.17
N2385 X126.73 Y194.374
N2386 X126.782 Y194.574
N2387 X126.847 Y194.771
N2388 X126.926 Y194.962
N2389 X127.019 Y195.147
N2390 X127.125 Y195.325
N2391 X127.243 Y195.495
N2392 X127.373 Y195.657
N2393 X127.514 Y195.808
N2394 X127.536 Y195.841
N2395 X127.543 Y195.879
N2396 X127.536 Y195.917
N2397 X127.514 Y195.95
N2398 X127.481 Y195.972
N2399 X127.443 Y195.979
N2400 X127.405 Y195.972
N2401 X127.372 Y195.95
N2402 X127.221 Y195.809
N2403 X127.059 Y195.679
N2404 X126.889 Y195.561
N2405 X126.711 Y195.455
N2406 X126.526 Y195.362
N2407 X126.335 Y195.283
N2408 X126.138 Y195.218
N2409 X125.938 Y195.166
N2410 X125.734 Y195.13
N2411 X125.528 Y195.107
N2412 X125.321 Y195.1
N2413 X115.707
N2414 X115.5 Y195.107
N2415 X115.294 Y195.13
N2416 X115.09 Y195.166
N2417 X114.89 Y195.218
N2418 X114.693 Y195.283
N2419 X114.502 Y195.362
N2420 X114.317 Y195.455
N2421 X114.139 Y195.561
N2422 X113.969 Y195.679
N2423 X113.807 Y195.809
N2424 X113.656 Y195.95
N2425 X113.623 Y195.972
N2426 X113.585 Y195.979
N2427 X113.547 Y195.972
N2428 X113.514 Y195.95
N2429 X113.492 Y195.917
N2430 X113.485 Y195.879
N2431 X113.492 Y195.841
N2432 X113.514 Y195.808
N2433 X113.655 Y195.657
N2434 X113.785 Y195.495
N2435 X113.903 Y195.325
N2436 X114.009 Y195.147
N2437 X114.102 Y194.962
N2438 X114.181 Y194.771
N2439 X114.246 Y194.574
N2440 X114.298 Y194.374
N2441 X114.334 Y194.17
N2442 X114.357 Y193.964
N2443 X114.364 Y193.757
N2444 Y22.527
N2445 X114.392 Y22.349
N2446 X114.408 Y22.17
N2447 X114.414 Y21.99
N2448 Y0
N2449 X114.407 Y-0.207
N2450 X114.384 Y-0.413
N2451 X114.348 Y-0.616
N2452 X114.297 Y-0.817
N2453 X114.231 Y-1.013
N2454 X114.152 Y-1.205
N2455 X114.059 Y-1.39
N2456 X113.954 Y-1.568
N2457 X113.836 Y-1.738
N2458 X113.706 Y-1.899
N2459 X113.565 Y-2.051
N2460 X113.413 Y-2.192
N2461 X113.252 Y-2.322
N2462 X113.082 Y-2.44
N2463 X112.904 Y-2.545
N2464 X112.719 Y-2.638
N2465 X112.527 Y-2.717
N2466 X112.331 Y-2.783
N2467 X112.13 Y-2.834
N2468 X111.927 Y-2.87
N2469 X111.721 Y-2.893
N2470 X111.514 Y-2.9
N2471 X69.834
N2472 X69.627 Y-2.893
N2473 X69.421 Y-2.87
N2474 X69.217 Y-2.834
N2475 X69.016 Y-2.783
N2476 X68.82 Y-2.717
N2477 X68.629 Y-2.638
N2478 X68.444 Y-2.545
N2479 X68.266 Y-2.44
N2480 X68.096 Y-2.322
N2481 X67.934 Y-2.192
N2482 X67.783 Y-2.051
N2483 X67.642 Y-1.899
N2484 X67.512 Y-1.738
N2485 X67.394 Y-1.568
N2486 X67.288 Y-1.39
N2487 X67.196 Y-1.205
N2488 X67.116 Y-1.013
N2489 X67.051 Y-0.817
N2490 X67 Y-0.616
N2491 X66.963 Y-0.413
N2492 X66.941 Y-0.207
N2493 X66.934 Y0
N2494 Y19.09
N2495 X0
N2496 X-0.212 Y19.098
N2497 X-0.422 Y19.121
N2498 X-0.631 Y19.16
N2499 X-0.836 Y19.214
N2500 X-1.036 Y19.282
N2501 X-1.231 Y19.365
N2502 X-1.42 Y19.462
N2503 X-1.601 Y19.572
N2504 X-1.773 Y19.696
N2505 X-1.936 Y19.831
N2506 X-2.088 Y19.978
N2507 X-2.23 Y20.136
N2508 X-2.359 Y20.304
N2509 X-2.476 Y20.481
N2510 X-2.58 Y20.666
N2511 X-2.67 Y20.858
N2512 X-2.745 Y21.056
N2513 X-2.806 Y21.258
N2514 X-2.852 Y21.465
N2515 X-2.883 Y21.675
N2516 X-2.898 Y21.886
N2517 Y22.098
N2518 X-2.882 Y22.31
N2519 X-2.851 Y22.519
N2520 X-2.805 Y22.726
N2521 X-2.744 Y22.929
N2522 X-2.668 Y23.127
N2523 X-2.578 Y23.319
N2524 X-2.474 Y23.503
N2525 X39.328 Y91.868
N2526 X20.07
N2527 X19.858 Y91.876
N2528 X19.647 Y91.899
N2529 X19.439 Y91.937
N2530 X19.234 Y91.991
N2531 X19.033 Y92.059
N2532 X18.838 Y92.142
N2533 X18.65 Y92.239
N2534 X18.469 Y92.35
N2535 X18.297 Y92.473
N2536 X18.134 Y92.609
N2537 X17.981 Y92.756
N2538 X17.84 Y92.914
N2539 X17.71 Y93.081
N2540 X17.594 Y93.258
N2541 X17.49 Y93.443
N2542 X17.4 Y93.635
N2543 X17.324 Y93.833
N2544 X17.264 Y94.036
N2545 X17.218 Y94.243
N2546 X17.187 Y94.452
N2547 X17.171 Y94.664
N2548 X17.172 Y94.876
N2549 X17.187 Y95.087
N2550 X17.218 Y95.297
N2551 X17.264 Y95.503
N2552 X17.326 Y95.706
N2553 X17.401 Y95.904
N2554 X17.492 Y96.096
N2555 X17.595 Y96.281
N2556 X58.687 Y163.482
N2557 X38.639
N2558 X38.428 Y163.49
N2559 X38.217 Y163.513
N2560 X38.009 Y163.551
N2561 X37.804 Y163.605
N2562 X37.603 Y163.674
N2563 X37.408 Y163.756
N2564 X37.22 Y163.853
N2565 X37.039 Y163.964
N2566 X36.866 Y164.087
N2567 X36.704 Y164.223
N2568 X36.551 Y164.37
N2569 X36.41 Y164.528
N2570 X36.28 Y164.696
N2571 X36.163 Y164.872
N2572 X36.06 Y165.057
N2573 X35.97 Y165.249
N2574 X35.894 Y165.447
N2575 X35.833 Y165.65
N2576 X35.787 Y165.857
N2577 X35.757 Y166.067
N2578 X35.741 Y166.278
N2579 X35.742 Y166.49
N2580 X35.757 Y166.701
N2581 X35.788 Y166.911
N2582 X35.834 Y167.118
N2583 X35.896 Y167.32
N2584 X35.971 Y167.518
N2585 X36.062 Y167.71
N2586 X36.165 Y167.895
N2587 X78.737 Y237.518
N2588 X60.332
N2589 X60.119 Y237.526
N2590 X59.909 Y237.549
N2591 X59.7 Y237.588
N2592 X59.494 Y237.641
N2593 X59.294 Y237.71
N2594 X59.098 Y237.793
N2595 X58.91 Y237.891
N2596 X58.729 Y238.001
N2597 X58.556 Y238.125
N2598 X58.393 Y238.261
N2599 X58.241 Y238.409
N2600 X58.099 Y238.567
N2601 X57.97 Y238.735
N2602 X57.853 Y238.912
N2603 X57.75 Y239.098
N2604 X57.66 Y239.29
N2605 X57.585 Y239.489
N2606 X57.524 Y239.692
N2607 X57.478 Y239.899
N2608 X57.448 Y240.109
N2609 X57.433 Y240.321
N2610 X57.434 Y240.533
N2611 X57.45 Y240.745
N2612 X57.482 Y240.955
N2613 X57.529 Y241.162
N2614 X57.591 Y241.365
N2615 X57.667 Y241.563
N2616 X57.758 Y241.755
N2617 X93.279 Y310.139
N2618 X79.666
N2619 X79.453 Y310.147
N2620 X79.242 Y310.17
N2621 X79.032 Y310.209
N2622 X78.827 Y310.263
N2623 X78.625 Y310.332
N2624 X78.43 Y310.416
N2625 X78.24 Y310.513
N2626 X78.059 Y310.625
N2627 X77.886 Y310.749
N2628 X77.723 Y310.886
N2629 X77.571 Y311.034
N2630 X77.429 Y311.193
N2631 X77.3 Y311.362
N2632 X77.183 Y311.54
N2633 X77.08 Y311.726
N2634 X76.991 Y311.919
N2635 X76.916 Y312.118
N2636 X76.856 Y312.323
N2637 X76.811 Y312.531
N2638 X76.781 Y312.741
N2639 X76.767 Y312.954
N2640 X76.769 Y313.167
N2641 X76.786 Y313.379
N2642 X76.818 Y313.589
N2643 X76.866 Y313.796
N2644 X76.929 Y314
N2645 X77.007 Y314.198
N2646 X77.099 Y314.389
N2647 X77.205 Y314.574
N2648 X119.921 Y383.041
N2649 X120.038 Y383.215
N2650 X120.168 Y383.38
N2651 X120.309 Y383.535
N2652 X120.461 Y383.679
N2653 X120.623 Y383.813
N2654 X120.794 Y383.934
N2655 X120.974 Y384.042
N2656 X121.161 Y384.137
N2657 X121.355 Y384.218
N2658 X121.553 Y384.285
N2659 X121.756 Y384.338
N2660 X121.963 Y384.376
N2661 X122.171 Y384.398
N2662 X122.381 Y384.406
N2663 X122.591 Y384.398
N2664 X122.799 Y384.376
N2665 X123.006 Y384.338
N2666 X123.209 Y384.285
N2667 X123.407 Y384.218
N2668 X123.601 Y384.137
N2669 X123.788 Y384.042
N2670 X123.968 Y383.934
N2671 X124.139 Y383.813
N2672 X124.301 Y383.679
N2673 X124.453 Y383.535
N2674 X124.594 Y383.38
N2675 X124.724 Y383.215
N2676 X124.841 Y383.041
N2677 X167.556 Y314.574
N2678 X167.662 Y314.389
N2679 X167.755 Y314.198
N2680 X167.832 Y314
N2681 X167.895 Y313.796
N2682 X167.943 Y313.589
N2683 X167.976 Y313.379
N2684 X167.993 Y313.167
N2685 X167.995 Y312.954
N2686 X167.981 Y312.741
N2687 X167.951 Y312.531
N2688 X167.906 Y312.323
N2689 X167.846 Y312.118
N2690 X167.771 Y311.919
N2691 X167.682 Y311.726
N2692 X167.579 Y311.54
N2693 X167.462 Y311.362
N2694 X167.333 Y311.193
N2695 X167.191 Y311.034
N2696 X167.039 Y310.886
N2697 X166.875 Y310.749
N2698 X166.703 Y310.625
N2699 X166.521 Y310.513
N2700 X166.332 Y310.416
N2701 X166.137 Y310.332
N2702 X165.935 Y310.263
N2703 X165.729 Y310.209
N2704 X165.52 Y310.17
N2705 X165.309 Y310.147
N2706 X165.096 Y310.139
N2707 X151.482
N2708 X187.004 Y241.755
N2709 X187.094 Y241.563
N2710 X187.171 Y241.365
N2711 X187.233 Y241.162
N2712 X187.28 Y240.955
N2713 X187.311 Y240.745
N2714 X187.328 Y240.533
N2715 Y240.321
N2716 X187.314 Y240.109
N2717 X187.283 Y239.899
N2718 X187.238 Y239.692
N2719 X187.177 Y239.489
N2720 X187.102 Y239.29
N2721 X187.012 Y239.098
N2722 X186.909 Y238.912
N2723 X186.792 Y238.735
N2724 X186.662 Y238.567
N2725 X186.521 Y238.409
N2726 X186.368 Y238.261
N2727 X186.205 Y238.125
N2728 X186.033 Y238.001
N2729 X185.852 Y237.891
N2730 X185.663 Y237.793
N2731 X185.468 Y237.71
N2732 X185.267 Y237.641
N2733 X185.062 Y237.588
N2734 X184.853 Y237.549
N2735 X184.642 Y237.526
N2736 X184.43 Y237.518
N2737 X166.024
N2738 X208.596 Y167.895
N2739 X208.7 Y167.71
N2740 X208.79 Y167.518
N2741 X208.866 Y167.32
N2742 X208.927 Y167.118
N2743 X208.973 Y166.911
N2744 X209.004 Y166.701
N2745 X209.02 Y166.49
N2746 Y166.278
N2747 X209.005 Y166.067
N2748 X208.974 Y165.857
N2749 X208.928 Y165.65
N2750 X208.867 Y165.447
N2751 X208.792 Y165.249
N2752 X208.702 Y165.057
N2753 X208.598 Y164.872
N2754 X208.481 Y164.696
N2755 X208.352 Y164.528
N2756 X208.21 Y164.37
N2757 X208.058 Y164.223
N2758 X207.895 Y164.087
N2759 X207.723 Y163.964
N2760 X207.542 Y163.853
N2761 X207.353 Y163.756
N2762 X207.158 Y163.674
N2763 X206.958 Y163.605
N2764 X206.753 Y163.551
N2765 X206.544 Y163.513
N2766 X206.334 Y163.49
N2767 X206.122 Y163.482
N2768 X186.075
N2769 X227.166 Y96.281
N2770 X227.27 Y96.096
N2771 X227.36 Y95.904
N2772 X227.436 Y95.706
N2773 X227.497 Y95.503
N2774 X227.543 Y95.297
N2775 X227.574 Y95.087
N2776 X227.59 Y94.876
N2777 Y94.664
N2778 X227.575 Y94.452
N2779 X227.544 Y94.243
N2780 X227.498 Y94.036
N2781 X227.437 Y93.833
N2782 X227.362 Y93.635
N2783 X227.272 Y93.443
N2784 X227.168 Y93.258
N2785 X227.051 Y93.081
N2786 X226.922 Y92.914
N2787 X226.78 Y92.756
N2788 X226.628 Y92.609
N2789 X226.465 Y92.473
N2790 X226.293 Y92.35
N2791 X226.112 Y92.239
N2792 X225.923 Y92.142
N2793 X225.728 Y92.059
N2794 X225.528 Y91.991
N2795 X225.323 Y91.937
N2796 X225.114 Y91.899
N2797 X224.904 Y91.876
N2798 X224.692 Y91.868
N2799 X205.433
N2800 X247.236 Y23.503
N2801 X247.34 Y23.319
N2802 X247.43 Y23.127
N2803 X247.506 Y22.929
N2804 X247.567 Y22.726
N2805 X247.613 Y22.519
N2806 X247.644 Y22.31
N2807 X247.66 Y22.098
N2808 Y21.886
N2809 X247.645 Y21.675
N2810 X247.614 Y21.465
N2811 X247.568 Y21.258
N2812 X247.507 Y21.056
N2813 X247.432 Y20.858
N2814 X247.342 Y20.666
N2815 X247.238 Y20.481
N2816 X247.121 Y20.304
N2817 X246.992 Y20.136
N2818 X246.85 Y19.978
N2819 X246.698 Y19.831
N2820 X246.535 Y19.696
N2821 X246.363 Y19.572
N2822 X246.182 Y19.462
N2823 X245.993 Y19.365
N2824 X245.798 Y19.282
N2825 X245.598 Y19.214
N2826 X245.393 Y19.16
N2827 X245.184 Y19.121
N2828 X244.974 Y19.098
N2829 X244.762 Y19.09
N2830 X174.095
N2831 Y0
N2832 X174.088 Y-0.207
N2833 X174.065 Y-0.413
N2834 X174.029 Y-0.616
N2835 X173.978 Y-0.817
N2836 X173.912 Y-1.013
N2837 X173.833 Y-1.205
N2838 X173.74 Y-1.39
N2839 X173.635 Y-1.568
N2840 X173.517 Y-1.738
N2841 X173.387 Y-1.899
N2842 X173.246 Y-2.051
N2843 X173.094 Y-2.192
N2844 X172.933 Y-2.322
N2845 X172.763 Y-2.44
N2846 X172.585 Y-2.545
N2847 X172.4 Y-2.638
N2848 X172.208 Y-2.717
N2849 X172.012 Y-2.783
N2850 X171.811 Y-2.834
N2851 X171.608 Y-2.87
N2852 X171.402 Y-2.893
N2853 X171.195 Y-2.9
N2854 X129.564
N2855 X129.357 Y-2.893
N2856 X129.151 Y-2.87
N2857 X128.948 Y-2.834
N2858 X128.747 Y-2.783
N2859 X128.551 Y-2.717
N2860 X128.359 Y-2.638
N2861 X128.174 Y-2.545
N2862 X127.996 Y-2.44
N2863 X127.826 Y-2.322
N2864 X127.665 Y-2.192
N2865 X127.513 Y-2.051
N2866 X127.372 Y-1.899
N2867 X127.242 Y-1.738
N2868 X127.124 Y-1.568
N2869 X127.019 Y-1.39
N2870 X126.926 Y-1.205
N2871 X126.847 Y-1.013
N2872 X126.781 Y-0.817
N2873 X126.73 Y-0.616
N2874 X126.694 Y-0.413
N2875 X126.671 Y-0.207
N2876 X126.664 Y0
N2877 Y51.732
N2878 Y193.757 Z1.572 F2500
N2879 X126.671 Y193.964 Z1.57
N2880 X126.694 Y194.17 Z1.567
N2881 X126.73 Y194.374 Z1.565
N2882 X126.782 Y194.574 Z1.563
N2883 X126.847 Y194.771 Z1.561
N2884 X126.926 Y194.962 Z1.559
N2885 X127.019 Y195.147 Z1.557
N2886 X127.125 Y195.325 Z1.555
N2887 X127.243 Y195.495 Z1.553
N2888 X127.373 Y195.657 Z1.551
N2889 X127.514 Y195.808 Z1.549
N2890 X127.536 Y195.841 Z1.548
N2891 X127.543 Y195.879
N2892 X127.536 Y195.917
N2893 X127.514 Y195.95 Z1.547
N2894 X127.481 Y195.972
N2895 X127.443 Y195.979 Z1.546
N2896 X127.405 Y195.972
N2897 X127.372 Y195.95
N2898 X127.221 Y195.809 Z1.543
N2899 X127.059 Y195.679 Z1.541
N2900 X126.889 Y195.561 Z1.539
N2901 X126.711 Y195.455 Z1.537
N2902 X126.526 Y195.362 Z1.535
N2903 X126.335 Y195.283 Z1.533
N2904 X126.138 Y195.218 Z1.531
N2905 X125.938 Y195.166 Z1.529
N2906 X125.734 Y195.13 Z1.527
N2907 X125.528 Y195.107 Z1.525
N2908 X125.321 Y195.1 Z1.523
N2909 X115.707 Z1.426
N2910 X115.5 Y195.107 Z1.424
N2911 X115.294 Y195.13 Z1.422
N2912 X115.09 Y195.166 Z1.42
N2913 X114.89 Y195.218 Z1.418
N2914 X114.693 Y195.283 Z1.416
N2915 X114.502 Y195.362 Z1.413
N2916 X114.317 Y195.455 Z1.411
N2917 X114.139 Y195.561 Z1.409
N2918 X113.969 Y195.679 Z1.407
N2919 X113.807 Y195.809 Z1.405
N2920 X113.656 Y195.95 Z1.403
N2921 X113.623 Y195.972
N2922 X113.585 Y195.979 Z1.402
N2923 X113.547 Y195.972
N2924 X113.514 Y195.95 Z1.401
N2925 X113.492 Y195.917
N2926 X113.485 Y195.879
N2927 X113.492 Y195.841 Z1.4
N2928 X113.514 Y195.808
N2929 X113.655 Y195.657 Z1.398
N2930 X113.785 Y195.495 Z1.396
N2931 X113.903 Y195.325 Z1.394
N2932 X114.009 Y195.147 Z1.392
N2933 X114.102 Y194.962 Z1.389
N2934 X114.181 Y194.771 Z1.387
N2935 X114.246 Y194.574 Z1.385
N2936 X114.298 Y194.374 Z1.383
N2937 X114.334 Y194.17 Z1.381
N2938 X114.357 Y193.964 Z1.379
N2939 X114.364 Y193.757 Z1.377
N2940 Y76.727 Z0.2
N2941 Y22.527 F2760
N2942 X114.392 Y22.349
N2943 X114.408 Y22.17
N2944 X114.414 Y21.99
N2945 Y0
N2946 X114.407 Y-0.207
N2947 X114.384 Y-0.413
N2948 X114.348 Y-0.616
N2949 X114.297 Y-0.817
N2950 X114.231 Y-1.013
N2951 X114.152 Y-1.205
N2952 X114.059 Y-1.39
N2953 X113.954 Y-1.568
N2954 X113.836 Y-1.738
N2955 X113.706 Y-1.899
N2956 X113.565 Y-2.051
N2957 X113.413 Y-2.192
N2958 X113.252 Y-2.322
N2959 X113.082 Y-2.44
N2960 X112.904 Y-2.545
N2961 X112.719 Y-2.638
N2962 X112.527 Y-2.717
N2963 X112.331 Y-2.783
N2964 X112.13 Y-2.834
N2965 X111.927 Y-2.87
N2966 X111.721 Y-2.893
N2967 X111.514 Y-2.9
N2968 X69.834
N2969 X69.627 Y-2.893
N2970 X69.421 Y-2.87
N2971 X69.217 Y-2.834
N2972 X69.016 Y-2.783
N2973 X68.82 Y-2.717
N2974 X68.629 Y-2.638
N2975 X68.444 Y-2.545
N2976 X68.266 Y-2.44
N2977 X68.096 Y-2.322
N2978 X67.934 Y-2.192
N2979 X67.783 Y-2.051
N2980 X67.642 Y-1.899
N2981 X67.512 Y-1.738
N2982 X67.394 Y-1.568
N2983 X67.288 Y-1.39
N2984 X67.196 Y-1.205
N2985 X67.116 Y-1.013
N2986 X67.051 Y-0.817
N2987 X67 Y-0.616
N2988 X66.963 Y-0.413
N2989 X66.941 Y-0.207
N2990 X66.934 Y0
N2991 Y19.09
N2992 X0
N2993 X-0.212 Y19.098
N2994 X-0.422 Y19.121
N2995 X-0.631 Y19.16
N2996 X-0.836 Y19.214
N2997 X-1.036 Y19.282
N2998 X-1.231 Y19.365
N2999 X-1.42 Y19.462
N3000 X-1.601 Y19.572
N3001 X-1.773 Y19.696
N3002 X-1.936 Y19.831
N3003 X-2.088 Y19.978
N3004 X-2.23 Y20.136
N3005 X-2.359 Y20.304
N3006 X-2.476 Y20.481
N3007 X-2.58 Y20.666
N3008 X-2.67 Y20.858
N3009 X-2.745 Y21.056
N3010 X-2.806 Y21.258
N3011 X-2.852 Y21.465
N3012 X-2.883 Y21.675
N3013 X-2.898 Y21.886
N3014 Y22.098
N3015 X-2.882 Y22.31
N3016 X-2.851 Y22.519
N3017 X-2.805 Y22.726
N3018 X-2.744 Y22.929
N3019 X-2.668 Y23.127
N3020 X-2.578 Y23.319
N3021 X-2.474 Y23.503
N3022 X39.328 Y91.868
N3023 X20.07
N3024 X19.858 Y91.876
N3025 X19.647 Y91.899
N3026 X19.439 Y91.937
N3027 X19.234 Y91.991
N3028 X19.033 Y92.059
N3029 X18.838 Y92.142
N3030 X18.65 Y92.239
N3031 X18.469 Y92.35
N3032 X18.297 Y92.473
N3033 X18.134 Y92.609
N3034 X17.981 Y92.756
N3035 X17.84 Y92.914
N3036 X17.71 Y93.081
N3037 X17.594 Y93.258
N3038 X17.49 Y93.443
N3039 X17.4 Y93.635
N3040 X17.324 Y93.833
N3041 X17.264 Y94.036
N3042 X17.218 Y94.243
N3043 X17.187 Y94.452
N3044 X17.171 Y94.664
N3045 X17.172 Y94.876
N3046 X17.187 Y95.087
N3047 X17.218 Y95.297
N3048 X17.264 Y95.503
N3049 X17.326 Y95.706
N3050 X17.401 Y95.904
N3051 X17.492 Y96.096
N3052 X17.595 Y96.281
N3053 X58.687 Y163.482
N3054 X38.639
N3055 X38.428 Y163.49
N3056 X38.217 Y163.513
N3057 X38.009 Y163.551
N3058 X37.804 Y163.605
N3059 X37.603 Y163.674
N3060 X37.408 Y163.756
N3061 X37.22 Y163.853
N3062 X37.039 Y163.964
N3063 X36.866 Y164.087
N3064 X36.704 Y164.223
N3065 X36.551 Y164.37
N3066 X36.41 Y164.528
N3067 X36.28 Y164.696
N3068 X36.163 Y164.872
N3069 X36.06 Y165.057
N3070 X35.97 Y165.249
N3071 X35.894 Y165.447
N3072 X35.833 Y165.65
N3073 X35.787 Y165.857
N3074 X35.757 Y166.067
N3075 X35.741 Y166.278
N3076 X35.742 Y166.49
N3077 X35.757 Y166.701
N3078 X35.788 Y166.911
N3079 X35.834 Y167.118
N3080 X35.896 Y167.32
N3081 X35.971 Y167.518
N3082 X36.062 Y167.71
N3083 X36.165 Y167.895
N3084 X78.737 Y237.518
N3085 X60.332
N3086 X60.119 Y237.526
N3087 X59.909 Y237.549
N3088 X59.7 Y237.588
N3089 X59.494 Y237.641
N3090 X59.294 Y237.71
N3091 X59.098 Y237.793
N3092 X58.91 Y237.891
N3093 X58.729 Y238.001
N3094 X58.556 Y238.125
N3095 X58.393 Y238.261
N3096 X58.241 Y238.409
N3097 X58.099 Y238.567
N3098 X57.97 Y238.735
N3099 X57.853 Y238.912
N3100 X57.75 Y239.098
N3101 X57.66 Y239.29
N3102 X57.585 Y239.489
N3103 X57.524 Y239.692
N3104 X57.478 Y239.899
N3105 X57.448 Y240.109
N3106 X57.433 Y240.321
N3107 X57.434 Y240.533
N3108 X57.45 Y240.745
N3109 X57.482 Y240.955
N3110 X57.529 Y241.162
N3111 X57.591 Y241.365
N3112 X57.667 Y241.563
N3113 X57.758 Y241.755
N3114 X93.279 Y310.139
N3115 X79.666
N3116 X79.453 Y310.147
N3117 X79.242 Y310.17
N3118 X79.032 Y310.209
N3119 X78.827 Y310.263
N3120 X78.625 Y310.332
N3121 X78.43 Y310.416
N3122 X78.24 Y310.513
N3123 X78.059 Y310.625
N3124 X77.886 Y310.749
N3125 X77.723 Y310.886
N3126 X77.571 Y311.034
N3127 X77.429 Y311.193
N3128 X77.3 Y311.362
N3129 X77.183 Y311.54
N3130 X77.08 Y311.726
N3131 X76.991 Y311.919
N3132 X76.916 Y312.118
N3133 X76.856 Y312.323
N3134 X76.811 Y312.531
N3135 X76.781 Y312.741
N3136 X76.767 Y312.954
N3137 X76.769 Y313.167
N3138 X76.786 Y313.379
N3139 X76.818 Y313.589
N3140 X76.866 Y313.796
N3141 X76.929 Y314
N3142 X77.007 Y314.198
N3143 X77.099 Y314.389
N3144 X77.205 Y314.574
N3145 X119.921 Y383.041
N3146 X120.038 Y383.215
N3147 X120.168 Y383.38
N3148 X120.309 Y383.535
N3149 X120.461 Y383.679
N3150 X120.623 Y383.813
N3151 X120.794 Y383.934
N3152 X120.974 Y384.042
N3153 X121.161 Y384.137
N3154 X121.355 Y384.218
N3155 X121.553 Y384.285
N3156 X121.756 Y384.338
N3157 X121.963 Y384.376
N3158 X122.171 Y384.398
N3159 X122.381 Y384.406
N3160 X122.591 Y384.398
N3161 X122.799 Y384.376
N3162 X123.006 Y384.338
N3163 X123.209 Y384.285
N3164 X123.407 Y384.218
N3165 X123.601 Y384.137
N3166 X123.788 Y384.042
N3167 X123.968 Y383.934
N3168 X124.139 Y383.813
N3169 X124.301 Y383.679
N3170 X124.453 Y383.535
N3171 X124.594 Y383.38
N3172 X124.724 Y383.215
N3173 X124.841 Y383.041
N3174 X167.556 Y314.574
N3175 X167.662 Y314.389
N3176 X167.755 Y314.198
N3177 X167.832 Y314
N3178 X167.895 Y313.796
N3179 X167.943 Y313.589
N3180 X167.976 Y313.379
N3181 X167.993 Y313.167
N3182 X167.995 Y312.954
N3183 X167.981 Y312.741
N3184 X167.951 Y312.531
N3185 X167.906 Y312.323
N3186 X167.846 Y312.118
N3187 X167.771 Y311.919
N3188 X167.682 Y311.726
N3189 X167.579 Y311.54
N3190 X167.462 Y311.362
N3191 X167.333 Y311.193
N3192 X167.191 Y311.034
N3193 X167.039 Y310.886
N3194 X166.875 Y310.749
N3195 X166.703 Y310.625
N3196 X166.521 Y310.513
N3197 X166.332 Y310.416
N3198 X166.137 Y310.332
N3199 X165.935 Y310.263
N3200 X165.729 Y310.209
N3201 X165.52 Y310.17
N3202 X165.309 Y310.147
N3203 X165.096 Y310.139
N3204 X151.482
N3205 X187.004 Y241.755
N3206 X187.094 Y241.563
N3207 X187.171 Y241.365
N3208 X187.233 Y241.162
N3209 X187.28 Y240.955
N3210 X187.311 Y240.745
N3211 X187.328 Y240.533
N3212 Y240.321
N3213 X187.314 Y240.109
N3214 X187.283 Y239.899
N3215 X187.238 Y239.692
N3216 X187.177 Y239.489
N3217 X187.102 Y239.29
N3218 X187.012 Y239.098
N3219 X186.909 Y238.912
N3220 X186.792 Y238.735
N3221 X186.662 Y238.567
N3222 X186.521 Y238.409
N3223 X186.368 Y238.261
N3224 X186.205 Y238.125
N3225 X186.033 Y238.001
N3226 X185.852 Y237.891
N3227 X185.663 Y237.793
N3228 X185.468 Y237.71
N3229 X185.267 Y237.641
N3230 X185.062 Y237.588
N3231 X184.853 Y237.549
N3232 X184.642 Y237.526
N3233 X184.43 Y237.518
N3234 X166.024
N3235 X208.596 Y167.895
N3236 X208.7 Y167.71
N3237 X208.79 Y167.518
N3238 X208.866 Y167.32
N3239 X208.927 Y167.118
N3240 X208.973 Y166.911
N3241 X209.004 Y166.701
N3242 X209.02 Y166.49
N3243 Y166.278
N3244 X209.005 Y166.067
N3245 X208.974 Y165.857
N3246 X208.928 Y165.65
N3247 X208.867 Y165.447
N3248 X208.792 Y165.249
N3249 X208.702 Y165.057
N3250 X208.598 Y164.872
N3251 X208.481 Y164.696
N3252 X208.352 Y164.528
N3253 X208.21 Y164.37
N3254 X208.058 Y164.223
N3255 X207.895 Y164.087
N3256 X207.723 Y163.964
N3257 X207.542 Y163.853
N3258 X207.353 Y163.756
N3259 X207.158 Y163.674
N3260 X206.958 Y163.605
N3261 X206.753 Y163.551
N3262 X206.544 Y163.513
N3263 X206.334 Y163.49
N3264 X206.122 Y163.482
N3265 X186.075
N3266 X227.166 Y96.281
N3267 X227.27 Y96.096
N3268 X227.36 Y95.904
N3269 X227.436 Y95.706
N3270 X227.497 Y95.503
N3271 X227.543 Y95.297
N3272 X227.574 Y95.087
N3273 X227.59 Y94.876
N3274 Y94.664
N3275 X227.575 Y94.452
N3276 X227.544 Y94.243
N3277 X227.498 Y94.036
N3278 X227.437 Y93.833
N3279 X227.362 Y93.635
N3280 X227.272 Y93.443
N3281 X227.168 Y93.258
N3282 X227.051 Y93.081
N3283 X226.922 Y92.914
N3284 X226.78 Y92.756
N3285 X226.628 Y92.609
N3286 X226.465 Y92.473
N3287 X226.293 Y92.35
N3288 X226.112 Y92.239
N3289 X225.923 Y92.142
N3290 X225.728 Y92.059
N3291 X225.528 Y91.991
N3292 X225.323 Y91.937
N3293 X225.114 Y91.899
N3294 X224.904 Y91.876
N3295 X224.692 Y91.868
N3296 X205.433
N3297 X247.236 Y23.503
N3298 X247.34 Y23.319
N3299 X247.43 Y23.127
N3300 X247.506 Y22.929
N3301 X247.567 Y22.726
N3302 X247.613 Y22.519
N3303 X247.644 Y22.31
N3304 X247.66 Y22.098
N3305 Y21.886
N3306 X247.645 Y21.675
N3307 X247.614 Y21.465
N3308 X247.568 Y21.258
N3309 X247.507 Y21.056
N3310 X247.432 Y20.858
N3311 X247.342 Y20.666
N3312 X247.238 Y20.481
N3313 X247.121 Y20.304
N3314 X246.992 Y20.136
N3315 X246.85 Y19.978
N3316 X246.698 Y19.831
N3317 X246.535 Y19.696
N3318 X246.363 Y19.572
N3319 X246.182 Y19.462
N3320 X245.993 Y19.365
N3321 X245.798 Y19.282
N3322 X245.598 Y19.214
N3323 X245.393 Y19.16
N3324 X245.184 Y19.121
N3325 X244.974 Y19.098
N3326 X244.762 Y19.09
N3327 X174.095
N3328 Y0
N3329 X174.088 Y-0.207
N3330 X174.065 Y-0.413
N3331 X174.029 Y-0.616
N3332 X173.978 Y-0.817
N3333 X173.912 Y-1.013
N3334 X173.833 Y-1.205
N3335 X173.74 Y-1.39
N3336 X173.635 Y-1.568
N3337 X173.517 Y-1.738
N3338 X173.387 Y-1.899
N3339 X173.246 Y-2.051
N3340 X173.094 Y-2.192
N3341 X172.933 Y-2.322
N3342 X172.763 Y-2.44
N3343 X172.585 Y-2.545
N3344 X172.4 Y-2.638
N3345 X172.208 Y-2.717
N3346 X172.012 Y-2.783
N3347 X171.811 Y-2.834
N3348 X171.608 Y-2.87
N3349 X171.402 Y-2.893
N3350 X171.195 Y-2.9
N3351 X129.564
N3352 X129.357 Y-2.893
N3353 X129.151 Y-2.87
N3354 X128.948 Y-2.834
N3355 X128.747 Y-2.783
N3356 X128.551 Y-2.717
N3357 X128.359 Y-2.638
N3358 X128.174 Y-2.545
N3359 X127.996 Y-2.44
N3360 X127.826 Y-2.322
N3361 X127.665 Y-2.192
N3362 X127.513 Y-2.051
N3363 X127.372 Y-1.899
N3364 X127.242 Y-1.738
N3365 X127.124 Y-1.568
N3366 X127.019 Y-1.39
N3367 X126.926 Y-1.205
N3368 X126.847 Y-1.013
N3369 X126.781 Y-0.817
N3370 X126.73 Y-0.616
N3371 X126.694 Y-0.413
N3372 X126.671 Y-0.207
N3373 X126.664 Y0
N3374 Y193.757
N3375 X126.671 Y193.964
N3376 X126.694 Y194.17
N3377 X126.73 Y194.374
N3378 X126.782 Y194.574
N3379 X126.847 Y194.771
N3380 X126.926 Y194.962
N3381 X127.019 Y195.147
N3382 X127.125 Y195.325
N3383 X127.243 Y195.495
N3384 X127.373 Y195.657
N3385 X127.514 Y195.808
N3386 X127.536 Y195.841
N3387 X127.543 Y195.879
N3388 X127.536 Y195.917
N3389 X127.514 Y195.95
N3390 X127.481 Y195.972
N3391 X127.443 Y195.979
N3392 X127.405 Y195.972
N3393 X127.372 Y195.95
N3394 X127.221 Y195.809
N3395 X127.059 Y195.679
N3396 X126.889 Y195.561
N3397 X126.711 Y195.455
N3398 X126.526 Y195.362
N3399 X126.335 Y195.283
N3400 X126.138 Y195.218
N3401 X125.938 Y195.166
N3402 X125.734 Y195.13
N3403 X125.528 Y195.107
N3404 X125.321 Y195.1
N3405 X115.707
N3406 X115.5 Y195.107
N3407 X115.294 Y195.13
N3408 X115.09 Y195.166
N3409 X114.89 Y195.218
N3410 X114.693 Y195.283
N3411 X114.502 Y195.362
N3412 X114.317 Y195.455
N3413 X114.139 Y195.561
N3414 X113.969 Y195.679
N3415 X113.807 Y195.809
N3416 X113.656 Y195.95
N3417 X113.623 Y195.972
N3418 X113.585 Y195.979
N3419 X113.547 Y195.972
N3420 X113.514 Y195.95
N3421 X113.492 Y195.917
N3422 X113.485 Y195.879
N3423 X113.492 Y195.841
N3424 X113.514 Y195.808
N3425 X113.655 Y195.657
N3426 X113.785 Y195.495
N3427 X113.903 Y195.325
N3428 X114.009 Y195.147
N3429 X114.102 Y194.962
N3430 X114.181 Y194.771
N3431 X114.246 Y194.574
N3432 X114.298 Y194.374
N3433 X114.334 Y194.17
N3434 X114.357 Y193.964
N3435 X114.364 Y193.757
N3436 Y76.727
N3437 G0 Z33
N3438 M5
N3439 M0
%
