%
(40-base)
(T2  D=6 CR=0 - ZMIN=0.2 - flat end mill)
N1 G90
N2 G21

(2D Contour7)
N3 T2
N4 S20000 M3
N5 G0 X106.1 Y67.402
N6 Z33
N7 Z23
N8 G1 Z22 F1000
N9 Z20.5
N10 Y91 Z15.484 F2500
N11 X106.107 Y91.207 Z15.44
N12 X106.13 Y91.413 Z15.396
N13 X106.166 Y91.616 Z15.352
N14 X106.217 Y91.817 Z15.308
N15 X106.283 Y92.013 Z15.264
N16 X106.362 Y92.205 Z15.22
N17 X106.455 Y92.39 Z15.176
N18 X106.56 Y92.568 Z15.132
N19 X106.678 Y92.738 Z15.088
N20 X106.808 Y92.899 Z15.044
N21 X106.949 Y93.051 Z15
N22 X107.101 Y93.192 F2760
N23 X107.262 Y93.322
N24 X107.432 Y93.44
N25 X107.61 Y93.545
N26 X107.795 Y93.638
N27 X107.987 Y93.717
N28 X108.183 Y93.783
N29 X108.384 Y93.834
N30 X108.587 Y93.87
N31 X108.793 Y93.893
N32 X109 Y93.9
N33 X146.438
N34 X146.645 Y93.893
N35 X146.851 Y93.87
N36 X147.054 Y93.834
N37 X147.255 Y93.783
N38 X147.451 Y93.717
N39 X147.643 Y93.638
N40 X147.828 Y93.545
N41 X148.006 Y93.44
N42 X148.176 Y93.322
N43 X148.337 Y93.192
N44 X148.488 Y93.051
N45 X148.521 Y93.029
N46 X148.559 Y93.022
N47 X148.597 Y93.029
N48 X148.63 Y93.051
N49 X148.651 Y93.083
N50 X148.659 Y93.121
N51 X148.651 Y93.159
N52 X148.63 Y93.192
N53 X148.488 Y93.343
N54 X148.359 Y93.505
N55 X148.24 Y93.675
N56 X148.135 Y93.853
N57 X148.042 Y94.038
N58 X147.963 Y94.229
N59 X147.897 Y94.426
N60 X147.846 Y94.626
N61 X147.81 Y94.83
N62 X147.787 Y95.036
N63 X147.78 Y95.243
N64 Y104.757
N65 X147.787 Y104.964
N66 X147.81 Y105.17
N67 X147.846 Y105.374
N68 X147.898 Y105.574
N69 X147.963 Y105.771
N70 X148.042 Y105.962
N71 X148.135 Y106.147
N72 X148.241 Y106.325
N73 X148.359 Y106.495
N74 X148.489 Y106.657
N75 X148.63 Y106.808
N76 X148.652 Y106.841
N77 X148.659 Y106.879
N78 X148.652 Y106.917
N79 X148.63 Y106.949
N80 X148.598 Y106.971
N81 X148.559 Y106.979
N82 X148.521 Y106.971
N83 X148.489 Y106.949
N84 X148.337 Y106.808
N85 X148.176 Y106.679
N86 X148.006 Y106.56
N87 X147.828 Y106.455
N88 X147.643 Y106.362
N89 X147.452 Y106.283
N90 X147.255 Y106.217
N91 X147.054 Y106.166
N92 X146.851 Y106.13
N93 X146.645 Y106.107
N94 X146.438 Y106.1
N95 X109
N96 X108.793 Y106.107
N97 X108.587 Y106.13
N98 X108.384 Y106.166
N99 X108.183 Y106.217
N100 X107.987 Y106.283
N101 X107.795 Y106.362
N102 X107.61 Y106.455
N103 X107.432 Y106.56
N104 X107.262 Y106.678
N105 X107.101 Y106.808
N106 X106.949 Y106.949
N107 X106.808 Y107.101
N108 X106.678 Y107.262
N109 X106.56 Y107.432
N110 X106.455 Y107.61
N111 X106.362 Y107.795
N112 X106.283 Y107.987
N113 X106.217 Y108.183
N114 X106.166 Y108.384
N115 X106.13 Y108.587
N116 X106.107 Y108.793
N117 X106.1 Y109
N118 Y146.438
N119 X106.107 Y146.645
N120 X106.13 Y146.851
N121 X106.166 Y147.054
N122 X106.217 Y147.255
N123 X106.283 Y147.452
N124 X106.362 Y147.643
N125 X106.455 Y147.828
N126 X106.56 Y148.006
N127 X106.679 Y148.176
N128 X106.808 Y148.337
N129 X106.949 Y148.489
N130 X106.971 Y148.521
N131 X106.979 Y148.559
N132 X106.971 Y148.598
N133 X106.949 Y148.63
N134 X106.917 Y148.652
N135 X106.879 Y148.659
N136 X106.841 Y148.652
N137 X106.808 Y148.63
N138 X106.657 Y148.489
N139 X106.495 Y148.359
N140 X106.325 Y148.241
N141 X106.147 Y148.135
N142 X105.962 Y148.042
N143 X105.771 Y147.963
N144 X105.574 Y147.898
N145 X105.374 Y147.846
N146 X105.17 Y147.81
N147 X104.964 Y147.787
N148 X104.757 Y147.78
N149 X95.243
N150 X95.036 Y147.787
N151 X94.83 Y147.81
N152 X94.626 Y147.846
N153 X94.426 Y147.897
N154 X94.229 Y147.963
N155 X94.038 Y148.042
N156 X93.853 Y148.135
N157 X93.675 Y148.24
N158 X93.505 Y148.359
N159 X93.343 Y148.488
N160 X93.192 Y148.63
N161 X93.159 Y148.651
N162 X93.121 Y148.659
N163 X93.083 Y148.651
N164 X93.051 Y148.63
N165 X93.029 Y148.597
N166 X93.022 Y148.559
N167 X93.029 Y148.521
N168 X93.051 Y148.488
N169 X93.192 Y148.337
N170 X93.322 Y148.176
N171 X93.44 Y148.006
N172 X93.545 Y147.828
N173 X93.638 Y147.643
N174 X93.717 Y147.451
N175 X93.783 Y147.255
N176 X93.834 Y147.054
N177 X93.87 Y146.851
N178 X93.893 Y146.645
N179 X93.9 Y146.438
N180 Y109
N181 X93.893 Y108.793
N182 X93.87 Y108.587
N183 X93.834 Y108.384
N184 X93.783 Y108.183
N185 X93.717 Y107.987
N186 X93.638 Y107.795
N187 X93.545 Y107.61
N188 X93.44 Y107.432
N189 X93.322 Y107.262
N190 X93.192 Y107.101
N191 X93.051 Y106.949
N192 X92.899 Y106.808
N193 X92.738 Y106.678
N194 X92.568 Y106.56
N195 X92.39 Y106.455
N196 X92.205 Y106.362
N197 X92.013 Y106.283
N198 X91.817 Y106.217
N199 X91.616 Y106.166
N200 X91.413 Y106.13
N201 X91.207 Y106.107
N202 X91 Y106.1
N203 X53.562
N204 X53.355 Y106.107
N205 X53.149 Y106.13
N206 X52.946 Y106.166
N207 X52.745 Y106.218
N208 X52.549 Y106.283
N209 X52.357 Y106.362
N210 X52.172 Y106.455
N211 X51.994 Y106.561
N212 X51.824 Y106.679
N213 X51.663 Y106.809
N214 X51.511 Y106.95
N215 X51.479 Y106.971
N216 X51.441 Y106.979
N217 X51.402 Y106.971
N218 X51.37 Y106.95
N219 X51.348 Y106.917
N220 X51.34 Y106.879
N221 X51.348 Y106.841
N222 X51.37 Y106.808
N223 X51.511 Y106.657
N224 X51.641 Y106.495
N225 X51.759 Y106.325
N226 X51.865 Y106.147
N227 X51.957 Y105.962
N228 X52.037 Y105.771
N229 X52.102 Y105.574
N230 X52.153 Y105.374
N231 X52.19 Y105.17
N232 X52.212 Y104.964
N233 X52.22 Y104.757
N234 Y95.243
N235 X52.212 Y95.036
N236 X52.19 Y94.83
N237 X52.153 Y94.626
N238 X52.102 Y94.426
N239 X52.037 Y94.229
N240 X51.958 Y94.038
N241 X51.865 Y93.853
N242 X51.759 Y93.675
N243 X51.641 Y93.505
N244 X51.511 Y93.344
N245 X51.37 Y93.192
N246 X51.349 Y93.16
N247 X51.341 Y93.121
N248 X51.349 Y93.083
N249 X51.37 Y93.051
N250 X51.403 Y93.029
N251 X51.441 Y93.021
N252 X51.479 Y93.029
N253 X51.512 Y93.051
N254 X51.663 Y93.192
N255 X51.824 Y93.322
N256 X51.994 Y93.44
N257 X52.172 Y93.545
N258 X52.357 Y93.638
N259 X52.549 Y93.717
N260 X52.745 Y93.783
N261 X52.946 Y93.834
N262 X53.149 Y93.87
N263 X53.355 Y93.893
N264 X53.562 Y93.9
N265 X91
N266 X91.207 Y93.893
N267 X91.413 Y93.87
N268 X91.616 Y93.834
N269 X91.817 Y93.783
N270 X92.013 Y93.717
N271 X92.205 Y93.638
N272 X92.39 Y93.545
N273 X92.568 Y93.44
N274 X92.738 Y93.322
N275 X92.899 Y93.192
N276 X93.051 Y93.051
N277 X93.192 Y92.899
N278 X93.322 Y92.738
N279 X93.44 Y92.568
N280 X93.545 Y92.39
N281 X93.638 Y92.205
N282 X93.717 Y92.013
N283 X93.783 Y91.817
N284 X93.834 Y91.616
N285 X93.87 Y91.413
N286 X93.893 Y91.207
N287 X93.9 Y91
N288 Y53.562
N289 X93.893 Y53.355
N290 X93.87 Y53.149
N291 X93.834 Y52.946
N292 X93.783 Y52.745
N293 X93.717 Y52.549
N294 X93.638 Y52.357
N295 X93.545 Y52.172
N296 X93.44 Y51.994
N297 X93.322 Y51.824
N298 X93.192 Y51.663
N299 X93.051 Y51.511
N300 X93.029 Y51.479
N301 X93.021 Y51.441
N302 X93.029 Y51.403
N303 X93.051 Y51.37
N304 X93.083 Y51.348
N305 X93.121 Y51.341
N306 X93.16 Y51.348
N307 X93.192 Y51.37
N308 X93.344 Y51.511
N309 X93.505 Y51.641
N310 X93.675 Y51.759
N311 X93.853 Y51.865
N312 X94.038 Y51.957
N313 X94.229 Y52.037
N314 X94.426 Y52.102
N315 X94.626 Y52.153
N316 X94.83 Y52.19
N317 X95.036 Y52.212
N318 X95.243 Y52.22
N319 X104.757
N320 X104.964 Y52.212
N321 X105.17 Y52.19
N322 X105.374 Y52.153
N323 X105.574 Y52.102
N324 X105.771 Y52.037
N325 X105.962 Y51.957
N326 X106.147 Y51.865
N327 X106.325 Y51.759
N328 X106.495 Y51.641
N329 X106.657 Y51.511
N330 X106.808 Y51.37
N331 X106.841 Y51.348
N332 X106.879 Y51.34
N333 X106.917 Y51.348
N334 X106.95 Y51.37
N335 X106.971 Y51.402
N336 X106.979 Y51.44
N337 X106.971 Y51.479
N338 X106.95 Y51.511
N339 X106.809 Y51.663
N340 X106.679 Y51.824
N341 X106.561 Y51.994
N342 X106.455 Y52.172
N343 X106.362 Y52.357
N344 X106.283 Y52.549
N345 X106.218 Y52.745
N346 X106.166 Y52.946
N347 X106.13 Y53.149
N348 X106.107 Y53.355
N349 X106.1 Y53.562
N350 Y91
N351 X106.107 Y91.207
N352 X106.13 Y91.413
N353 X106.166 Y91.616
N354 X106.217 Y91.817
N355 X106.283 Y92.013
N356 X106.362 Y92.205
N357 X106.455 Y92.39
N358 X106.56 Y92.568
N359 X106.678 Y92.738
N360 X106.808 Y92.899
N361 X106.949 Y93.051
N362 X107.101 Y93.192 Z14.991 F2500
N363 X107.262 Y93.322 Z14.982
N364 X107.432 Y93.44 Z14.973
N365 X107.61 Y93.545 Z14.964
N366 X107.795 Y93.638 Z14.955
N367 X107.987 Y93.717 Z14.946
N368 X108.183 Y93.783 Z14.938
N369 X108.384 Y93.834 Z14.929
N370 X108.587 Y93.87 Z14.92
N371 X108.793 Y93.893 Z14.911
N372 X109 Y93.9 Z14.902
N373 X146.438 Z13.29
N374 X146.645 Y93.893 Z13.281
N375 X146.851 Y93.87 Z13.272
N376 X147.054 Y93.834 Z13.263
N377 X147.255 Y93.783 Z13.254
N378 X147.451 Y93.717 Z13.245
N379 X147.643 Y93.638 Z13.236
N380 X147.828 Y93.545 Z13.227
N381 X148.006 Y93.44 Z13.218
N382 X148.176 Y93.322 Z13.209
N383 X148.337 Y93.192 Z13.2
N384 X148.488 Y93.051 Z13.192
N385 X148.521 Y93.029 Z13.19
N386 X148.559 Y93.022 Z13.188
N387 X148.597 Y93.029 Z13.186
N388 X148.63 Y93.051 Z13.185
N389 X148.651 Y93.083 Z13.183
N390 X148.659 Y93.121 Z13.181
N391 X148.651 Y93.159 Z13.18
N392 X148.63 Y93.192 Z13.178
N393 X148.488 Y93.343 Z13.169
N394 X148.359 Y93.505 Z13.16
N395 X148.24 Y93.675 Z13.151
N396 X148.135 Y93.853 Z13.142
N397 X148.042 Y94.038 Z13.133
N398 X147.963 Y94.229 Z13.125
N399 X147.897 Y94.426 Z13.116
N400 X147.846 Y94.626 Z13.107
N401 X147.81 Y94.83 Z13.098
N402 X147.787 Y95.036 Z13.089
N403 X147.78 Y95.243 Z13.08
N404 Y104.757 Z12.67
N405 X147.787 Y104.964 Z12.661
N406 X147.81 Y105.17 Z12.652
N407 X147.846 Y105.374 Z12.643
N408 X147.898 Y105.574 Z12.634
N409 X147.963 Y105.771 Z12.626
N410 X148.042 Y105.962 Z12.617
N411 X148.135 Y106.147 Z12.608
N412 X148.241 Y106.325 Z12.599
N413 X148.359 Y106.495 Z12.59
N414 X148.489 Y106.657 Z12.581
N415 X148.63 Y106.808 Z12.572
N416 X148.652 Y106.841 Z12.57
N417 X148.659 Y106.879 Z12.569
N418 X148.652 Y106.917 Z12.567
N419 X148.63 Y106.949 Z12.565
N420 X148.598 Y106.971 Z12.564
N421 X148.559 Y106.979 Z12.562
N422 X148.521 Y106.971 Z12.56
N423 X148.489 Y106.949 Z12.559
N424 X148.337 Y106.808 Z12.55
N425 X148.176 Y106.679 Z12.541
N426 X148.006 Y106.56 Z12.532
N427 X147.828 Y106.455 Z12.523
N428 X147.643 Y106.362 Z12.514
N429 X147.452 Y106.283 Z12.505
N430 X147.255 Y106.217 Z12.496
N431 X147.054 Y106.166 Z12.487
N432 X146.851 Y106.13 Z12.478
N433 X146.645 Y106.107 Z12.469
N434 X146.438 Y106.1 Z12.46
N435 X135.747 Z12
N436 X109 F2760
N437 X108.793 Y106.107
N438 X108.587 Y106.13
N439 X108.384 Y106.166
N440 X108.183 Y106.217
N441 X107.987 Y106.283
N442 X107.795 Y106.362
N443 X107.61 Y106.455
N444 X107.432 Y106.56
N445 X107.262 Y106.678
N446 X107.101 Y106.808
N447 X106.949 Y106.949
N448 X106.808 Y107.101
N449 X106.678 Y107.262
N450 X106.56 Y107.432
N451 X106.455 Y107.61
N452 X106.362 Y107.795
N453 X106.283 Y107.987
N454 X106.217 Y108.183
N455 X106.166 Y108.384
N456 X106.13 Y108.587
N457 X106.107 Y108.793
N458 X106.1 Y109
N459 Y146.438
N460 X106.107 Y146.645
N461 X106.13 Y146.851
N462 X106.166 Y147.054
N463 X106.217 Y147.255
N464 X106.283 Y147.452
N465 X106.362 Y147.643
N466 X106.455 Y147.828
N467 X106.56 Y148.006
N468 X106.679 Y148.176
N469 X106.808 Y148.337
N470 X106.949 Y148.489
N471 X106.971 Y148.521
N472 X106.979 Y148.559
N473 X106.971 Y148.598
N474 X106.949 Y148.63
N475 X106.917 Y148.652
N476 X106.879 Y148.659
N477 X106.841 Y148.652
N478 X106.808 Y148.63
N479 X106.657 Y148.489
N480 X106.495 Y148.359
N481 X106.325 Y148.241
N482 X106.147 Y148.135
N483 X105.962 Y148.042
N484 X105.771 Y147.963
N485 X105.574 Y147.898
N486 X105.374 Y147.846
N487 X105.17 Y147.81
N488 X104.964 Y147.787
N489 X104.757 Y147.78
N490 X95.243
N491 X95.036 Y147.787
N492 X94.83 Y147.81
N493 X94.626 Y147.846
N494 X94.426 Y147.897
N495 X94.229 Y147.963
N496 X94.038 Y148.042
N497 X93.853 Y148.135
N498 X93.675 Y148.24
N499 X93.505 Y148.359
N500 X93.343 Y148.488
N501 X93.192 Y148.63
N502 X93.159 Y148.651
N503 X93.121 Y148.659
N504 X93.083 Y148.651
N505 X93.051 Y148.63
N506 X93.029 Y148.597
N507 X93.022 Y148.559
N508 X93.029 Y148.521
N509 X93.051 Y148.488
N510 X93.192 Y148.337
N511 X93.322 Y148.176
N512 X93.44 Y148.006
N513 X93.545 Y147.828
N514 X93.638 Y147.643
N515 X93.717 Y147.451
N516 X93.783 Y147.255
N517 X93.834 Y147.054
N518 X93.87 Y146.851
N519 X93.893 Y146.645
N520 X93.9 Y146.438
N521 Y109
N522 X93.893 Y108.793
N523 X93.87 Y108.587
N524 X93.834 Y108.384
N525 X93.783 Y108.183
N526 X93.717 Y107.987
N527 X93.638 Y107.795
N528 X93.545 Y107.61
N529 X93.44 Y107.432
N530 X93.322 Y107.262
N531 X93.192 Y107.101
N532 X93.051 Y106.949
N533 X92.899 Y106.808
N534 X92.738 Y106.678
N535 X92.568 Y106.56
N536 X92.39 Y106.455
N537 X92.205 Y106.362
N538 X92.013 Y106.283
N539 X91.817 Y106.217
N540 X91.616 Y106.166
N541 X91.413 Y106.13
N542 X91.207 Y106.107
N543 X91 Y106.1
N544 X53.562
N545 X53.355 Y106.107
N546 X53.149 Y106.13
N547 X52.946 Y106.166
N548 X52.745 Y106.218
N549 X52.549 Y106.283
N550 X52.357 Y106.362
N551 X52.172 Y106.455
N552 X51.994 Y106.561
N553 X51.824 Y106.679
N554 X51.663 Y106.809
N555 X51.511 Y106.95
N556 X51.479 Y106.971
N557 X51.441 Y106.979
N558 X51.402 Y106.971
N559 X51.37 Y106.95
N560 X51.348 Y106.917
N561 X51.34 Y106.879
N562 X51.348 Y106.841
N563 X51.37 Y106.808
N564 X51.511 Y106.657
N565 X51.641 Y106.495
N566 X51.759 Y106.325
N567 X51.865 Y106.147
N568 X51.957 Y105.962
N569 X52.037 Y105.771
N570 X52.102 Y105.574
N571 X52.153 Y105.374
N572 X52.19 Y105.17
N573 X52.212 Y104.964
N574 X52.22 Y104.757
N575 Y95.243
N576 X52.212 Y95.036
N577 X52.19 Y94.83
N578 X52.153 Y94.626
N579 X52.102 Y94.426
N580 X52.037 Y94.229
N581 X51.958 Y94.038
N582 X51.865 Y93.853
N583 X51.759 Y93.675
N584 X51.641 Y93.505
N585 X51.511 Y93.344
N586 X51.37 Y93.192
N587 X51.349 Y93.16
N588 X51.341 Y93.121
N589 X51.349 Y93.083
N590 X51.37 Y93.051
N591 X51.403 Y93.029
N592 X51.441 Y93.021
N593 X51.479 Y93.029
N594 X51.512 Y93.051
N595 X51.663 Y93.192
N596 X51.824 Y93.322
N597 X51.994 Y93.44
N598 X52.172 Y93.545
N599 X52.357 Y93.638
N600 X52.549 Y93.717
N601 X52.745 Y93.783
N602 X52.946 Y93.834
N603 X53.149 Y93.87
N604 X53.355 Y93.893
N605 X53.562 Y93.9
N606 X91
N607 X91.207 Y93.893
N608 X91.413 Y93.87
N609 X91.616 Y93.834
N610 X91.817 Y93.783
N611 X92.013 Y93.717
N612 X92.205 Y93.638
N613 X92.39 Y93.545
N614 X92.568 Y93.44
N615 X92.738 Y93.322
N616 X92.899 Y93.192
N617 X93.051 Y93.051
N618 X93.192 Y92.899
N619 X93.322 Y92.738
N620 X93.44 Y92.568
N621 X93.545 Y92.39
N622 X93.638 Y92.205
N623 X93.717 Y92.013
N624 X93.783 Y91.817
N625 X93.834 Y91.616
N626 X93.87 Y91.413
N627 X93.893 Y91.207
N628 X93.9 Y91
N629 Y53.562
N630 X93.893 Y53.355
N631 X93.87 Y53.149
N632 X93.834 Y52.946
N633 X93.783 Y52.745
N634 X93.717 Y52.549
N635 X93.638 Y52.357
N636 X93.545 Y52.172
N637 X93.44 Y51.994
N638 X93.322 Y51.824
N639 X93.192 Y51.663
N640 X93.051 Y51.511
N641 X93.029 Y51.479
N642 X93.021 Y51.441
N643 X93.029 Y51.403
N644 X93.051 Y51.37
N645 X93.083 Y51.348
N646 X93.121 Y51.341
N647 X93.16 Y51.348
N648 X93.192 Y51.37
N649 X93.344 Y51.511
N650 X93.505 Y51.641
N651 X93.675 Y51.759
N652 X93.853 Y51.865
N653 X94.038 Y51.957
N654 X94.229 Y52.037
N655 X94.426 Y52.102
N656 X94.626 Y52.153
N657 X94.83 Y52.19
N658 X95.036 Y52.212
N659 X95.243 Y52.22
N660 X104.757
N661 X104.964 Y52.212
N662 X105.17 Y52.19
N663 X105.374 Y52.153
N664 X105.574 Y52.102
N665 X105.771 Y52.037
N666 X105.962 Y51.957
N667 X106.147 Y51.865
N668 X106.325 Y51.759
N669 X106.495 Y51.641
N670 X106.657 Y51.511
N671 X106.808 Y51.37
N672 X106.841 Y51.348
N673 X106.879 Y51.34
N674 X106.917 Y51.348
N675 X106.95 Y51.37
N676 X106.971 Y51.402
N677 X106.979 Y51.44
N678 X106.971 Y51.479
N679 X106.95 Y51.511
N680 X106.809 Y51.663
N681 X106.679 Y51.824
N682 X106.561 Y51.994
N683 X106.455 Y52.172
N684 X106.362 Y52.357
N685 X106.283 Y52.549
N686 X106.218 Y52.745
N687 X106.166 Y52.946
N688 X106.13 Y53.149
N689 X106.107 Y53.355
N690 X106.1 Y53.562
N691 Y91
N692 X106.107 Y91.207
N693 X106.13 Y91.413
N694 X106.166 Y91.616
N695 X106.217 Y91.817
N696 X106.283 Y92.013
N697 X106.362 Y92.205
N698 X106.455 Y92.39
N699 X106.56 Y92.568
N700 X106.678 Y92.738
N701 X106.808 Y92.899
N702 X106.949 Y93.051
N703 X107.101 Y93.192
N704 X107.262 Y93.322
N705 X107.432 Y93.44
N706 X107.61 Y93.545
N707 X107.795 Y93.638
N708 X107.987 Y93.717
N709 X108.183 Y93.783
N710 X108.384 Y93.834
N711 X108.587 Y93.87
N712 X108.793 Y93.893
N713 X109 Y93.9
N714 X146.438
N715 X146.645 Y93.893
N716 X146.851 Y93.87
N717 X147.054 Y93.834
N718 X147.255 Y93.783
N719 X147.451 Y93.717
N720 X147.643 Y93.638
N721 X147.828 Y93.545
N722 X148.006 Y93.44
N723 X148.176 Y93.322
N724 X148.337 Y93.192
N725 X148.488 Y93.051
N726 X148.521 Y93.029
N727 X148.559 Y93.022
N728 X148.597 Y93.029
N729 X148.63 Y93.051
N730 X148.651 Y93.083
N731 X148.659 Y93.121
N732 X148.651 Y93.159
N733 X148.63 Y93.192
N734 X148.488 Y93.343
N735 X148.359 Y93.505
N736 X148.24 Y93.675
N737 X148.135 Y93.853
N738 X148.042 Y94.038
N739 X147.963 Y94.229
N740 X147.897 Y94.426
N741 X147.846 Y94.626
N742 X147.81 Y94.83
N743 X147.787 Y95.036
N744 X147.78 Y95.243
N745 Y104.757
N746 X147.787 Y104.964
N747 X147.81 Y105.17
N748 X147.846 Y105.374
N749 X147.898 Y105.574
N750 X147.963 Y105.771
N751 X148.042 Y105.962
N752 X148.135 Y106.147
N753 X148.241 Y106.325
N754 X148.359 Y106.495
N755 X148.489 Y106.657
N756 X148.63 Y106.808
N757 X148.652 Y106.841
N758 X148.659 Y106.879
N759 X148.652 Y106.917
N760 X148.63 Y106.949
N761 X148.598 Y106.971
N762 X148.559 Y106.979
N763 X148.521 Y106.971
N764 X148.489 Y106.949
N765 X148.337 Y106.808
N766 X148.176 Y106.679
N767 X148.006 Y106.56
N768 X147.828 Y106.455
N769 X147.643 Y106.362
N770 X147.452 Y106.283
N771 X147.255 Y106.217
N772 X147.054 Y106.166
N773 X146.851 Y106.13
N774 X146.645 Y106.107
N775 X146.438 Y106.1
N776 X135.747
N777 X109 Z10.848 F2500
N778 X108.793 Y106.107 Z10.839
N779 X108.587 Y106.13 Z10.83
N780 X108.384 Y106.166 Z10.821
N781 X108.183 Y106.217 Z10.812
N782 X107.987 Y106.283 Z10.804
N783 X107.795 Y106.362 Z10.795
N784 X107.61 Y106.455 Z10.786
N785 X107.432 Y106.56 Z10.777
N786 X107.262 Y106.678 Z10.768
N787 X107.101 Y106.808 Z10.759
N788 X106.949 Y106.949 Z10.75
N789 X106.808 Y107.101 Z10.741
N790 X106.678 Y107.262 Z10.732
N791 X106.56 Y107.432 Z10.723
N792 X106.455 Y107.61 Z10.714
N793 X106.362 Y107.795 Z10.705
N794 X106.283 Y107.987 Z10.697
N795 X106.217 Y108.183 Z10.688
N796 X106.166 Y108.384 Z10.679
N797 X106.13 Y108.587 Z10.67
N798 X106.107 Y108.793 Z10.661
N799 X106.1 Y109 Z10.652
N800 Y146.438 Z9.04
N801 X106.106 Y146.622 Z9.032
N802 X106.123 Y146.805 Z9.024
N803 X106.152 Y146.987 Z9.016
N804 X106.193 Y147.166 Z9.008
N805 X106.245 Y147.343 Z9
N806 X106.311 Y147.525 F2760
N807 X106.39 Y147.702
N808 X106.48 Y147.874
N809 X106.582 Y148.039
N810 X106.694 Y148.197
N811 X106.817 Y148.347
N812 X106.949 Y148.489
N813 X106.971 Y148.521
N814 X106.979 Y148.559
N815 X106.971 Y148.598
N816 X106.949 Y148.63
N817 X106.917 Y148.652
N818 X106.879 Y148.659
N819 X106.841 Y148.652
N820 X106.808 Y148.63
N821 X106.657 Y148.489
N822 X106.495 Y148.359
N823 X106.325 Y148.241
N824 X106.147 Y148.135
N825 X105.962 Y148.042
N826 X105.771 Y147.963
N827 X105.574 Y147.898
N828 X105.374 Y147.846
N829 X105.17 Y147.81
N830 X104.964 Y147.787
N831 X104.757 Y147.78
N832 X95.243
N833 X95.036 Y147.787
N834 X94.83 Y147.81
N835 X94.626 Y147.846
N836 X94.426 Y147.897
N837 X94.229 Y147.963
N838 X94.038 Y148.042
N839 X93.853 Y148.135
N840 X93.675 Y148.24
N841 X93.505 Y148.359
N842 X93.343 Y148.488
N843 X93.192 Y148.63
N844 X93.159 Y148.651
N845 X93.121 Y148.659
N846 X93.083 Y148.651
N847 X93.051 Y148.63
N848 X93.029 Y148.597
N849 X93.022 Y148.559
N850 X93.029 Y148.521
N851 X93.051 Y148.488
N852 X93.192 Y148.337
N853 X93.322 Y148.176
N854 X93.44 Y148.006
N855 X93.545 Y147.828
N856 X93.638 Y147.643
N857 X93.717 Y147.451
N858 X93.783 Y147.255
N859 X93.834 Y147.054
N860 X93.87 Y146.851
N861 X93.893 Y146.645
N862 X93.9 Y146.438
N863 Y109
N864 X93.893 Y108.793
N865 X93.87 Y108.587
N866 X93.834 Y108.384
N867 X93.783 Y108.183
N868 X93.717 Y107.987
N869 X93.638 Y107.795
N870 X93.545 Y107.61
N871 X93.44 Y107.432
N872 X93.322 Y107.262
N873 X93.192 Y107.101
N874 X93.051 Y106.949
N875 X92.899 Y106.808
N876 X92.738 Y106.678
N877 X92.568 Y106.56
N878 X92.39 Y106.455
N879 X92.205 Y106.362
N880 X92.013 Y106.283
N881 X91.817 Y106.217
N882 X91.616 Y106.166
N883 X91.413 Y106.13
N884 X91.207 Y106.107
N885 X91 Y106.1
N886 X53.562
N887 X53.355 Y106.107
N888 X53.149 Y106.13
N889 X52.946 Y106.166
N890 X52.745 Y106.218
N891 X52.549 Y106.283
N892 X52.357 Y106.362
N893 X52.172 Y106.455
N894 X51.994 Y106.561
N895 X51.824 Y106.679
N896 X51.663 Y106.809
N897 X51.511 Y106.95
N898 X51.479 Y106.971
N899 X51.441 Y106.979
N900 X51.402 Y106.971
N901 X51.37 Y106.95
N902 X51.348 Y106.917
N903 X51.34 Y106.879
N904 X51.348 Y106.841
N905 X51.37 Y106.808
N906 X51.511 Y106.657
N907 X51.641 Y106.495
N908 X51.759 Y106.325
N909 X51.865 Y106.147
N910 X51.957 Y105.962
N911 X52.037 Y105.771
N912 X52.102 Y105.574
N913 X52.153 Y105.374
N914 X52.19 Y105.17
N915 X52.212 Y104.964
N916 X52.22 Y104.757
N917 Y95.243
N918 X52.212 Y95.036
N919 X52.19 Y94.83
N920 X52.153 Y94.626
N921 X52.102 Y94.426
N922 X52.037 Y94.229
N923 X51.958 Y94.038
N924 X51.865 Y93.853
N925 X51.759 Y93.675
N926 X51.641 Y93.505
N927 X51.511 Y93.344
N928 X51.37 Y93.192
N929 X51.349 Y93.16
N930 X51.341 Y93.121
N931 X51.349 Y93.083
N932 X51.37 Y93.051
N933 X51.403 Y93.029
N934 X51.441 Y93.021
N935 X51.479 Y93.029
N936 X51.512 Y93.051
N937 X51.663 Y93.192
N938 X51.824 Y93.322
N939 X51.994 Y93.44
N940 X52.172 Y93.545
N941 X52.357 Y93.638
N942 X52.549 Y93.717
N943 X52.745 Y93.783
N944 X52.946 Y93.834
N945 X53.149 Y93.87
N946 X53.355 Y93.893
N947 X53.562 Y93.9
N948 X91
N949 X91.207 Y93.893
N950 X91.413 Y93.87
N951 X91.616 Y93.834
N952 X91.817 Y93.783
N953 X92.013 Y93.717
N954 X92.205 Y93.638
N955 X92.39 Y93.545
N956 X92.568 Y93.44
N957 X92.738 Y93.322
N958 X92.899 Y93.192
N959 X93.051 Y93.051
N960 X93.192 Y92.899
N961 X93.322 Y92.738
N962 X93.44 Y92.568
N963 X93.545 Y92.39
N964 X93.638 Y92.205
N965 X93.717 Y92.013
N966 X93.783 Y91.817
N967 X93.834 Y91.616
N968 X93.87 Y91.413
N969 X93.893 Y91.207
N970 X93.9 Y91
N971 Y53.562
N972 X93.893 Y53.355
N973 X93.87 Y53.149
N974 X93.834 Y52.946
N975 X93.783 Y52.745
N976 X93.717 Y52.549
N977 X93.638 Y52.357
N978 X93.545 Y52.172
N979 X93.44 Y51.994
N980 X93.322 Y51.824
N981 X93.192 Y51.663
N982 X93.051 Y51.511
N983 X93.029 Y51.479
N984 X93.021 Y51.441
N985 X93.029 Y51.403
N986 X93.051 Y51.37
N987 X93.083 Y51.348
N988 X93.121 Y51.341
N989 X93.16 Y51.348
N990 X93.192 Y51.37
N991 X93.344 Y51.511
N992 X93.505 Y51.641
N993 X93.675 Y51.759
N994 X93.853 Y51.865
N995 X94.038 Y51.957
N996 X94.229 Y52.037
N997 X94.426 Y52.102
N998 X94.626 Y52.153
N999 X94.83 Y52.19
N1000 X95.036 Y52.212
N1001 X95.243 Y52.22
N1002 X104.757
N1003 X104.964 Y52.212
N1004 X105.17 Y52.19
N1005 X105.374 Y52.153
N1006 X105.574 Y52.102
N1007 X105.771 Y52.037
N1008 X105.962 Y51.957
N1009 X106.147 Y51.865
N1010 X106.325 Y51.759
N1011 X106.495 Y51.641
N1012 X106.657 Y51.511
N1013 X106.808 Y51.37
N1014 X106.841 Y51.348
N1015 X106.879 Y51.34
N1016 X106.917 Y51.348
N1017 X106.95 Y51.37
N1018 X106.971 Y51.402
N1019 X106.979 Y51.44
N1020 X106.971 Y51.479
N1021 X106.95 Y51.511
N1022 X106.809 Y51.663
N1023 X106.679 Y51.824
N1024 X106.561 Y51.994
N1025 X106.455 Y52.172
N1026 X106.362 Y52.357
N1027 X106.283 Y52.549
N1028 X106.218 Y52.745
N1029 X106.166 Y52.946
N1030 X106.13 Y53.149
N1031 X106.107 Y53.355
N1032 X106.1 Y53.562
N1033 Y91
N1034 X106.107 Y91.207
N1035 X106.13 Y91.413
N1036 X106.166 Y91.616
N1037 X106.217 Y91.817
N1038 X106.283 Y92.013
N1039 X106.362 Y92.205
N1040 X106.455 Y92.39
N1041 X106.56 Y92.568
N1042 X106.678 Y92.738
N1043 X106.808 Y92.899
N1044 X106.949 Y93.051
N1045 X107.101 Y93.192
N1046 X107.262 Y93.322
N1047 X107.432 Y93.44
N1048 X107.61 Y93.545
N1049 X107.795 Y93.638
N1050 X107.987 Y93.717
N1051 X108.183 Y93.783
N1052 X108.384 Y93.834
N1053 X108.587 Y93.87
N1054 X108.793 Y93.893
N1055 X109 Y93.9
N1056 X146.438
N1057 X146.645 Y93.893
N1058 X146.851 Y93.87
N1059 X147.054 Y93.834
N1060 X147.255 Y93.783
N1061 X147.451 Y93.717
N1062 X147.643 Y93.638
N1063 X147.828 Y93.545
N1064 X148.006 Y93.44
N1065 X148.176 Y93.322
N1066 X148.337 Y93.192
N1067 X148.488 Y93.051
N1068 X148.521 Y93.029
N1069 X148.559 Y93.022
N1070 X148.597 Y93.029
N1071 X148.63 Y93.051
N1072 X148.651 Y93.083
N1073 X148.659 Y93.121
N1074 X148.651 Y93.159
N1075 X148.63 Y93.192
N1076 X148.488 Y93.343
N1077 X148.359 Y93.505
N1078 X148.24 Y93.675
N1079 X148.135 Y93.853
N1080 X148.042 Y94.038
N1081 X147.963 Y94.229
N1082 X147.897 Y94.426
N1083 X147.846 Y94.626
N1084 X147.81 Y94.83
N1085 X147.787 Y95.036
N1086 X147.78 Y95.243
N1087 Y104.757
N1088 X147.787 Y104.964
N1089 X147.81 Y105.17
N1090 X147.846 Y105.374
N1091 X147.898 Y105.574
N1092 X147.963 Y105.771
N1093 X148.042 Y105.962
N1094 X148.135 Y106.147
N1095 X148.241 Y106.325
N1096 X148.359 Y106.495
N1097 X148.489 Y106.657
N1098 X148.63 Y106.808
N1099 X148.652 Y106.841
N1100 X148.659 Y106.879
N1101 X148.652 Y106.917
N1102 X148.63 Y106.949
N1103 X148.598 Y106.971
N1104 X148.559 Y106.979
N1105 X148.521 Y106.971
N1106 X148.489 Y106.949
N1107 X148.337 Y106.808
N1108 X148.176 Y106.679
N1109 X148.006 Y106.56
N1110 X147.828 Y106.455
N1111 X147.643 Y106.362
N1112 X147.452 Y106.283
N1113 X147.255 Y106.217
N1114 X147.054 Y106.166
N1115 X146.851 Y106.13
N1116 X146.645 Y106.107
N1117 X146.438 Y106.1
N1118 X109
N1119 X108.793 Y106.107
N1120 X108.587 Y106.13
N1121 X108.384 Y106.166
N1122 X108.183 Y106.217
N1123 X107.987 Y106.283
N1124 X107.795 Y106.362
N1125 X107.61 Y106.455
N1126 X107.432 Y106.56
N1127 X107.262 Y106.678
N1128 X107.101 Y106.808
N1129 X106.949 Y106.949
N1130 X106.808 Y107.101
N1131 X106.678 Y107.262
N1132 X106.56 Y107.432
N1133 X106.455 Y107.61
N1134 X106.362 Y107.795
N1135 X106.283 Y107.987
N1136 X106.217 Y108.183
N1137 X106.166 Y108.384
N1138 X106.13 Y108.587
N1139 X106.107 Y108.793
N1140 X106.1 Y109
N1141 Y146.438
N1142 X106.106 Y146.622
N1143 X106.123 Y146.805
N1144 X106.152 Y146.987
N1145 X106.193 Y147.166
N1146 X106.245 Y147.343
N1147 X106.311 Y147.525 Z8.992 F2500
N1148 X106.39 Y147.702 Z8.983
N1149 X106.48 Y147.874 Z8.975
N1150 X106.582 Y148.039 Z8.967
N1151 X106.694 Y148.197 Z8.958
N1152 X106.817 Y148.347 Z8.95
N1153 X106.949 Y148.489 Z8.942
N1154 X106.971 Y148.521 Z8.94
N1155 X106.979 Y148.559 Z8.938
N1156 X106.971 Y148.598 Z8.936
N1157 X106.949 Y148.63 Z8.935
N1158 X106.917 Y148.652 Z8.933
N1159 X106.879 Y148.659 Z8.931
N1160 X106.841 Y148.652 Z8.93
N1161 X106.808 Y148.63 Z8.928
N1162 X106.657 Y148.489 Z8.919
N1163 X106.495 Y148.359 Z8.91
N1164 X106.325 Y148.241 Z8.901
N1165 X106.147 Y148.135 Z8.892
N1166 X105.962 Y148.042 Z8.883
N1167 X105.771 Y147.963 Z8.874
N1168 X105.574 Y147.898 Z8.866
N1169 X105.374 Y147.846 Z8.857
N1170 X105.17 Y147.81 Z8.848
N1171 X104.964 Y147.787 Z8.839
N1172 X104.757 Y147.78 Z8.83
N1173 X95.243 Z8.42
N1174 X95.036 Y147.787 Z8.411
N1175 X94.83 Y147.81 Z8.402
N1176 X94.626 Y147.846 Z8.393
N1177 X94.426 Y147.897 Z8.384
N1178 X94.229 Y147.963 Z8.376
N1179 X94.038 Y148.042 Z8.367
N1180 X93.853 Y148.135 Z8.358
N1181 X93.675 Y148.24 Z8.349
N1182 X93.505 Y148.359 Z8.34
N1183 X93.343 Y148.488 Z8.331
N1184 X93.192 Y148.63 Z8.322
N1185 X93.159 Y148.651 Z8.32
N1186 X93.121 Y148.659 Z8.319
N1187 X93.083 Y148.651 Z8.317
N1188 X93.051 Y148.63 Z8.315
N1189 X93.029 Y148.597 Z8.314
N1190 X93.022 Y148.559 Z8.312
N1191 X93.029 Y148.521 Z8.31
N1192 X93.051 Y148.488 Z8.309
N1193 X93.192 Y148.337 Z8.3
N1194 X93.322 Y148.176 Z8.291
N1195 X93.44 Y148.006 Z8.282
N1196 X93.545 Y147.828 Z8.273
N1197 X93.638 Y147.643 Z8.264
N1198 X93.717 Y147.451 Z8.255
N1199 X93.783 Y147.255 Z8.246
N1200 X93.834 Y147.054 Z8.237
N1201 X93.87 Y146.851 Z8.228
N1202 X93.893 Y146.645 Z8.219
N1203 X93.9 Y146.438 Z8.21
N1204 Y109 Z6.598
N1205 X93.893 Y108.793 Z6.589
N1206 X93.87 Y108.587 Z6.58
N1207 X93.834 Y108.384 Z6.571
N1208 X93.783 Y108.183 Z6.562
N1209 X93.717 Y107.987 Z6.554
N1210 X93.638 Y107.795 Z6.545
N1211 X93.545 Y107.61 Z6.536
N1212 X93.44 Y107.432 Z6.527
N1213 X93.322 Y107.262 Z6.518
N1214 X93.192 Y107.101 Z6.509
N1215 X93.051 Y106.949 Z6.5
N1216 X92.899 Y106.808 Z6.491
N1217 X92.738 Y106.678 Z6.482
N1218 X92.568 Y106.56 Z6.473
N1219 X92.39 Y106.455 Z6.464
N1220 X92.205 Y106.362 Z6.455
N1221 X92.013 Y106.283 Z6.447
N1222 X91.817 Y106.217 Z6.438
N1223 X91.616 Y106.166 Z6.429
N1224 X91.413 Y106.13 Z6.42
N1225 X91.207 Y106.107 Z6.411
N1226 X91 Y106.1 Z6.402
N1227 X81.667 Z6
N1228 X53.562 F2760
N1229 X53.355 Y106.107
N1230 X53.149 Y106.13
N1231 X52.946 Y106.166
N1232 X52.745 Y106.218
N1233 X52.549 Y106.283
N1234 X52.357 Y106.362
N1235 X52.172 Y106.455
N1236 X51.994 Y106.561
N1237 X51.824 Y106.679
N1238 X51.663 Y106.809
N1239 X51.511 Y106.95
N1240 X51.479 Y106.971
N1241 X51.441 Y106.979
N1242 X51.402 Y106.971
N1243 X51.37 Y106.95
N1244 X51.348 Y106.917
N1245 X51.34 Y106.879
N1246 X51.348 Y106.841
N1247 X51.37 Y106.808
N1248 X51.511 Y106.657
N1249 X51.641 Y106.495
N1250 X51.759 Y106.325
N1251 X51.865 Y106.147
N1252 X51.957 Y105.962
N1253 X52.037 Y105.771
N1254 X52.102 Y105.574
N1255 X52.153 Y105.374
N1256 X52.19 Y105.17
N1257 X52.212 Y104.964
N1258 X52.22 Y104.757
N1259 Y95.243
N1260 X52.212 Y95.036
N1261 X52.19 Y94.83
N1262 X52.153 Y94.626
N1263 X52.102 Y94.426
N1264 X52.037 Y94.229
N1265 X51.958 Y94.038
N1266 X51.865 Y93.853
N1267 X51.759 Y93.675
N1268 X51.641 Y93.505
N1269 X51.511 Y93.344
N1270 X51.37 Y93.192
N1271 X51.349 Y93.16
N1272 X51.341 Y93.121
N1273 X51.349 Y93.083
N1274 X51.37 Y93.051
N1275 X51.403 Y93.029
N1276 X51.441 Y93.021
N1277 X51.479 Y93.029
N1278 X51.512 Y93.051
N1279 X51.663 Y93.192
N1280 X51.824 Y93.322
N1281 X51.994 Y93.44
N1282 X52.172 Y93.545
N1283 X52.357 Y93.638
N1284 X52.549 Y93.717
N1285 X52.745 Y93.783
N1286 X52.946 Y93.834
N1287 X53.149 Y93.87
N1288 X53.355 Y93.893
N1289 X53.562 Y93.9
N1290 X91
N1291 X91.207 Y93.893
N1292 X91.413 Y93.87
N1293 X91.616 Y93.834
N1294 X91.817 Y93.783
N1295 X92.013 Y93.717
N1296 X92.205 Y93.638
N1297 X92.39 Y93.545
N1298 X92.568 Y93.44
N1299 X92.738 Y93.322
N1300 X92.899 Y93.192
N1301 X93.051 Y93.051
N1302 X93.192 Y92.899
N1303 X93.322 Y92.738
N1304 X93.44 Y92.568
N1305 X93.545 Y92.39
N1306 X93.638 Y92.205
N1307 X93.717 Y92.013
N1308 X93.783 Y91.817
N1309 X93.834 Y91.616
N1310 X93.87 Y91.413
N1311 X93.893 Y91.207
N1312 X93.9 Y91
N1313 Y53.562
N1314 X93.893 Y53.355
N1315 X93.87 Y53.149
N1316 X93.834 Y52.946
N1317 X93.783 Y52.745
N1318 X93.717 Y52.549
N1319 X93.638 Y52.357
N1320 X93.545 Y52.172
N1321 X93.44 Y51.994
N1322 X93.322 Y51.824
N1323 X93.192 Y51.663
N1324 X93.051 Y51.511
N1325 X93.029 Y51.479
N1326 X93.021 Y51.441
N1327 X93.029 Y51.403
N1328 X93.051 Y51.37
N1329 X93.083 Y51.348
N1330 X93.121 Y51.341
N1331 X93.16 Y51.348
N1332 X93.192 Y51.37
N1333 X93.344 Y51.511
N1334 X93.505 Y51.641
N1335 X93.675 Y51.759
N1336 X93.853 Y51.865
N1337 X94.038 Y51.957
N1338 X94.229 Y52.037
N1339 X94.426 Y52.102
N1340 X94.626 Y52.153
N1341 X94.83 Y52.19
N1342 X95.036 Y52.212
N1343 X95.243 Y52.22
N1344 X104.757
N1345 X104.964 Y52.212
N1346 X105.17 Y52.19
N1347 X105.374 Y52.153
N1348 X105.574 Y52.102
N1349 X105.771 Y52.037
N1350 X105.962 Y51.957
N1351 X106.147 Y51.865
N1352 X106.325 Y51.759
N1353 X106.495 Y51.641
N1354 X106.657 Y51.511
N1355 X106.808 Y51.37
N1356 X106.841 Y51.348
N1357 X106.879 Y51.34
N1358 X106.917 Y51.348
N1359 X106.95 Y51.37
N1360 X106.971 Y51.402
N1361 X106.979 Y51.44
N1362 X106.971 Y51.479
N1363 X106.95 Y51.511
N1364 X106.809 Y51.663
N1365 X106.679 Y51.824
N1366 X106.561 Y51.994
N1367 X106.455 Y52.172
N1368 X106.362 Y52.357
N1369 X106.283 Y52.549
N1370 X106.218 Y52.745
N1371 X106.166 Y52.946
N1372 X106.13 Y53.149
N1373 X106.107 Y53.355
N1374 X106.1 Y53.562
N1375 Y91
N1376 X106.107 Y91.207
N1377 X106.13 Y91.413
N1378 X106.166 Y91.616
N1379 X106.217 Y91.817
N1380 X106.283 Y92.013
N1381 X106.362 Y92.205
N1382 X106.455 Y92.39
N1383 X106.56 Y92.568
N1384 X106.678 Y92.738
N1385 X106.808 Y92.899
N1386 X106.949 Y93.051
N1387 X107.101 Y93.192
N1388 X107.262 Y93.322
N1389 X107.432 Y93.44
N1390 X107.61 Y93.545
N1391 X107.795 Y93.638
N1392 X107.987 Y93.717
N1393 X108.183 Y93.783
N1394 X108.384 Y93.834
N1395 X108.587 Y93.87
N1396 X108.793 Y93.893
N1397 X109 Y93.9
N1398 X146.438
N1399 X146.645 Y93.893
N1400 X146.851 Y93.87
N1401 X147.054 Y93.834
N1402 X147.255 Y93.783
N1403 X147.451 Y93.717
N1404 X147.643 Y93.638
N1405 X147.828 Y93.545
N1406 X148.006 Y93.44
N1407 X148.176 Y93.322
N1408 X148.337 Y93.192
N1409 X148.488 Y93.051
N1410 X148.521 Y93.029
N1411 X148.559 Y93.022
N1412 X148.597 Y93.029
N1413 X148.63 Y93.051
N1414 X148.651 Y93.083
N1415 X148.659 Y93.121
N1416 X148.651 Y93.159
N1417 X148.63 Y93.192
N1418 X148.488 Y93.343
N1419 X148.359 Y93.505
N1420 X148.24 Y93.675
N1421 X148.135 Y93.853
N1422 X148.042 Y94.038
N1423 X147.963 Y94.229
N1424 X147.897 Y94.426
N1425 X147.846 Y94.626
N1426 X147.81 Y94.83
N1427 X147.787 Y95.036
N1428 X147.78 Y95.243
N1429 Y104.757
N1430 X147.787 Y104.964
N1431 X147.81 Y105.17
N1432 X147.846 Y105.374
N1433 X147.898 Y105.574
N1434 X147.963 Y105.771
N1435 X148.042 Y105.962
N1436 X148.135 Y106.147
N1437 X148.241 Y106.325
N1438 X148.359 Y106.495
N1439 X148.489 Y106.657
N1440 X148.63 Y106.808
N1441 X148.652 Y106.841
N1442 X148.659 Y106.879
N1443 X148.652 Y106.917
N1444 X148.63 Y106.949
N1445 X148.598 Y106.971
N1446 X148.559 Y106.979
N1447 X148.521 Y106.971
N1448 X148.489 Y106.949
N1449 X148.337 Y106.808
N1450 X148.176 Y106.679
N1451 X148.006 Y106.56
N1452 X147.828 Y106.455
N1453 X147.643 Y106.362
N1454 X147.452 Y106.283
N1455 X147.255 Y106.217
N1456 X147.054 Y106.166
N1457 X146.851 Y106.13
N1458 X146.645 Y106.107
N1459 X146.438 Y106.1
N1460 X109
N1461 X108.793 Y106.107
N1462 X108.587 Y106.13
N1463 X108.384 Y106.166
N1464 X108.183 Y106.217
N1465 X107.987 Y106.283
N1466 X107.795 Y106.362
N1467 X107.61 Y106.455
N1468 X107.432 Y106.56
N1469 X107.262 Y106.678
N1470 X107.101 Y106.808
N1471 X106.949 Y106.949
N1472 X106.808 Y107.101
N1473 X106.678 Y107.262
N1474 X106.56 Y107.432
N1475 X106.455 Y107.61
N1476 X106.362 Y107.795
N1477 X106.283 Y107.987
N1478 X106.217 Y108.183
N1479 X106.166 Y108.384
N1480 X106.13 Y108.587
N1481 X106.107 Y108.793
N1482 X106.1 Y109
N1483 Y146.438
N1484 X106.107 Y146.645
N1485 X106.13 Y146.851
N1486 X106.166 Y147.054
N1487 X106.217 Y147.255
N1488 X106.283 Y147.452
N1489 X106.362 Y147.643
N1490 X106.455 Y147.828
N1491 X106.56 Y148.006
N1492 X106.679 Y148.176
N1493 X106.808 Y148.337
N1494 X106.949 Y148.489
N1495 X106.971 Y148.521
N1496 X106.979 Y148.559
N1497 X106.971 Y148.598
N1498 X106.949 Y148.63
N1499 X106.917 Y148.652
N1500 X106.879 Y148.659
N1501 X106.841 Y148.652
N1502 X106.808 Y148.63
N1503 X106.657 Y148.489
N1504 X106.495 Y148.359
N1505 X106.325 Y148.241
N1506 X106.147 Y148.135
N1507 X105.962 Y148.042
N1508 X105.771 Y147.963
N1509 X105.574 Y147.898
N1510 X105.374 Y147.846
N1511 X105.17 Y147.81
N1512 X104.964 Y147.787
N1513 X104.757 Y147.78
N1514 X95.243
N1515 X95.036 Y147.787
N1516 X94.83 Y147.81
N1517 X94.626 Y147.846
N1518 X94.426 Y147.897
N1519 X94.229 Y147.963
N1520 X94.038 Y148.042
N1521 X93.853 Y148.135
N1522 X93.675 Y148.24
N1523 X93.505 Y148.359
N1524 X93.343 Y148.488
N1525 X93.192 Y148.63
N1526 X93.159 Y148.651
N1527 X93.121 Y148.659
N1528 X93.083 Y148.651
N1529 X93.051 Y148.63
N1530 X93.029 Y148.597
N1531 X93.022 Y148.559
N1532 X93.029 Y148.521
N1533 X93.051 Y148.488
N1534 X93.192 Y148.337
N1535 X93.322 Y148.176
N1536 X93.44 Y148.006
N1537 X93.545 Y147.828
N1538 X93.638 Y147.643
N1539 X93.717 Y147.451
N1540 X93.783 Y147.255
N1541 X93.834 Y147.054
N1542 X93.87 Y146.851
N1543 X93.893 Y146.645
N1544 X93.9 Y146.438
N1545 Y109
N1546 X93.893 Y108.793
N1547 X93.87 Y108.587
N1548 X93.834 Y108.384
N1549 X93.783 Y108.183
N1550 X93.717 Y107.987
N1551 X93.638 Y107.795
N1552 X93.545 Y107.61
N1553 X93.44 Y107.432
N1554 X93.322 Y107.262
N1555 X93.192 Y107.101
N1556 X93.051 Y106.949
N1557 X92.899 Y106.808
N1558 X92.738 Y106.678
N1559 X92.568 Y106.56
N1560 X92.39 Y106.455
N1561 X92.205 Y106.362
N1562 X92.013 Y106.283
N1563 X91.817 Y106.217
N1564 X91.616 Y106.166
N1565 X91.413 Y106.13
N1566 X91.207 Y106.107
N1567 X91 Y106.1
N1568 X81.667
N1569 X53.562 Z4.79 F2500
N1570 X53.355 Y106.107 Z4.781
N1571 X53.149 Y106.13 Z4.772
N1572 X52.946 Y106.166 Z4.763
N1573 X52.745 Y106.218 Z4.754
N1574 X52.549 Y106.283 Z4.745
N1575 X52.357 Y106.362 Z4.736
N1576 X52.172 Y106.455 Z4.727
N1577 X51.994 Y106.561 Z4.718
N1578 X51.824 Y106.679 Z4.709
N1579 X51.663 Y106.809 Z4.7
N1580 X51.511 Y106.95 Z4.692
N1581 X51.479 Y106.971 Z4.69
N1582 X51.441 Y106.979 Z4.688
N1583 X51.402 Y106.971 Z4.686
N1584 X51.37 Y106.95 Z4.685
N1585 X51.348 Y106.917 Z4.683
N1586 X51.34 Y106.879 Z4.681
N1587 X51.348 Y106.841 Z4.68
N1588 X51.37 Y106.808 Z4.678
N1589 X51.511 Y106.657 Z4.669
N1590 X51.641 Y106.495 Z4.66
N1591 X51.759 Y106.325 Z4.651
N1592 X51.865 Y106.147 Z4.642
N1593 X51.957 Y105.962 Z4.633
N1594 X52.037 Y105.771 Z4.624
N1595 X52.102 Y105.574 Z4.616
N1596 X52.153 Y105.374 Z4.607
N1597 X52.19 Y105.17 Z4.598
N1598 X52.212 Y104.964 Z4.589
N1599 X52.22 Y104.757 Z4.58
N1600 Y95.243 Z4.17
N1601 X52.212 Y95.036 Z4.161
N1602 X52.19 Y94.83 Z4.152
N1603 X52.153 Y94.626 Z4.143
N1604 X52.102 Y94.426 Z4.134
N1605 X52.037 Y94.229 Z4.126
N1606 X51.958 Y94.038 Z4.117
N1607 X51.865 Y93.853 Z4.108
N1608 X51.759 Y93.675 Z4.099
N1609 X51.641 Y93.505 Z4.09
N1610 X51.511 Y93.344 Z4.081
N1611 X51.37 Y93.192 Z4.072
N1612 X51.349 Y93.16 Z4.07
N1613 X51.341 Y93.121 Z4.069
N1614 X51.349 Y93.083 Z4.067
N1615 X51.37 Y93.051 Z4.065
N1616 X51.403 Y93.029 Z4.064
N1617 X51.441 Y93.021 Z4.062
N1618 X51.479 Y93.029 Z4.06
N1619 X51.512 Y93.051 Z4.059
N1620 X51.663 Y93.192 Z4.05
N1621 X51.824 Y93.322 Z4.041
N1622 X51.994 Y93.44 Z4.032
N1623 X52.172 Y93.545 Z4.023
N1624 X52.357 Y93.638 Z4.014
N1625 X52.549 Y93.717 Z4.005
N1626 X52.745 Y93.783 Z3.996
N1627 X52.946 Y93.834 Z3.987
N1628 X53.149 Y93.87 Z3.978
N1629 X53.355 Y93.893 Z3.969
N1630 X53.562 Y93.9 Z3.96
N1631 X75.863 Z3
N1632 X91 F2760
N1633 X91.207 Y93.893
N1634 X91.413 Y93.87
N1635 X91.616 Y93.834
N1636 X91.817 Y93.783
N1637 X92.013 Y93.717
N1638 X92.205 Y93.638
N1639 X92.39 Y93.545
N1640 X92.568 Y93.44
N1641 X92.738 Y93.322
N1642 X92.899 Y93.192
N1643 X93.051 Y93.051
N1644 X93.192 Y92.899
N1645 X93.322 Y92.738
N1646 X93.44 Y92.568
N1647 X93.545 Y92.39
N1648 X93.638 Y92.205
N1649 X93.717 Y92.013
N1650 X93.783 Y91.817
N1651 X93.834 Y91.616
N1652 X93.87 Y91.413
N1653 X93.893 Y91.207
N1654 X93.9 Y91
N1655 Y53.562
N1656 X93.893 Y53.355
N1657 X93.87 Y53.149
N1658 X93.834 Y52.946
N1659 X93.783 Y52.745
N1660 X93.717 Y52.549
N1661 X93.638 Y52.357
N1662 X93.545 Y52.172
N1663 X93.44 Y51.994
N1664 X93.322 Y51.824
N1665 X93.192 Y51.663
N1666 X93.051 Y51.511
N1667 X93.029 Y51.479
N1668 X93.021 Y51.441
N1669 X93.029 Y51.403
N1670 X93.051 Y51.37
N1671 X93.083 Y51.348
N1672 X93.121 Y51.341
N1673 X93.16 Y51.348
N1674 X93.192 Y51.37
N1675 X93.344 Y51.511
N1676 X93.505 Y51.641
N1677 X93.675 Y51.759
N1678 X93.853 Y51.865
N1679 X94.038 Y51.957
N1680 X94.229 Y52.037
N1681 X94.426 Y52.102
N1682 X94.626 Y52.153
N1683 X94.83 Y52.19
N1684 X95.036 Y52.212
N1685 X95.243 Y52.22
N1686 X104.757
N1687 X104.964 Y52.212
N1688 X105.17 Y52.19
N1689 X105.374 Y52.153
N1690 X105.574 Y52.102
N1691 X105.771 Y52.037
N1692 X105.962 Y51.957
N1693 X106.147 Y51.865
N1694 X106.325 Y51.759
N1695 X106.495 Y51.641
N1696 X106.657 Y51.511
N1697 X106.808 Y51.37
N1698 X106.841 Y51.348
N1699 X106.879 Y51.34
N1700 X106.917 Y51.348
N1701 X106.95 Y51.37
N1702 X106.971 Y51.402
N1703 X106.979 Y51.44
N1704 X106.971 Y51.479
N1705 X106.95 Y51.511
N1706 X106.809 Y51.663
N1707 X106.679 Y51.824
N1708 X106.561 Y51.994
N1709 X106.455 Y52.172
N1710 X106.362 Y52.357
N1711 X106.283 Y52.549
N1712 X106.218 Y52.745
N1713 X106.166 Y52.946
N1714 X106.13 Y53.149
N1715 X106.107 Y53.355
N1716 X106.1 Y53.562
N1717 Y91
N1718 X106.107 Y91.207
N1719 X106.13 Y91.413
N1720 X106.166 Y91.616
N1721 X106.217 Y91.817
N1722 X106.283 Y92.013
N1723 X106.362 Y92.205
N1724 X106.455 Y92.39
N1725 X106.56 Y92.568
N1726 X106.678 Y92.738
N1727 X106.808 Y92.899
N1728 X106.949 Y93.051
N1729 X107.101 Y93.192
N1730 X107.262 Y93.322
N1731 X107.432 Y93.44
N1732 X107.61 Y93.545
N1733 X107.795 Y93.638
N1734 X107.987 Y93.717
N1735 X108.183 Y93.783
N1736 X108.384 Y93.834
N1737 X108.587 Y93.87
N1738 X108.793 Y93.893
N1739 X109 Y93.9
N1740 X146.438
N1741 X146.645 Y93.893
N1742 X146.851 Y93.87
N1743 X147.054 Y93.834
N1744 X147.255 Y93.783
N1745 X147.451 Y93.717
N1746 X147.643 Y93.638
N1747 X147.828 Y93.545
N1748 X148.006 Y93.44
N1749 X148.176 Y93.322
N1750 X148.337 Y93.192
N1751 X148.488 Y93.051
N1752 X148.521 Y93.029
N1753 X148.559 Y93.022
N1754 X148.597 Y93.029
N1755 X148.63 Y93.051
N1756 X148.651 Y93.083
N1757 X148.659 Y93.121
N1758 X148.651 Y93.159
N1759 X148.63 Y93.192
N1760 X148.488 Y93.343
N1761 X148.359 Y93.505
N1762 X148.24 Y93.675
N1763 X148.135 Y93.853
N1764 X148.042 Y94.038
N1765 X147.963 Y94.229
N1766 X147.897 Y94.426
N1767 X147.846 Y94.626
N1768 X147.81 Y94.83
N1769 X147.787 Y95.036
N1770 X147.78 Y95.243
N1771 Y104.757
N1772 X147.787 Y104.964
N1773 X147.81 Y105.17
N1774 X147.846 Y105.374
N1775 X147.898 Y105.574
N1776 X147.963 Y105.771
N1777 X148.042 Y105.962
N1778 X148.135 Y106.147
N1779 X148.241 Y106.325
N1780 X148.359 Y106.495
N1781 X148.489 Y106.657
N1782 X148.63 Y106.808
N1783 X148.652 Y106.841
N1784 X148.659 Y106.879
N1785 X148.652 Y106.917
N1786 X148.63 Y106.949
N1787 X148.598 Y106.971
N1788 X148.559 Y106.979
N1789 X148.521 Y106.971
N1790 X148.489 Y106.949
N1791 X148.337 Y106.808
N1792 X148.176 Y106.679
N1793 X148.006 Y106.56
N1794 X147.828 Y106.455
N1795 X147.643 Y106.362
N1796 X147.452 Y106.283
N1797 X147.255 Y106.217
N1798 X147.054 Y106.166
N1799 X146.851 Y106.13
N1800 X146.645 Y106.107
N1801 X146.438 Y106.1
N1802 X109
N1803 X108.793 Y106.107
N1804 X108.587 Y106.13
N1805 X108.384 Y106.166
N1806 X108.183 Y106.217
N1807 X107.987 Y106.283
N1808 X107.795 Y106.362
N1809 X107.61 Y106.455
N1810 X107.432 Y106.56
N1811 X107.262 Y106.678
N1812 X107.101 Y106.808
N1813 X106.949 Y106.949
N1814 X106.808 Y107.101
N1815 X106.678 Y107.262
N1816 X106.56 Y107.432
N1817 X106.455 Y107.61
N1818 X106.362 Y107.795
N1819 X106.283 Y107.987
N1820 X106.217 Y108.183
N1821 X106.166 Y108.384
N1822 X106.13 Y108.587
N1823 X106.107 Y108.793
N1824 X106.1 Y109
N1825 Y146.438
N1826 X106.107 Y146.645
N1827 X106.13 Y146.851
N1828 X106.166 Y147.054
N1829 X106.217 Y147.255
N1830 X106.283 Y147.452
N1831 X106.362 Y147.643
N1832 X106.455 Y147.828
N1833 X106.56 Y148.006
N1834 X106.679 Y148.176
N1835 X106.808 Y148.337
N1836 X106.949 Y148.489
N1837 X106.971 Y148.521
N1838 X106.979 Y148.559
N1839 X106.971 Y148.598
N1840 X106.949 Y148.63
N1841 X106.917 Y148.652
N1842 X106.879 Y148.659
N1843 X106.841 Y148.652
N1844 X106.808 Y148.63
N1845 X106.657 Y148.489
N1846 X106.495 Y148.359
N1847 X106.325 Y148.241
N1848 X106.147 Y148.135
N1849 X105.962 Y148.042
N1850 X105.771 Y147.963
N1851 X105.574 Y147.898
N1852 X105.374 Y147.846
N1853 X105.17 Y147.81
N1854 X104.964 Y147.787
N1855 X104.757 Y147.78
N1856 X95.243
N1857 X95.036 Y147.787
N1858 X94.83 Y147.81
N1859 X94.626 Y147.846
N1860 X94.426 Y147.897
N1861 X94.229 Y147.963
N1862 X94.038 Y148.042
N1863 X93.853 Y148.135
N1864 X93.675 Y148.24
N1865 X93.505 Y148.359
N1866 X93.343 Y148.488
N1867 X93.192 Y148.63
N1868 X93.159 Y148.651
N1869 X93.121 Y148.659
N1870 X93.083 Y148.651
N1871 X93.051 Y148.63
N1872 X93.029 Y148.597
N1873 X93.022 Y148.559
N1874 X93.029 Y148.521
N1875 X93.051 Y148.488
N1876 X93.192 Y148.337
N1877 X93.322 Y148.176
N1878 X93.44 Y148.006
N1879 X93.545 Y147.828
N1880 X93.638 Y147.643
N1881 X93.717 Y147.451
N1882 X93.783 Y147.255
N1883 X93.834 Y147.054
N1884 X93.87 Y146.851
N1885 X93.893 Y146.645
N1886 X93.9 Y146.438
N1887 Y109
N1888 X93.893 Y108.793
N1889 X93.87 Y108.587
N1890 X93.834 Y108.384
N1891 X93.783 Y108.183
N1892 X93.717 Y107.987
N1893 X93.638 Y107.795
N1894 X93.545 Y107.61
N1895 X93.44 Y107.432
N1896 X93.322 Y107.262
N1897 X93.192 Y107.101
N1898 X93.051 Y106.949
N1899 X92.899 Y106.808
N1900 X92.738 Y106.678
N1901 X92.568 Y106.56
N1902 X92.39 Y106.455
N1903 X92.205 Y106.362
N1904 X92.013 Y106.283
N1905 X91.817 Y106.217
N1906 X91.616 Y106.166
N1907 X91.413 Y106.13
N1908 X91.207 Y106.107
N1909 X91 Y106.1
N1910 X53.562
N1911 X53.355 Y106.107
N1912 X53.149 Y106.13
N1913 X52.946 Y106.166
N1914 X52.745 Y106.218
N1915 X52.549 Y106.283
N1916 X52.357 Y106.362
N1917 X52.172 Y106.455
N1918 X51.994 Y106.561
N1919 X51.824 Y106.679
N1920 X51.663 Y106.809
N1921 X51.511 Y106.95
N1922 X51.479 Y106.971
N1923 X51.441 Y106.979
N1924 X51.402 Y106.971
N1925 X51.37 Y106.95
N1926 X51.348 Y106.917
N1927 X51.34 Y106.879
N1928 X51.348 Y106.841
N1929 X51.37 Y106.808
N1930 X51.511 Y106.657
N1931 X51.641 Y106.495
N1932 X51.759 Y106.325
N1933 X51.865 Y106.147
N1934 X51.957 Y105.962
N1935 X52.037 Y105.771
N1936 X52.102 Y105.574
N1937 X52.153 Y105.374
N1938 X52.19 Y105.17
N1939 X52.212 Y104.964
N1940 X52.22 Y104.757
N1941 Y95.243
N1942 X52.212 Y95.036
N1943 X52.19 Y94.83
N1944 X52.153 Y94.626
N1945 X52.102 Y94.426
N1946 X52.037 Y94.229
N1947 X51.958 Y94.038
N1948 X51.865 Y93.853
N1949 X51.759 Y93.675
N1950 X51.641 Y93.505
N1951 X51.511 Y93.344
N1952 X51.37 Y93.192
N1953 X51.349 Y93.16
N1954 X51.341 Y93.121
N1955 X51.349 Y93.083
N1956 X51.37 Y93.051
N1957 X51.403 Y93.029
N1958 X51.441 Y93.021
N1959 X51.479 Y93.029
N1960 X51.512 Y93.051
N1961 X51.663 Y93.192
N1962 X51.824 Y93.322
N1963 X51.994 Y93.44
N1964 X52.172 Y93.545
N1965 X52.357 Y93.638
N1966 X52.549 Y93.717
N1967 X52.745 Y93.783
N1968 X52.946 Y93.834
N1969 X53.149 Y93.87
N1970 X53.355 Y93.893
N1971 X53.562 Y93.9
N1972 X75.863
N1973 X91 Z2.348 F2500
N1974 X91.207 Y93.893 Z2.339
N1975 X91.413 Y93.87 Z2.33
N1976 X91.616 Y93.834 Z2.321
N1977 X91.817 Y93.783 Z2.312
N1978 X92.013 Y93.717 Z2.304
N1979 X92.205 Y93.638 Z2.295
N1980 X92.39 Y93.545 Z2.286
N1981 X92.568 Y93.44 Z2.277
N1982 X92.738 Y93.322 Z2.268
N1983 X92.899 Y93.192 Z2.259
N1984 X93.051 Y93.051 Z2.25
N1985 X93.192 Y92.899 Z2.241
N1986 X93.322 Y92.738 Z2.232
N1987 X93.44 Y92.568 Z2.223
N1988 X93.545 Y92.39 Z2.214
N1989 X93.638 Y92.205 Z2.205
N1990 X93.717 Y92.013 Z2.197
N1991 X93.783 Y91.817 Z2.188
N1992 X93.834 Y91.616 Z2.179
N1993 X93.87 Y91.413 Z2.17
N1994 X93.893 Y91.207 Z2.161
N1995 X93.9 Y91 Z2.152
N1996 Y53.562 Z0.54
N1997 X93.893 Y53.355 Z0.531
N1998 X93.87 Y53.149 Z0.522
N1999 X93.834 Y52.946 Z0.513
N2000 X93.783 Y52.745 Z0.504
N2001 X93.717 Y52.549 Z0.495
N2002 X93.638 Y52.357 Z0.486
N2003 X93.545 Y52.172 Z0.477
N2004 X93.44 Y51.994 Z0.468
N2005 X93.322 Y51.824 Z0.459
N2006 X93.192 Y51.663 Z0.45
N2007 X93.051 Y51.511 Z0.442
N2008 X93.029 Y51.479 Z0.44
N2009 X93.021 Y51.441 Z0.438
N2010 X93.029 Y51.403 Z0.436
N2011 X93.051 Y51.37 Z0.435
N2012 X93.083 Y51.348 Z0.433
N2013 X93.121 Y51.341 Z0.431
N2014 X93.16 Y51.348 Z0.43
N2015 X93.192 Y51.37 Z0.428
N2016 X93.344 Y51.511 Z0.419
N2017 X93.505 Y51.641 Z0.41
N2018 X93.675 Y51.759 Z0.401
N2019 X93.853 Y51.865 Z0.392
N2020 X94.038 Y51.957 Z0.383
N2021 X94.229 Y52.037 Z0.375
N2022 X94.426 Y52.102 Z0.366
N2023 X94.626 Y52.153 Z0.357
N2024 X94.83 Y52.19 Z0.348
N2025 X95.036 Y52.212 Z0.339
N2026 X95.243 Y52.22 Z0.33
N2027 X98.259 Z0.2
N2028 X104.757 F2760
N2029 X104.964 Y52.212
N2030 X105.17 Y52.19
N2031 X105.374 Y52.153
N2032 X105.574 Y52.102
N2033 X105.771 Y52.037
N2034 X105.962 Y51.957
N2035 X106.147 Y51.865
N2036 X106.325 Y51.759
N2037 X106.495 Y51.641
N2038 X106.657 Y51.511
N2039 X106.808 Y51.37
N2040 X106.841 Y51.348
N2041 X106.879 Y51.34
N2042 X106.917 Y51.348
N2043 X106.95 Y51.37
N2044 X106.971 Y51.402
N2045 X106.979 Y51.44
N2046 X106.971 Y51.479
N2047 X106.95 Y51.511
N2048 X106.809 Y51.663
N2049 X106.679 Y51.824
N2050 X106.561 Y51.994
N2051 X106.455 Y52.172
N2052 X106.362 Y52.357
N2053 X106.283 Y52.549
N2054 X106.218 Y52.745
N2055 X106.166 Y52.946
N2056 X106.13 Y53.149
N2057 X106.107 Y53.355
N2058 X106.1 Y53.562
N2059 Y91
N2060 X106.107 Y91.207
N2061 X106.13 Y91.413
N2062 X106.166 Y91.616
N2063 X106.217 Y91.817
N2064 X106.283 Y92.013
N2065 X106.362 Y92.205
N2066 X106.455 Y92.39
N2067 X106.56 Y92.568
N2068 X106.678 Y92.738
N2069 X106.808 Y92.899
N2070 X106.949 Y93.051
N2071 X107.101 Y93.192
N2072 X107.262 Y93.322
N2073 X107.432 Y93.44
N2074 X107.61 Y93.545
N2075 X107.795 Y93.638
N2076 X107.987 Y93.717
N2077 X108.183 Y93.783
N2078 X108.384 Y93.834
N2079 X108.587 Y93.87
N2080 X108.793 Y93.893
N2081 X109 Y93.9
N2082 X146.438
N2083 X146.645 Y93.893
N2084 X146.851 Y93.87
N2085 X147.054 Y93.834
N2086 X147.255 Y93.783
N2087 X147.451 Y93.717
N2088 X147.643 Y93.638
N2089 X147.828 Y93.545
N2090 X148.006 Y93.44
N2091 X148.176 Y93.322
N2092 X148.337 Y93.192
N2093 X148.488 Y93.051
N2094 X148.521 Y93.029
N2095 X148.559 Y93.022
N2096 X148.597 Y93.029
N2097 X148.63 Y93.051
N2098 X148.651 Y93.083
N2099 X148.659 Y93.121
N2100 X148.651 Y93.159
N2101 X148.63 Y93.192
N2102 X148.488 Y93.343
N2103 X148.359 Y93.505
N2104 X148.24 Y93.675
N2105 X148.135 Y93.853
N2106 X148.042 Y94.038
N2107 X147.963 Y94.229
N2108 X147.897 Y94.426
N2109 X147.846 Y94.626
N2110 X147.81 Y94.83
N2111 X147.787 Y95.036
N2112 X147.78 Y95.243
N2113 Y104.757
N2114 X147.787 Y104.964
N2115 X147.81 Y105.17
N2116 X147.846 Y105.374
N2117 X147.898 Y105.574
N2118 X147.963 Y105.771
N2119 X148.042 Y105.962
N2120 X148.135 Y106.147
N2121 X148.241 Y106.325
N2122 X148.359 Y106.495
N2123 X148.489 Y106.657
N2124 X148.63 Y106.808
N2125 X148.652 Y106.841
N2126 X148.659 Y106.879
N2127 X148.652 Y106.917
N2128 X148.63 Y106.949
N2129 X148.598 Y106.971
N2130 X148.559 Y106.979
N2131 X148.521 Y106.971
N2132 X148.489 Y106.949
N2133 X148.337 Y106.808
N2134 X148.176 Y106.679
N2135 X148.006 Y106.56
N2136 X147.828 Y106.455
N2137 X147.643 Y106.362
N2138 X147.452 Y106.283
N2139 X147.255 Y106.217
N2140 X147.054 Y106.166
N2141 X146.851 Y106.13
N2142 X146.645 Y106.107
N2143 X146.438 Y106.1
N2144 X109
N2145 X108.793 Y106.107
N2146 X108.587 Y106.13
N2147 X108.384 Y106.166
N2148 X108.183 Y106.217
N2149 X107.987 Y106.283
N2150 X107.795 Y106.362
N2151 X107.61 Y106.455
N2152 X107.432 Y106.56
N2153 X107.262 Y106.678
N2154 X107.101 Y106.808
N2155 X106.949 Y106.949
N2156 X106.808 Y107.101
N2157 X106.678 Y107.262
N2158 X106.56 Y107.432
N2159 X106.455 Y107.61
N2160 X106.362 Y107.795
N2161 X106.283 Y107.987
N2162 X106.217 Y108.183
N2163 X106.166 Y108.384
N2164 X106.13 Y108.587
N2165 X106.107 Y108.793
N2166 X106.1 Y109
N2167 Y146.438
N2168 X106.107 Y146.645
N2169 X106.13 Y146.851
N2170 X106.166 Y147.054
N2171 X106.217 Y147.255
N2172 X106.283 Y147.452
N2173 X106.362 Y147.643
N2174 X106.455 Y147.828
N2175 X106.56 Y148.006
N2176 X106.679 Y148.176
N2177 X106.808 Y148.337
N2178 X106.949 Y148.489
N2179 X106.971 Y148.521
N2180 X106.979 Y148.559
N2181 X106.971 Y148.598
N2182 X106.949 Y148.63
N2183 X106.917 Y148.652
N2184 X106.879 Y148.659
N2185 X106.841 Y148.652
N2186 X106.808 Y148.63
N2187 X106.657 Y148.489
N2188 X106.495 Y148.359
N2189 X106.325 Y148.241
N2190 X106.147 Y148.135
N2191 X105.962 Y148.042
N2192 X105.771 Y147.963
N2193 X105.574 Y147.898
N2194 X105.374 Y147.846
N2195 X105.17 Y147.81
N2196 X104.964 Y147.787
N2197 X104.757 Y147.78
N2198 X95.243
N2199 X95.036 Y147.787
N2200 X94.83 Y147.81
N2201 X94.626 Y147.846
N2202 X94.426 Y147.897
N2203 X94.229 Y147.963
N2204 X94.038 Y148.042
N2205 X93.853 Y148.135
N2206 X93.675 Y148.24
N2207 X93.505 Y148.359
N2208 X93.343 Y148.488
N2209 X93.192 Y148.63
N2210 X93.159 Y148.651
N2211 X93.121 Y148.659
N2212 X93.083 Y148.651
N2213 X93.051 Y148.63
N2214 X93.029 Y148.597
N2215 X93.022 Y148.559
N2216 X93.029 Y148.521
N2217 X93.051 Y148.488
N2218 X93.192 Y148.337
N2219 X93.322 Y148.176
N2220 X93.44 Y148.006
N2221 X93.545 Y147.828
N2222 X93.638 Y147.643
N2223 X93.717 Y147.451
N2224 X93.783 Y147.255
N2225 X93.834 Y147.054
N2226 X93.87 Y146.851
N2227 X93.893 Y146.645
N2228 X93.9 Y146.438
N2229 Y109
N2230 X93.893 Y108.793
N2231 X93.87 Y108.587
N2232 X93.834 Y108.384
N2233 X93.783 Y108.183
N2234 X93.717 Y107.987
N2235 X93.638 Y107.795
N2236 X93.545 Y107.61
N2237 X93.44 Y107.432
N2238 X93.322 Y107.262
N2239 X93.192 Y107.101
N2240 X93.051 Y106.949
N2241 X92.899 Y106.808
N2242 X92.738 Y106.678
N2243 X92.568 Y106.56
N2244 X92.39 Y106.455
N2245 X92.205 Y106.362
N2246 X92.013 Y106.283
N2247 X91.817 Y106.217
N2248 X91.616 Y106.166
N2249 X91.413 Y106.13
N2250 X91.207 Y106.107
N2251 X91 Y106.1
N2252 X53.562
N2253 X53.355 Y106.107
N2254 X53.149 Y106.13
N2255 X52.946 Y106.166
N2256 X52.745 Y106.218
N2257 X52.549 Y106.283
N2258 X52.357 Y106.362
N2259 X52.172 Y106.455
N2260 X51.994 Y106.561
N2261 X51.824 Y106.679
N2262 X51.663 Y106.809
N2263 X51.511 Y106.95
N2264 X51.479 Y106.971
N2265 X51.441 Y106.979
N2266 X51.402 Y106.971
N2267 X51.37 Y106.95
N2268 X51.348 Y106.917
N2269 X51.34 Y106.879
N2270 X51.348 Y106.841
N2271 X51.37 Y106.808
N2272 X51.511 Y106.657
N2273 X51.641 Y106.495
N2274 X51.759 Y106.325
N2275 X51.865 Y106.147
N2276 X51.957 Y105.962
N2277 X52.037 Y105.771
N2278 X52.102 Y105.574
N2279 X52.153 Y105.374
N2280 X52.19 Y105.17
N2281 X52.212 Y104.964
N2282 X52.22 Y104.757
N2283 Y95.243
N2284 X52.212 Y95.036
N2285 X52.19 Y94.83
N2286 X52.153 Y94.626
N2287 X52.102 Y94.426
N2288 X52.037 Y94.229
N2289 X51.958 Y94.038
N2290 X51.865 Y93.853
N2291 X51.759 Y93.675
N2292 X51.641 Y93.505
N2293 X51.511 Y93.344
N2294 X51.37 Y93.192
N2295 X51.349 Y93.16
N2296 X51.341 Y93.121
N2297 X51.349 Y93.083
N2298 X51.37 Y93.051
N2299 X51.403 Y93.029
N2300 X51.441 Y93.021
N2301 X51.479 Y93.029
N2302 X51.512 Y93.051
N2303 X51.663 Y93.192
N2304 X51.824 Y93.322
N2305 X51.994 Y93.44
N2306 X52.172 Y93.545
N2307 X52.357 Y93.638
N2308 X52.549 Y93.717
N2309 X52.745 Y93.783
N2310 X52.946 Y93.834
N2311 X53.149 Y93.87
N2312 X53.355 Y93.893
N2313 X53.562 Y93.9
N2314 X75.863
N2315 X91
N2316 X91.207 Y93.893
N2317 X91.413 Y93.87
N2318 X91.616 Y93.834
N2319 X91.817 Y93.783
N2320 X92.013 Y93.717
N2321 X92.205 Y93.638
N2322 X92.39 Y93.545
N2323 X92.568 Y93.44
N2324 X92.738 Y93.322
N2325 X92.899 Y93.192
N2326 X93.051 Y93.051
N2327 X93.192 Y92.899
N2328 X93.322 Y92.738
N2329 X93.44 Y92.568
N2330 X93.545 Y92.39
N2331 X93.638 Y92.205
N2332 X93.717 Y92.013
N2333 X93.783 Y91.817
N2334 X93.834 Y91.616
N2335 X93.87 Y91.413
N2336 X93.893 Y91.207
N2337 X93.9 Y91
N2338 Y53.562
N2339 X93.893 Y53.355
N2340 X93.87 Y53.149
N2341 X93.834 Y52.946
N2342 X93.783 Y52.745
N2343 X93.717 Y52.549
N2344 X93.638 Y52.357
N2345 X93.545 Y52.172
N2346 X93.44 Y51.994
N2347 X93.322 Y51.824
N2348 X93.192 Y51.663
N2349 X93.051 Y51.511
N2350 X93.029 Y51.479
N2351 X93.021 Y51.441
N2352 X93.029 Y51.403
N2353 X93.051 Y51.37
N2354 X93.083 Y51.348
N2355 X93.121 Y51.341
N2356 X93.16 Y51.348
N2357 X93.192 Y51.37
N2358 X93.344 Y51.511
N2359 X93.505 Y51.641
N2360 X93.675 Y51.759
N2361 X93.853 Y51.865
N2362 X94.038 Y51.957
N2363 X94.229 Y52.037
N2364 X94.426 Y52.102
N2365 X94.626 Y52.153
N2366 X94.83 Y52.19
N2367 X95.036 Y52.212
N2368 X95.243 Y52.22
N2369 X98.259
N2370 G0 Z33

(2D Contour8)
N2371 X74.396 Y199.767
N2372 Z33
N2373 Z23
N2374 G1 Z22 F1000
N2375 Z20.5
N2376 X75.591 Y200.066 Z20.238 F2500
N2377 X76.79 Y200.351 Z19.976
N2378 X77.992 Y200.621 Z19.714
N2379 X79.197 Y200.877 Z19.452
N2380 X80.406 Y201.119 Z19.19
N2381 X81.617 Y201.346 Z18.929
N2382 X82.83 Y201.559 Z18.667
N2383 X84.046 Y201.757 Z18.405
N2384 X85.265 Y201.941 Z18.143
N2385 X86.485 Y202.11 Z17.881
N2386 X87.708 Y202.264 Z17.619
N2387 X88.932 Y202.404 Z17.357
N2388 X90.158 Y202.529 Z17.095
N2389 X91.385 Y202.639 Z16.833
N2390 X92.613 Y202.735 Z16.571
N2391 X93.843 Y202.816 Z16.31
N2392 X95.073 Y202.882 Z16.048
N2393 X96.304 Y202.934 Z15.786
N2394 X97.536 Y202.971 Z15.524
N2395 X98.768 Y202.993 Z15.262
N2396 X100 Y203 Z15
N2397 X101.281 Y202.992 F2760
N2398 X102.563 Y202.968
N2399 X103.844 Y202.928
N2400 X105.124 Y202.872
N2401 X106.403 Y202.801
N2402 X107.682 Y202.713
N2403 X108.959 Y202.61
N2404 X110.235 Y202.49
N2405 X111.51 Y202.355
N2406 X112.782 Y202.204
N2407 X114.053 Y202.037
N2408 X115.321 Y201.854
N2409 X116.587 Y201.656
N2410 X117.851 Y201.441
N2411 X119.111 Y201.211
N2412 X120.369 Y200.966
N2413 X121.624 Y200.705
N2414 X122.875 Y200.428
N2415 X124.123 Y200.135
N2416 X125.367 Y199.827
N2417 X126.607 Y199.504
N2418 X127.843 Y199.165
N2419 X129.074 Y198.811
N2420 X130.301 Y198.442
N2421 X131.524 Y198.057
N2422 X132.741 Y197.658
N2423 X133.954 Y197.243
N2424 X135.161 Y196.813
N2425 X136.363 Y196.368
N2426 X137.559 Y195.908
N2427 X138.749 Y195.433
N2428 X139.934 Y194.944
N2429 X141.112 Y194.439
N2430 X142.284 Y193.921
N2431 X143.449 Y193.387
N2432 X144.608 Y192.839
N2433 X145.759 Y192.277
N2434 X146.904 Y191.701
N2435 X148.041 Y191.11
N2436 X149.171 Y190.505
N2437 X150.293 Y189.887
N2438 X151.407 Y189.254
N2439 X152.514 Y188.607
N2440 X153.612 Y187.947
N2441 X154.702 Y187.273
N2442 X155.784 Y186.586
N2443 X156.857 Y185.885
N2444 X157.921 Y185.171
N2445 X158.976 Y184.444
N2446 X160.022 Y183.704
N2447 X161.059 Y182.951
N2448 X162.086 Y182.184
N2449 X163.104 Y181.406
N2450 X164.112 Y180.614
N2451 X165.11 Y179.81
N2452 X166.098 Y178.994
N2453 X167.076 Y178.166
N2454 X168.043 Y177.325
N2455 X169 Y176.472
N2456 X169.946 Y175.608
N2457 X170.881 Y174.732
N2458 X171.805 Y173.844
N2459 X172.719 Y172.945
N2460 X173.621 Y172.035
N2461 X174.511 Y171.113
N2462 X175.39 Y170.181
N2463 X176.257 Y169.237
N2464 X177.113 Y168.283
N2465 X177.957 Y167.318
N2466 X178.788 Y166.343
N2467 X179.607 Y165.358
N2468 X180.414 Y164.362
N2469 X181.209 Y163.357
N2470 X181.991 Y162.342
N2471 X182.76 Y161.317
N2472 X183.517 Y160.282
N2473 X184.26 Y159.239
N2474 X184.991 Y158.186
N2475 X185.708 Y157.124
N2476 X186.412 Y156.053
N2477 X187.103 Y154.974
N2478 X187.78 Y153.886
N2479 X188.444 Y152.789
N2480 X189.094 Y151.685
N2481 X189.73 Y150.572
N2482 X190.352 Y149.452
N2483 X190.96 Y148.324
N2484 X191.554 Y147.189
N2485 X192.135 Y146.046
N2486 X192.7 Y144.896
N2487 X193.252 Y143.739
N2488 X193.789 Y142.576
N2489 X194.311 Y141.406
N2490 X194.819 Y140.229
N2491 X195.312 Y139.046
N2492 X195.791 Y137.857
N2493 X196.254 Y136.663
N2494 X196.703 Y135.462
N2495 X197.137 Y134.256
N2496 X197.555 Y133.045
N2497 X197.959 Y131.829
N2498 X198.347 Y130.608
N2499 X198.72 Y129.382
N2500 X199.078 Y128.151
N2501 X199.421 Y126.916
N2502 X199.748 Y125.677
N2503 X200.06 Y124.434
N2504 X200.356 Y123.187
N2505 X200.637 Y121.937
N2506 X200.902 Y120.683
N2507 X201.151 Y119.426
N2508 X201.385 Y118.166
N2509 X201.604 Y116.903
N2510 X201.806 Y115.638
N2511 X201.993 Y114.37
N2512 X202.164 Y113.1
N2513 X202.319 Y111.828
N2514 X202.458 Y110.554
N2515 X202.581 Y109.278
N2516 X202.689 Y108.001
N2517 X202.78 Y106.723
N2518 X202.856 Y105.444
N2519 X202.916 Y104.164
N2520 X202.96 Y102.883
N2521 X202.988 Y101.602
N2522 X203 Y100.32
N2523 X202.996 Y99.039
N2524 X202.976 Y97.758
N2525 X202.94 Y96.477
N2526 X202.888 Y95.196
N2527 X202.82 Y93.916
N2528 X202.737 Y92.638
N2529 X202.637 Y91.36
N2530 X202.522 Y90.084
N2531 X202.39 Y88.809
N2532 X202.243 Y87.536
N2533 X202.08 Y86.265
N2534 X201.901 Y84.996
N2535 X201.707 Y83.729
N2536 X201.496 Y82.465
N2537 X201.27 Y81.203
N2538 X201.029 Y79.945
N2539 X200.771 Y78.69
N2540 X200.498 Y77.437
N2541 X200.21 Y76.189
N2542 X199.906 Y74.944
N2543 X199.586 Y73.703
N2544 X199.252 Y72.466
N2545 X198.901 Y71.233
N2546 X198.536 Y70.005
N2547 X198.155 Y68.781
N2548 X197.759 Y67.562
N2549 X197.348 Y66.349
N2550 X196.922 Y65.14
N2551 X196.48 Y63.937
N2552 X196.024 Y62.739
N2553 X195.553 Y61.548
N2554 X195.067 Y60.362
N2555 X194.567 Y59.182
N2556 X194.052 Y58.009
N2557 X193.522 Y56.842
N2558 X192.978 Y55.681
N2559 X192.419 Y54.528
N2560 X191.846 Y53.382
N2561 X191.259 Y52.243
N2562 X190.658 Y51.111
N2563 X190.043 Y49.987
N2564 X189.413 Y48.87
N2565 X188.77 Y47.762
N2566 X188.114 Y46.661
N2567 X187.443 Y45.569
N2568 X186.759 Y44.486
N2569 X186.062 Y43.41
N2570 X185.351 Y42.344
N2571 X184.627 Y41.287
N2572 X183.89 Y40.238
N2573 X183.14 Y39.199
N2574 X182.377 Y38.17
N2575 X181.601 Y37.149
N2576 X180.813 Y36.139
N2577 X180.012 Y35.139
N2578 X179.199 Y34.148
N2579 X178.374 Y33.168
N2580 X177.536 Y32.198
N2581 X176.687 Y31.238
N2582 X175.825 Y30.29
N2583 X174.952 Y29.352
N2584 X174.067 Y28.425
N2585 X173.171 Y27.509
N2586 X172.263 Y26.604
N2587 X171.345 Y25.71
N2588 X170.415 Y24.829
N2589 X169.474 Y23.958
N2590 X168.523 Y23.1
N2591 X167.561 Y22.253
N2592 X166.588 Y21.419
N2593 X165.605 Y20.596
N2594 X164.612 Y19.786
N2595 X163.609 Y18.989
N2596 X162.596 Y18.203
N2597 X161.574 Y17.431
N2598 X160.542 Y16.671
N2599 X159.5 Y15.924
N2600 X158.45 Y15.191
N2601 X157.39 Y14.47
N2602 X156.322 Y13.763
N2603 X155.244 Y13.069
N2604 X154.158 Y12.388
N2605 X153.064 Y11.721
N2606 X151.962 Y11.068
N2607 X150.851 Y10.428
N2608 X149.733 Y9.802
N2609 X148.607 Y9.19
N2610 X147.473 Y8.593
N2611 X146.332 Y8.009
N2612 X145.184 Y7.44
N2613 X144.029 Y6.885
N2614 X142.867 Y6.344
N2615 X141.699 Y5.818
N2616 X140.524 Y5.307
N2617 X139.342 Y4.81
N2618 X138.155 Y4.328
N2619 X136.962 Y3.86
N2620 X135.763 Y3.408
N2621 X134.558 Y2.97
N2622 X133.348 Y2.548
N2623 X132.133 Y2.141
N2624 X130.913 Y1.748
N2625 X129.688 Y1.371
N2626 X128.459 Y1.01
N2627 X127.225 Y0.663
N2628 X125.987 Y0.332
N2629 X124.745 Y0.017
N2630 X123.499 Y-0.284
N2631 X122.25 Y-0.568
N2632 X120.997 Y-0.837
N2633 X119.741 Y-1.091
N2634 X118.481 Y-1.328
N2635 X117.219 Y-1.55
N2636 X115.955 Y-1.757
N2637 X114.687 Y-1.947
N2638 X113.418 Y-2.122
N2639 X112.146 Y-2.281
N2640 X110.873 Y-2.425
N2641 X109.597 Y-2.552
N2642 X108.321 Y-2.663
N2643 X107.043 Y-2.759
N2644 X105.764 Y-2.839
N2645 X104.484 Y-2.902
N2646 X103.203 Y-2.95
N2647 X101.922 Y-2.982
N2648 X100.641 Y-2.998
N2649 X99.359
N2650 X98.078 Y-2.982
N2651 X96.797 Y-2.95
N2652 X95.516 Y-2.902
N2653 X94.236 Y-2.839
N2654 X92.957 Y-2.759
N2655 X91.679 Y-2.663
N2656 X90.403 Y-2.552
N2657 X89.127 Y-2.425
N2658 X87.854 Y-2.281
N2659 X86.582 Y-2.122
N2660 X85.313 Y-1.947
N2661 X84.045 Y-1.757
N2662 X82.781 Y-1.55
N2663 X81.519 Y-1.328
N2664 X80.259 Y-1.091
N2665 X79.003 Y-0.837
N2666 X77.75 Y-0.568
N2667 X76.501 Y-0.284
N2668 X75.255 Y0.017
N2669 X74.013 Y0.332
N2670 X72.775 Y0.663
N2671 X71.541 Y1.01
N2672 X70.312 Y1.371
N2673 X69.087 Y1.748
N2674 X67.867 Y2.141
N2675 X66.652 Y2.548
N2676 X65.442 Y2.97
N2677 X64.237 Y3.408
N2678 X63.038 Y3.86
N2679 X61.845 Y4.328
N2680 X60.658 Y4.81
N2681 X59.476 Y5.307
N2682 X58.301 Y5.818
N2683 X57.133 Y6.344
N2684 X55.971 Y6.885
N2685 X54.816 Y7.44
N2686 X53.668 Y8.009
N2687 X52.527 Y8.593
N2688 X51.393 Y9.19
N2689 X50.267 Y9.802
N2690 X49.149 Y10.428
N2691 X48.038 Y11.068
N2692 X46.936 Y11.721
N2693 X45.842 Y12.388
N2694 X44.756 Y13.069
N2695 X43.678 Y13.763
N2696 X42.61 Y14.47
N2697 X41.55 Y15.191
N2698 X40.5 Y15.924
N2699 X39.458 Y16.671
N2700 X38.426 Y17.431
N2701 X37.404 Y18.203
N2702 X36.391 Y18.989
N2703 X35.388 Y19.786
N2704 X34.395 Y20.596
N2705 X33.412 Y21.419
N2706 X32.439 Y22.253
N2707 X31.477 Y23.1
N2708 X30.526 Y23.958
N2709 X29.585 Y24.829
N2710 X28.655 Y25.71
N2711 X27.737 Y26.604
N2712 X26.829 Y27.509
N2713 X25.933 Y28.425
N2714 X25.048 Y29.352
N2715 X24.175 Y30.29
N2716 X23.313 Y31.238
N2717 X22.464 Y32.198
N2718 X21.626 Y33.168
N2719 X20.801 Y34.148
N2720 X19.988 Y35.139
N2721 X19.187 Y36.139
N2722 X18.399 Y37.149
N2723 X17.623 Y38.17
N2724 X16.86 Y39.199
N2725 X16.11 Y40.238
N2726 X15.373 Y41.287
N2727 X14.649 Y42.344
N2728 X13.938 Y43.41
N2729 X13.241 Y44.486
N2730 X12.557 Y45.569
N2731 X11.886 Y46.661
N2732 X11.23 Y47.762
N2733 X10.587 Y48.87
N2734 X9.957 Y49.987
N2735 X9.342 Y51.111
N2736 X8.741 Y52.243
N2737 X8.154 Y53.382
N2738 X7.581 Y54.528
N2739 X7.022 Y55.681
N2740 X6.478 Y56.842
N2741 X5.948 Y58.009
N2742 X5.433 Y59.182
N2743 X4.933 Y60.362
N2744 X4.447 Y61.548
N2745 X3.976 Y62.739
N2746 X3.52 Y63.937
N2747 X3.078 Y65.14
N2748 X2.652 Y66.349
N2749 X2.241 Y67.562
N2750 X1.845 Y68.781
N2751 X1.464 Y70.005
N2752 X1.099 Y71.233
N2753 X0.748 Y72.466
N2754 X0.414 Y73.703
N2755 X0.094 Y74.944
N2756 X-0.21 Y76.189
N2757 X-0.498 Y77.437
N2758 X-0.771 Y78.69
N2759 X-1.029 Y79.945
N2760 X-1.27 Y81.203
N2761 X-1.496 Y82.465
N2762 X-1.707 Y83.729
N2763 X-1.901 Y84.996
N2764 X-2.08 Y86.265
N2765 X-2.243 Y87.536
N2766 X-2.39 Y88.809
N2767 X-2.522 Y90.084
N2768 X-2.637 Y91.36
N2769 X-2.737 Y92.638
N2770 X-2.82 Y93.916
N2771 X-2.888 Y95.196
N2772 X-2.94 Y96.477
N2773 X-2.976 Y97.758
N2774 X-2.996 Y99.039
N2775 X-3 Y100.32
N2776 X-2.988 Y101.602
N2777 X-2.96 Y102.883
N2778 X-2.916 Y104.164
N2779 X-2.856 Y105.444
N2780 X-2.78 Y106.723
N2781 X-2.689 Y108.001
N2782 X-2.581 Y109.278
N2783 X-2.458 Y110.554
N2784 X-2.319 Y111.828
N2785 X-2.164 Y113.1
N2786 X-1.993 Y114.37
N2787 X-1.806 Y115.638
N2788 X-1.604 Y116.903
N2789 X-1.385 Y118.166
N2790 X-1.151 Y119.426
N2791 X-0.902 Y120.683
N2792 X-0.637 Y121.937
N2793 X-0.356 Y123.187
N2794 X-0.06 Y124.434
N2795 X0.252 Y125.677
N2796 X0.579 Y126.916
N2797 X0.922 Y128.151
N2798 X1.28 Y129.382
N2799 X1.653 Y130.608
N2800 X2.041 Y131.829
N2801 X2.445 Y133.045
N2802 X2.863 Y134.256
N2803 X3.297 Y135.462
N2804 X3.746 Y136.663
N2805 X4.209 Y137.857
N2806 X4.688 Y139.046
N2807 X5.181 Y140.229
N2808 X5.689 Y141.406
N2809 X6.211 Y142.576
N2810 X6.748 Y143.739
N2811 X7.3 Y144.896
N2812 X7.865 Y146.046
N2813 X8.446 Y147.189
N2814 X9.04 Y148.324
N2815 X9.648 Y149.452
N2816 X10.27 Y150.572
N2817 X10.906 Y151.685
N2818 X11.556 Y152.789
N2819 X12.22 Y153.886
N2820 X12.897 Y154.974
N2821 X13.588 Y156.053
N2822 X14.292 Y157.124
N2823 X15.009 Y158.186
N2824 X15.74 Y159.239
N2825 X16.483 Y160.282
N2826 X17.24 Y161.317
N2827 X18.009 Y162.342
N2828 X18.791 Y163.357
N2829 X19.586 Y164.362
N2830 X20.393 Y165.358
N2831 X21.212 Y166.343
N2832 X22.043 Y167.318
N2833 X22.887 Y168.283
N2834 X23.743 Y169.237
N2835 X24.61 Y170.181
N2836 X25.489 Y171.113
N2837 X26.379 Y172.035
N2838 X27.281 Y172.945
N2839 X28.195 Y173.844
N2840 X29.119 Y174.732
N2841 X30.054 Y175.608
N2842 X31 Y176.472
N2843 X31.957 Y177.325
N2844 X32.924 Y178.166
N2845 X33.902 Y178.994
N2846 X34.89 Y179.81
N2847 X35.888 Y180.614
N2848 X36.896 Y181.406
N2849 X37.914 Y182.184
N2850 X38.941 Y182.951
N2851 X39.978 Y183.704
N2852 X41.024 Y184.444
N2853 X42.079 Y185.171
N2854 X43.143 Y185.885
N2855 X44.216 Y186.586
N2856 X45.298 Y187.273
N2857 X46.388 Y187.947
N2858 X47.486 Y188.607
N2859 X48.593 Y189.254
N2860 X49.707 Y189.887
N2861 X50.829 Y190.505
N2862 X51.959 Y191.11
N2863 X53.096 Y191.701
N2864 X54.241 Y192.277
N2865 X55.392 Y192.839
N2866 X56.551 Y193.387
N2867 X57.716 Y193.921
N2868 X58.888 Y194.439
N2869 X60.066 Y194.944
N2870 X61.251 Y195.433
N2871 X62.441 Y195.908
N2872 X63.637 Y196.368
N2873 X64.839 Y196.813
N2874 X66.046 Y197.243
N2875 X67.259 Y197.658
N2876 X68.476 Y198.057
N2877 X69.699 Y198.442
N2878 X70.926 Y198.811
N2879 X72.157 Y199.165
N2880 X73.393 Y199.504
N2881 X74.633 Y199.827
N2882 X75.877 Y200.135
N2883 X77.125 Y200.428
N2884 X78.376 Y200.705
N2885 X79.631 Y200.966
N2886 X80.889 Y201.211
N2887 X82.149 Y201.441
N2888 X83.413 Y201.656
N2889 X84.679 Y201.854
N2890 X85.947 Y202.037
N2891 X87.218 Y202.204
N2892 X88.49 Y202.355
N2893 X89.765 Y202.49
N2894 X91.041 Y202.61
N2895 X92.318 Y202.713
N2896 X93.597 Y202.801
N2897 X94.876 Y202.872
N2898 X96.156 Y202.928
N2899 X97.437 Y202.968
N2900 X98.719 Y202.992
N2901 X100 Y203
N2902 X101.283 Y202.992 Z14.966 F2500
N2903 X102.566 Y202.968 Z14.933
N2904 X103.849 Y202.928 Z14.899
N2905 X105.131 Y202.872 Z14.865
N2906 X106.412 Y202.8 Z14.831
N2907 X107.692 Y202.712 Z14.798
N2908 X108.971 Y202.609 Z14.764
N2909 X110.249 Y202.489 Z14.73
N2910 X111.525 Y202.353 Z14.697
N2911 X112.799 Y202.202 Z14.663
N2912 X114.071 Y202.034 Z14.629
N2913 X115.341 Y201.851 Z14.596
N2914 X116.609 Y201.652 Z14.562
N2915 X117.874 Y201.437 Z14.528
N2916 X119.136 Y201.207 Z14.494
N2917 X120.396 Y200.96 Z14.461
N2918 X121.652 Y200.699 Z14.427
N2919 X122.905 Y200.421 Z14.393
N2920 X124.154 Y200.128 Z14.36
N2921 X125.4 Y199.819 Z14.326
N2922 X126.641 Y199.495 Z14.292
N2923 X127.879 Y199.155 Z14.258
N2924 X129.112 Y198.8 Z14.225
N2925 X130.34 Y198.43 Z14.191
N2926 X131.564 Y198.044 Z14.157
N2927 X132.783 Y197.644 Z14.124
N2928 X133.997 Y197.228 Z14.09
N2929 X135.206 Y196.796 Z14.056
N2930 X136.409 Y196.35 Z14.022
N2931 X137.606 Y195.889 Z13.989
N2932 X138.798 Y195.413 Z13.955
N2933 X139.984 Y194.923 Z13.921
N2934 X141.163 Y194.417 Z13.888
N2935 X142.336 Y193.897 Z13.854
N2936 X143.503 Y193.362 Z13.82
N2937 X144.662 Y192.813 Z13.787
N2938 X145.815 Y192.249 Z13.753
N2939 X146.961 Y191.672 Z13.719
N2940 X148.099 Y191.079 Z13.685
N2941 X149.23 Y190.473 Z13.652
N2942 X150.354 Y189.853 Z13.618
N2943 X151.469 Y189.218 Z13.584
N2944 X152.577 Y188.57 Z13.551
N2945 X153.676 Y187.908 Z13.517
N2946 X154.767 Y187.233 Z13.483
N2947 X155.849 Y186.544 Z13.449
N2948 X156.923 Y185.841 Z13.416
N2949 X157.988 Y185.126 Z13.382
N2950 X159.044 Y184.397 Z13.348
N2951 X160.091 Y183.654 Z13.315
N2952 X161.129 Y182.899 Z13.281
N2953 X162.157 Y182.131 Z13.247
N2954 X163.175 Y181.351 Z13.213
N2955 X164.184 Y180.557 Z13.18
N2956 X165.182 Y179.751 Z13.146
N2957 X166.171 Y178.933 Z13.112
N2958 X167.149 Y178.103 Z13.079
N2959 X168.117 Y177.26 Z13.045
N2960 X169.074 Y176.405 Z13.011
N2961 X170.02 Y175.539 Z12.978
N2962 X170.956 Y174.661 Z12.944
N2963 X171.881 Y173.771 Z12.91
N2964 X172.794 Y172.87 Z12.876
N2965 X173.696 Y171.957 Z12.843
N2966 X174.587 Y171.034 Z12.809
N2967 X175.466 Y170.099 Z12.775
N2968 X176.334 Y169.153 Z12.742
N2969 X177.189 Y168.197 Z12.708
N2970 X178.033 Y167.23 Z12.674
N2971 X178.864 Y166.253 Z12.64
N2972 X179.684 Y165.265 Z12.607
N2973 X180.491 Y164.267 Z12.573
N2974 X181.285 Y163.259 Z12.539
N2975 X182.067 Y162.242 Z12.506
N2976 X182.836 Y161.215 Z12.472
N2977 X183.592 Y160.178 Z12.438
N2978 X184.335 Y159.132 Z12.404
N2979 X185.065 Y158.077 Z12.371
N2980 X185.782 Y157.012 Z12.337
N2981 X186.486 Y155.939 Z12.303
N2982 X187.176 Y154.858 Z12.27
N2983 X187.853 Y153.767 Z12.236
N2984 X188.516 Y152.669 Z12.202
N2985 X189.165 Y151.562 Z12.169
N2986 X189.8 Y150.447 Z12.135
N2987 X190.422 Y149.324 Z12.101
N2988 X191.029 Y148.194 Z12.067
N2989 X191.623 Y147.056 Z12.034
N2990 X192.202 Y145.911 Z12
N2991 X192.766 Y144.76 F2760
N2992 X193.316 Y143.603
N2993 X193.851 Y142.438
N2994 X194.372 Y141.267
N2995 X194.878 Y140.09
N2996 X195.369 Y138.907
N2997 X195.846 Y137.717
N2998 X196.308 Y136.522
N2999 X196.755 Y135.321
N3000 X197.187 Y134.114
N3001 X197.603 Y132.902
N3002 X198.005 Y131.685
N3003 X198.392 Y130.464
N3004 X198.763 Y129.237
N3005 X199.119 Y128.006
N3006 X199.46 Y126.771
N3007 X199.786 Y125.531
N3008 X200.096 Y124.288
N3009 X200.39 Y123.04
N3010 X200.669 Y121.79
N3011 X200.932 Y120.535
N3012 X201.18 Y119.278
N3013 X201.412 Y118.018
N3014 X201.628 Y116.755
N3015 X201.829 Y115.489
N3016 X202.014 Y114.221
N3017 X202.183 Y112.95
N3018 X202.336 Y111.678
N3019 X202.473 Y110.404
N3020 X202.595 Y109.128
N3021 X202.7 Y107.851
N3022 X202.79 Y106.573
N3023 X202.864 Y105.293
N3024 X202.922 Y104.013
N3025 X202.964 Y102.732
N3026 X202.99 Y101.451
N3027 X203 Y100.17
N3028 X202.994 Y98.888
N3029 X202.972 Y97.607
N3030 X202.934 Y96.326
N3031 X202.881 Y95.045
N3032 X202.811 Y93.766
N3033 X202.726 Y92.487
N3034 X202.624 Y91.21
N3035 X202.507 Y89.934
N3036 X202.374 Y88.659
N3037 X202.225 Y87.386
N3038 X202.06 Y86.115
N3039 X201.879 Y84.847
N3040 X201.683 Y83.58
N3041 X201.471 Y82.316
N3042 X201.243 Y81.055
N3043 X200.999 Y79.797
N3044 X200.74 Y78.542
N3045 X200.465 Y77.29
N3046 X200.175 Y76.042
N3047 X199.869 Y74.798
N3048 X199.548 Y73.557
N3049 X199.211 Y72.321
N3050 X198.859 Y71.088
N3051 X198.492 Y69.861
N3052 X198.109 Y68.638
N3053 X197.711 Y67.419
N3054 X197.298 Y66.206
N3055 X196.87 Y64.998
N3056 X196.427 Y63.796
N3057 X195.97 Y62.599
N3058 X195.497 Y61.408
N3059 X195.009 Y60.223
N3060 X194.507 Y59.044
N3061 X193.99 Y57.871
N3062 X193.459 Y56.705
N3063 X192.913 Y55.545
N3064 X192.353 Y54.393
N3065 X191.778 Y53.247
N3066 X191.189 Y52.109
N3067 X190.586 Y50.978
N3068 X189.969 Y49.855
N3069 X189.338 Y48.74
N3070 X188.694 Y47.632
N3071 X188.035 Y46.533
N3072 X187.363 Y45.441
N3073 X186.678 Y44.359
N3074 X185.979 Y43.285
N3075 X185.267 Y42.219
N3076 X184.541 Y41.163
N3077 X183.802 Y40.116
N3078 X183.051 Y39.078
N3079 X182.287 Y38.049
N3080 X181.509 Y37.03
N3081 X180.72 Y36.021
N3082 X179.917 Y35.021
N3083 X179.103 Y34.032
N3084 X178.276 Y33.053
N3085 X177.437 Y32.084
N3086 X176.586 Y31.126
N3087 X175.723 Y30.179
N3088 X174.849 Y29.242
N3089 X173.962 Y28.316
N3090 X173.065 Y27.402
N3091 X172.156 Y26.498
N3092 X171.236 Y25.606
N3093 X170.305 Y24.726
N3094 X169.363 Y23.857
N3095 X168.41 Y23
N3096 X167.447 Y22.154
N3097 X166.473 Y21.321
N3098 X165.489 Y20.5
N3099 X164.495 Y19.692
N3100 X163.491 Y18.896
N3101 X162.477 Y18.112
N3102 X161.453 Y17.341
N3103 X160.42 Y16.583
N3104 X159.377 Y15.837
N3105 X158.326 Y15.105
N3106 X157.265 Y14.386
N3107 X156.195 Y13.68
N3108 X155.117 Y12.988
N3109 X154.03 Y12.309
N3110 X152.935 Y11.643
N3111 X151.832 Y10.992
N3112 X150.72 Y10.354
N3113 X149.601 Y9.73
N3114 X148.474 Y9.119
N3115 X147.339 Y8.523
N3116 X146.198 Y7.941
N3117 X145.049 Y7.374
N3118 X143.893 Y6.82
N3119 X142.73 Y6.282
N3120 X141.561 Y5.757
N3121 X140.385 Y5.247
N3122 X139.203 Y4.752
N3123 X138.015 Y4.272
N3124 X136.821 Y3.806
N3125 X135.621 Y3.356
N3126 X134.416 Y2.92
N3127 X133.206 Y2.499
N3128 X131.99 Y2.094
N3129 X130.769 Y1.703
N3130 X129.544 Y1.328
N3131 X128.314 Y0.968
N3132 X127.08 Y0.624
N3133 X125.841 Y0.294
N3134 X124.599 Y-0.019
N3135 X123.353 Y-0.318
N3136 X122.103 Y-0.601
N3137 X120.849 Y-0.868
N3138 X119.593 Y-1.119
N3139 X118.333 Y-1.355
N3140 X117.071 Y-1.576
N3141 X115.806 Y-1.78
N3142 X114.538 Y-1.969
N3143 X113.268 Y-2.142
N3144 X111.996 Y-2.299
N3145 X110.723 Y-2.44
N3146 X109.447 Y-2.566
N3147 X108.171 Y-2.675
N3148 X106.892 Y-2.769
N3149 X105.613 Y-2.847
N3150 X104.333 Y-2.909
N3151 X103.053 Y-2.955
N3152 X101.771 Y-2.985
N3153 X100.49 Y-2.999
N3154 X99.208 Y-2.997
N3155 X97.927 Y-2.979
N3156 X96.646 Y-2.945
N3157 X95.365 Y-2.896
N3158 X94.086 Y-2.83
N3159 X92.807 Y-2.749
N3160 X91.529 Y-2.651
N3161 X90.252 Y-2.538
N3162 X88.977 Y-2.409
N3163 X87.704 Y-2.263
N3164 X86.433 Y-2.103
N3165 X85.164 Y-1.926
N3166 X83.897 Y-1.733
N3167 X82.632 Y-1.525
N3168 X81.37 Y-1.301
N3169 X80.111 Y-1.062
N3170 X78.856 Y-0.806
N3171 X77.603 Y-0.535
N3172 X76.354 Y-0.249
N3173 X75.108 Y0.053
N3174 X73.867 Y0.37
N3175 X72.629 Y0.703
N3176 X71.396 Y1.051
N3177 X70.167 Y1.415
N3178 X68.943 Y1.794
N3179 X67.724 Y2.188
N3180 X66.509 Y2.597
N3181 X65.3 Y3.021
N3182 X64.096 Y3.46
N3183 X62.898 Y3.915
N3184 X61.705 Y4.384
N3185 X60.518 Y4.867
N3186 X59.338 Y5.366
N3187 X58.164 Y5.879
N3188 X56.996 Y6.407
N3189 X55.835 Y6.949
N3190 X54.68 Y7.506
N3191 X53.533 Y8.077
N3192 X52.393 Y8.662
N3193 X51.26 Y9.262
N3194 X50.135 Y9.875
N3195 X49.018 Y10.502
N3196 X47.908 Y11.144
N3197 X46.807 Y11.799
N3198 X45.713 Y12.467
N3199 X44.629 Y13.15
N3200 X43.552 Y13.845
N3201 X42.485 Y14.554
N3202 X41.426 Y15.276
N3203 X40.377 Y16.012
N3204 X39.336 Y16.76
N3205 X38.305 Y17.521
N3206 X37.284 Y18.295
N3207 X36.272 Y19.082
N3208 X35.27 Y19.881
N3209 X34.279 Y20.692
N3210 X33.297 Y21.516
N3211 X32.326 Y22.352
N3212 X31.365 Y23.2
N3213 X30.415 Y24.06
N3214 X29.475 Y24.932
N3215 X28.547 Y25.815
N3216 X27.629 Y26.71
N3217 X26.723 Y27.616
N3218 X25.828 Y28.533
N3219 X24.945 Y29.461
N3220 X24.073 Y30.401
N3221 X23.213 Y31.351
N3222 X22.365 Y32.311
N3223 X21.528 Y33.283
N3224 X20.704 Y34.264
N3225 X19.893 Y35.256
N3226 X19.093 Y36.257
N3227 X18.307 Y37.269
N3228 X17.532 Y38.29
N3229 X16.771 Y39.321
N3230 X16.023 Y40.361
N3231 X15.287 Y41.411
N3232 X14.565 Y42.469
N3233 X13.856 Y43.537
N3234 X13.16 Y44.613
N3235 X12.477 Y45.697
N3236 X11.808 Y46.791
N3237 X11.153 Y47.892
N3238 X10.512 Y49.001
N3239 X9.884 Y50.119
N3240 X9.271 Y51.244
N3241 X8.671 Y52.376
N3242 X8.086 Y53.516
N3243 X7.514 Y54.663
N3244 X6.957 Y55.818
N3245 X6.415 Y56.979
N3246 X5.887 Y58.146
N3247 X5.374 Y59.32
N3248 X4.875 Y60.501
N3249 X4.391 Y61.687
N3250 X3.921 Y62.88
N3251 X3.467 Y64.078
N3252 X3.028 Y65.282
N3253 X2.603 Y66.491
N3254 X2.194 Y67.706
N3255 X1.799 Y68.925
N3256 X1.42 Y70.149
N3257 X1.057 Y71.378
N3258 X0.708 Y72.611
N3259 X0.375 Y73.849
N3260 X0.058 Y75.09
N3261 X-0.245 Y76.336
N3262 X-0.531 Y77.585
N3263 X-0.802 Y78.837
N3264 X-1.058 Y80.093
N3265 X-1.298 Y81.352
N3266 X-1.522 Y82.613
N3267 X-1.73 Y83.878
N3268 X-1.923 Y85.145
N3269 X-2.1 Y86.414
N3270 X-2.261 Y87.685
N3271 X-2.406 Y88.959
N3272 X-2.536 Y90.234
N3273 X-2.65 Y91.51
N3274 X-2.747 Y92.788
N3275 X-2.829 Y94.067
N3276 X-2.895 Y95.347
N3277 X-2.945 Y96.627
N3278 X-2.979 Y97.908
N3279 X-2.997 Y99.19
N3280 X-2.999 Y100.471
N3281 X-2.985 Y101.753
N3282 X-2.955 Y103.034
N3283 X-2.91 Y104.314
N3284 X-2.848 Y105.594
N3285 X-2.77 Y106.874
N3286 X-2.677 Y108.152
N3287 X-2.568 Y109.429
N3288 X-2.442 Y110.704
N3289 X-2.301 Y111.978
N3290 X-2.144 Y113.25
N3291 X-1.972 Y114.519
N3292 X-1.783 Y115.787
N3293 X-1.579 Y117.052
N3294 X-1.359 Y118.315
N3295 X-1.123 Y119.574
N3296 X-0.872 Y120.831
N3297 X-0.605 Y122.084
N3298 X-0.322 Y123.334
N3299 X-0.024 Y124.581
N3300 X0.29 Y125.823
N3301 X0.619 Y127.062
N3302 X0.963 Y128.296
N3303 X1.323 Y129.526
N3304 X1.698 Y130.751
N3305 X2.088 Y131.972
N3306 X2.493 Y133.188
N3307 X2.914 Y134.398
N3308 X3.349 Y135.604
N3309 X3.8 Y136.803
N3310 X4.265 Y137.997
N3311 X4.745 Y139.186
N3312 X5.24 Y140.368
N3313 X5.75 Y141.544
N3314 X6.274 Y142.713
N3315 X6.812 Y143.876
N3316 X7.366 Y145.032
N3317 X7.933 Y146.181
N3318 X8.515 Y147.323
N3319 X9.111 Y148.457
N3320 X9.72 Y149.584
N3321 X10.344 Y150.704
N3322 X10.982 Y151.815
N3323 X11.634 Y152.919
N3324 X12.299 Y154.014
N3325 X12.978 Y155.101
N3326 X13.67 Y156.179
N3327 X14.376 Y157.249
N3328 X15.095 Y158.31
N3329 X15.827 Y159.362
N3330 X16.572 Y160.405
N3331 X17.33 Y161.438
N3332 X18.1 Y162.462
N3333 X18.884 Y163.476
N3334 X19.68 Y164.48
N3335 X20.488 Y165.474
N3336 X21.309 Y166.459
N3337 X22.142 Y167.433
N3338 X22.987 Y168.396
N3339 X23.844 Y169.349
N3340 X24.713 Y170.291
N3341 X25.593 Y171.222
N3342 X26.485 Y172.142
N3343 X27.388 Y173.052
N3344 X28.303 Y173.949
N3345 X29.228 Y174.836
N3346 X30.165 Y175.71
N3347 X31.112 Y176.573
N3348 X32.07 Y177.424
N3349 X33.039 Y178.264
N3350 X34.018 Y179.091
N3351 X35.007 Y179.905
N3352 X36.006 Y180.708
N3353 X37.015 Y181.498
N3354 X38.034 Y182.275
N3355 X39.062 Y183.04
N3356 X40.1 Y183.792
N3357 X41.147 Y184.53
N3358 X42.204 Y185.256
N3359 X43.269 Y185.968
N3360 X44.343 Y186.668
N3361 X45.425 Y187.353
N3362 X46.516 Y188.026
N3363 X47.616 Y188.684
N3364 X48.723 Y189.329
N3365 X49.839 Y189.96
N3366 X50.962 Y190.577
N3367 X52.092 Y191.18
N3368 X53.231 Y191.769
N3369 X54.376 Y192.344
N3370 X55.528 Y192.905
N3371 X56.688 Y193.451
N3372 X57.854 Y193.982
N3373 X59.026 Y194.5
N3374 X60.205 Y195.002
N3375 X61.39 Y195.49
N3376 X62.581 Y195.963
N3377 X63.778 Y196.421
N3378 X64.981 Y196.864
N3379 X66.188 Y197.292
N3380 X67.402 Y197.705
N3381 X68.62 Y198.103
N3382 X69.843 Y198.486
N3383 X71.07 Y198.854
N3384 X72.302 Y199.206
N3385 X73.539 Y199.543
N3386 X74.779 Y199.865
N3387 X76.024 Y200.171
N3388 X77.272 Y200.461
N3389 X78.524 Y200.736
N3390 X79.779 Y200.996
N3391 X81.037 Y201.239
N3392 X82.298 Y201.467
N3393 X83.562 Y201.68
N3394 X84.828 Y201.876
N3395 X86.097 Y202.057
N3396 X87.367 Y202.222
N3397 X88.64 Y202.372
N3398 X89.915 Y202.505
N3399 X91.191 Y202.623
N3400 X92.468 Y202.724
N3401 X93.747 Y202.81
N3402 X95.027 Y202.88
N3403 X96.307 Y202.934
N3404 X97.588 Y202.972
N3405 X98.869 Y202.994
N3406 X100.151 Y203
N3407 X101.432 Y202.99
N3408 X102.713 Y202.964
N3409 X103.994 Y202.923
N3410 X105.275 Y202.865
N3411 X106.554 Y202.791
N3412 X107.832 Y202.702
N3413 X109.109 Y202.596
N3414 X110.385 Y202.475
N3415 X111.659 Y202.338
N3416 X112.932 Y202.185
N3417 X114.202 Y202.016
N3418 X115.47 Y201.832
N3419 X116.736 Y201.631
N3420 X117.999 Y201.415
N3421 X119.26 Y201.183
N3422 X120.517 Y200.936
N3423 X121.771 Y200.673
N3424 X123.022 Y200.394
N3425 X124.269 Y200.1
N3426 X125.513 Y199.79
N3427 X126.752 Y199.465
N3428 X127.988 Y199.125
N3429 X129.219 Y198.769
N3430 X130.446 Y198.398
N3431 X131.667 Y198.011
N3432 X132.884 Y197.61
N3433 X134.096 Y197.193
N3434 X135.303 Y196.761
N3435 X136.504 Y196.314
N3436 X137.699 Y195.853
N3437 X138.889 Y195.376
N3438 X140.073 Y194.885
N3439 X141.25 Y194.379
N3440 X142.421 Y193.859
N3441 X143.586 Y193.324
N3442 X144.743 Y192.774
N3443 X145.894 Y192.21
N3444 X147.038 Y191.632
N3445 X148.174 Y191.04
N3446 X149.303 Y190.433
N3447 X150.425 Y189.813
N3448 X151.538 Y189.179
N3449 X152.644 Y188.531
N3450 X153.741 Y187.869
N3451 X154.83 Y187.193
N3452 X155.911 Y186.504
N3453 X156.983 Y185.802
N3454 X158.046 Y185.086
N3455 X159.1 Y184.358
N3456 X160.145 Y183.616
N3457 X161.18 Y182.861
N3458 X162.207 Y182.093
N3459 X163.223 Y181.313
N3460 X164.23 Y180.52
N3461 X165.227 Y179.715
N3462 X166.214 Y178.897
N3463 X167.19 Y178.067
N3464 X168.156 Y177.225
N3465 X169.112 Y176.371
N3466 X170.056 Y175.506
N3467 X170.99 Y174.628
N3468 X171.913 Y173.739
N3469 X172.825 Y172.839
N3470 X173.726 Y171.927
N3471 X174.615 Y171.004
N3472 X175.493 Y170.07
N3473 X176.359 Y169.126
N3474 X177.213 Y168.17
N3475 X178.055 Y167.204
N3476 X178.885 Y166.228
N3477 X179.703 Y165.241
N3478 X180.508 Y164.245
N3479 X181.302 Y163.238
N3480 X182.082 Y162.222
N3481 X182.85 Y161.196
N3482 X183.605 Y160.16
N3483 X184.347 Y159.115
N3484 X185.076 Y158.061
N3485 X185.792 Y156.998
N3486 X186.494 Y155.926
N3487 X187.183 Y154.846
N3488 X187.859 Y153.757
N3489 X188.521 Y152.66
N3490 X189.169 Y151.554
N3491 X189.804 Y150.441
N3492 X190.424 Y149.32
N3493 X191.031 Y148.191
N3494 X191.623 Y147.055
N3495 X192.202 Y145.911
N3496 X192.767 Y144.759 Z11.966 F2500
N3497 X193.317 Y143.6 Z11.933
N3498 X193.853 Y142.434 Z11.899
N3499 X194.374 Y141.261 Z11.865
N3500 X194.881 Y140.082 Z11.831
N3501 X195.373 Y138.897 Z11.798
N3502 X195.85 Y137.706 Z11.764
N3503 X196.313 Y136.509 Z11.73
N3504 X196.76 Y135.306 Z11.697
N3505 X197.192 Y134.098 Z11.663
N3506 X197.609 Y132.885 Z11.629
N3507 X198.012 Y131.666 Z11.596
N3508 X198.398 Y130.442 Z11.562
N3509 X198.77 Y129.214 Z11.528
N3510 X199.126 Y127.982 Z11.494
N3511 X199.467 Y126.744 Z11.461
N3512 X199.793 Y125.503 Z11.427
N3513 X200.103 Y124.258 Z11.393
N3514 X200.397 Y123.009 Z11.36
N3515 X200.676 Y121.756 Z11.326
N3516 X200.939 Y120.501 Z11.292
N3517 X201.187 Y119.241 Z11.258
N3518 X201.419 Y117.979 Z11.225
N3519 X201.635 Y116.714 Z11.191
N3520 X201.835 Y115.447 Z11.157
N3521 X202.02 Y114.177 Z11.124
N3522 X202.188 Y112.905 Z11.09
N3523 X202.341 Y111.631 Z11.056
N3524 X202.478 Y110.355 Z11.022
N3525 X202.599 Y109.078 Z10.989
N3526 X202.704 Y107.799 Z10.955
N3527 X202.794 Y106.519 Z10.921
N3528 X202.867 Y105.238 Z10.888
N3529 X202.924 Y103.956 Z10.854
N3530 X202.965 Y102.673 Z10.82
N3531 X202.991 Y101.39 Z10.787
N3532 X203 Y100.107 Z10.753
N3533 X202.993 Y98.824 Z10.719
N3534 X202.971 Y97.541 Z10.685
N3535 X202.932 Y96.258 Z10.652
N3536 X202.877 Y94.976 Z10.618
N3537 X202.807 Y93.695 Z10.584
N3538 X202.72 Y92.415 Z10.551
N3539 X202.618 Y91.135 Z10.517
N3540 X202.499 Y89.858 Z10.483
N3541 X202.365 Y88.582 Z10.449
N3542 X202.215 Y87.307 Z10.416
N3543 X202.049 Y86.035 Z10.382
N3544 X201.867 Y84.764 Z10.348
N3545 X201.669 Y83.497 Z10.315
N3546 X201.456 Y82.231 Z10.281
N3547 X201.227 Y80.969 Z10.247
N3548 X200.982 Y79.709 Z10.213
N3549 X200.721 Y78.453 Z10.18
N3550 X200.445 Y77.2 Z10.146
N3551 X200.153 Y75.95 Z10.112
N3552 X199.845 Y74.704 Z10.079
N3553 X199.523 Y73.462 Z10.045
N3554 X199.184 Y72.224 Z10.011
N3555 X198.831 Y70.991 Z9.978
N3556 X198.461 Y69.762 Z9.944
N3557 X198.077 Y68.538 Z9.91
N3558 X197.678 Y67.318 Z9.876
N3559 X197.263 Y66.104 Z9.843
N3560 X196.833 Y64.895 Z9.809
N3561 X196.388 Y63.691 Z9.775
N3562 X195.928 Y62.493 Z9.742
N3563 X195.454 Y61.301 Z9.708
N3564 X194.964 Y60.115 Z9.674
N3565 X194.46 Y58.935 Z9.64
N3566 X193.941 Y57.761 Z9.607
N3567 X193.407 Y56.594 Z9.573
N3568 X192.859 Y55.434 Z9.539
N3569 X192.297 Y54.28 Z9.506
N3570 X191.72 Y53.134 Z9.472
N3571 X191.129 Y51.995 Z9.438
N3572 X190.524 Y50.864 Z9.404
N3573 X189.905 Y49.74 Z9.371
N3574 X189.272 Y48.624 Z9.337
N3575 X188.625 Y47.515 Z9.303
N3576 X187.964 Y46.415 Z9.27
N3577 X187.29 Y45.324 Z9.236
N3578 X186.602 Y44.24 Z9.202
N3579 X185.9 Y43.166 Z9.169
N3580 X185.186 Y42.1 Z9.135
N3581 X184.458 Y41.043 Z9.101
N3582 X183.717 Y39.996 Z9.067
N3583 X182.963 Y38.957 Z9.034
N3584 X182.196 Y37.929 Z9
N3585 X181.417 Y36.911 F2760
N3586 X180.626 Y35.903
N3587 X179.822 Y34.905
N3588 X179.006 Y33.916
N3589 X178.178 Y32.939
N3590 X177.337 Y31.971
N3591 X176.485 Y31.014
N3592 X175.621 Y30.068
N3593 X174.745 Y29.133
N3594 X173.857 Y28.208
N3595 X172.958 Y27.295
N3596 X172.048 Y26.393
N3597 X171.127 Y25.502
N3598 X170.195 Y24.623
N3599 X169.251 Y23.755
N3600 X168.297 Y22.9
N3601 X167.333 Y22.056
N3602 X166.358 Y21.224
N3603 X165.373 Y20.405
N3604 X164.377 Y19.597
N3605 X163.372 Y18.803
N3606 X162.357 Y18.021
N3607 X161.332 Y17.251
N3608 X160.298 Y16.494
N3609 X159.254 Y15.751
N3610 X158.201 Y15.02
N3611 X157.139 Y14.302
N3612 X156.069 Y13.598
N3613 X154.99 Y12.907
N3614 X153.902 Y12.23
N3615 X152.806 Y11.566
N3616 X151.701 Y10.916
N3617 X150.589 Y10.279
N3618 X149.469 Y9.657
N3619 X148.341 Y9.049
N3620 X147.205 Y8.454
N3621 X146.063 Y7.874
N3622 X144.913 Y7.308
N3623 X143.756 Y6.756
N3624 X142.593 Y6.219
N3625 X141.423 Y5.696
N3626 X140.246 Y5.188
N3627 X139.064 Y4.695
N3628 X137.875 Y4.216
N3629 X136.68 Y3.753
N3630 X135.48 Y3.304
N3631 X134.274 Y2.87
N3632 X133.063 Y2.451
N3633 X131.847 Y2.047
N3634 X130.626 Y1.658
N3635 X129.4 Y1.285
N3636 X128.169 Y0.927
N3637 X126.934 Y0.584
N3638 X125.695 Y0.257
N3639 X124.452 Y-0.055
N3640 X123.206 Y-0.352
N3641 X121.955 Y-0.633
N3642 X120.702 Y-0.898
N3643 X119.445 Y-1.148
N3644 X118.185 Y-1.382
N3645 X116.922 Y-1.6
N3646 X115.657 Y-1.803
N3647 X114.389 Y-1.99
N3648 X113.119 Y-2.161
N3649 X111.847 Y-2.316
N3650 X110.573 Y-2.456
N3651 X109.297 Y-2.58
N3652 X108.02 Y-2.687
N3653 X106.742 Y-2.779
N3654 X105.463 Y-2.855
N3655 X104.183 Y-2.915
N3656 X102.902 Y-2.959
N3657 X101.621 Y-2.987
N3658 X100.339 Y-2.999
N3659 X99.058 Y-2.996
N3660 X97.776 Y-2.976
N3661 X96.495 Y-2.94
N3662 X95.215 Y-2.889
N3663 X93.935 Y-2.821
N3664 X92.656 Y-2.738
N3665 X91.379 Y-2.639
N3666 X90.102 Y-2.523
N3667 X88.828 Y-2.392
N3668 X87.554 Y-2.245
N3669 X86.283 Y-2.083
N3670 X85.014 Y-1.904
N3671 X83.748 Y-1.71
N3672 X82.483 Y-1.5
N3673 X81.222 Y-1.274
N3674 X79.963 Y-1.032
N3675 X78.708 Y-0.775
N3676 X77.456 Y-0.503
N3677 X76.207 Y-0.214
N3678 X74.962 Y0.09
N3679 X73.721 Y0.409
N3680 X72.484 Y0.743
N3681 X71.251 Y1.093
N3682 X70.023 Y1.459
N3683 X68.799 Y1.839
N3684 X67.58 Y2.235
N3685 X66.367 Y2.646
N3686 X65.158 Y3.072
N3687 X63.955 Y3.513
N3688 X62.757 Y3.969
N3689 X61.565 Y4.44
N3690 X60.379 Y4.925
N3691 X59.199 Y5.426
N3692 X58.026 Y5.941
N3693 X56.859 Y6.47
N3694 X55.698 Y7.014
N3695 X54.545 Y7.573
N3696 X53.399 Y8.145
N3697 X52.259 Y8.732
N3698 X51.128 Y9.333
N3699 X50.003 Y9.948
N3700 X48.887 Y10.577
N3701 X47.778 Y11.22
N3702 X46.678 Y11.877
N3703 X45.585 Y12.547
N3704 X44.501 Y13.231
N3705 X43.426 Y13.928
N3706 X42.36 Y14.638
N3707 X41.302 Y15.362
N3708 X40.254 Y16.099
N3709 X39.214 Y16.849
N3710 X38.185 Y17.612
N3711 X37.164 Y18.387
N3712 X36.154 Y19.175
N3713 X35.153 Y19.976
N3714 X34.163 Y20.789
N3715 X33.182 Y21.614
N3716 X32.212 Y22.451
N3717 X31.252 Y23.301
N3718 X30.304 Y24.162
N3719 X29.365 Y25.035
N3720 X28.438 Y25.92
N3721 X27.522 Y26.816
N3722 X26.617 Y27.723
N3723 X25.724 Y28.642
N3724 X24.841 Y29.571
N3725 X23.971 Y30.512
N3726 X23.112 Y31.463
N3727 X22.266 Y32.425
N3728 X21.431 Y33.398
N3729 X20.608 Y34.38
N3730 X19.798 Y35.373
N3731 X19 Y36.376
N3732 X18.215 Y37.389
N3733 X17.442 Y38.411
N3734 X16.682 Y39.443
N3735 X15.935 Y40.484
N3736 X15.201 Y41.535
N3737 X14.481 Y42.594
N3738 X13.773 Y43.663
N3739 X13.079 Y44.74
N3740 X12.398 Y45.826
N3741 X11.731 Y46.92
N3742 X11.077 Y48.022
N3743 X10.437 Y49.132
N3744 X9.811 Y50.251
N3745 X9.199 Y51.377
N3746 X8.601 Y52.51
N3747 X8.018 Y53.651
N3748 X7.448 Y54.799
N3749 X6.893 Y55.954
N3750 X6.352 Y57.116
N3751 X5.826 Y58.284
N3752 X5.314 Y59.459
N3753 X4.817 Y60.64
N3754 X4.335 Y61.827
N3755 X3.867 Y63.021
N3756 X3.414 Y64.22
N3757 X2.977 Y65.424
N3758 X2.554 Y66.634
N3759 X2.147 Y67.849
N3760 X1.754 Y69.069
N3761 X1.377 Y70.293
N3762 X1.015 Y71.523
N3763 X0.668 Y72.757
N3764 X0.337 Y73.995
N3765 X0.021 Y75.236
N3766 X-0.279 Y76.482
N3767 X-0.564 Y77.732
N3768 X-0.833 Y78.985
N3769 X-1.087 Y80.241
N3770 X-1.325 Y81.5
N3771 X-1.547 Y82.762
N3772 X-1.754 Y84.027
N3773 X-1.945 Y85.294
N3774 X-2.12 Y86.564
N3775 X-2.279 Y87.835
N3776 X-2.423 Y89.109
N3777 X-2.55 Y90.384
N3778 X-2.662 Y91.66
N3779 X-2.758 Y92.938
N3780 X-2.838 Y94.217
N3781 X-2.902 Y95.497
N3782 X-2.95 Y96.778
N3783 X-2.982 Y98.059
N3784 X-2.998 Y99.34
N3785 Y100.622
N3786 X-2.982 Y101.903
N3787 X-2.951 Y103.184
N3788 X-2.903 Y104.465
N3789 X-2.84 Y105.745
N3790 X-2.76 Y107.024
N3791 X-2.665 Y108.302
N3792 X-2.554 Y109.579
N3793 X-2.427 Y110.854
N3794 X-2.284 Y112.127
N3795 X-2.125 Y113.399
N3796 X-1.95 Y114.669
N3797 X-1.76 Y115.936
N3798 X-1.554 Y117.201
N3799 X-1.332 Y118.463
N3800 X-1.094 Y119.722
N3801 X-0.841 Y120.978
N3802 X-0.572 Y122.231
N3803 X-0.288 Y123.481
N3804 X0.012 Y124.727
N3805 X0.327 Y125.969
N3806 X0.658 Y127.207
N3807 X1.004 Y128.441
N3808 X1.366 Y129.67
N3809 X1.743 Y130.895
N3810 X2.135 Y132.115
N3811 X2.542 Y133.331
N3812 X2.964 Y134.54
N3813 X3.401 Y135.745
N3814 X3.854 Y136.944
N3815 X4.321 Y138.138
N3816 X4.803 Y139.325
N3817 X5.299 Y140.506
N3818 X5.811 Y141.681
N3819 X6.336 Y142.85
N3820 X6.877 Y144.012
N3821 X7.432 Y145.167
N3822 X8.001 Y146.315
N3823 X8.584 Y147.457
N3824 X9.182 Y148.59
N3825 X9.793 Y149.716
N3826 X10.419 Y150.835
N3827 X11.058 Y151.945
N3828 X11.711 Y153.048
N3829 X12.378 Y154.142
N3830 X13.058 Y155.228
N3831 X13.752 Y156.306
N3832 X14.46 Y157.374
N3833 X15.18 Y158.434
N3834 X15.914 Y159.485
N3835 X16.66 Y160.527
N3836 X17.42 Y161.559
N3837 X18.192 Y162.582
N3838 X18.977 Y163.594
N3839 X19.774 Y164.598
N3840 X20.584 Y165.591
N3841 X21.407 Y166.574
N3842 X22.241 Y167.546
N3843 X23.087 Y168.509
N3844 X23.946 Y169.46
N3845 X24.816 Y170.401
N3846 X25.697 Y171.331
N3847 X26.591 Y172.25
N3848 X27.495 Y173.158
N3849 X28.411 Y174.054
N3850 X29.338 Y174.939
N3851 X30.276 Y175.812
N3852 X31.224 Y176.674
N3853 X32.184 Y177.524
N3854 X33.153 Y178.362
N3855 X34.134 Y179.187
N3856 X35.124 Y180.001
N3857 X36.124 Y180.802
N3858 X37.134 Y181.59
N3859 X38.154 Y182.366
N3860 X39.184 Y183.129
N3861 X40.223 Y183.879
N3862 X41.271 Y184.616
N3863 X42.329 Y185.34
N3864 X43.395 Y186.051
N3865 X44.47 Y186.749
N3866 X45.553 Y187.433
N3867 X46.645 Y188.104
N3868 X47.746 Y188.761
N3869 X48.854 Y189.404
N3870 X49.97 Y190.033
N3871 X51.094 Y190.649
N3872 X52.226 Y191.25
N3873 X53.365 Y191.838
N3874 X54.511 Y192.411
N3875 X55.664 Y192.97
N3876 X56.825 Y193.514
N3877 X57.991 Y194.044
N3878 X59.165 Y194.559
N3879 X60.344 Y195.06
N3880 X61.53 Y195.546
N3881 X62.722 Y196.017
N3882 X63.919 Y196.474
N3883 X65.122 Y196.915
N3884 X66.331 Y197.342
N3885 X67.545 Y197.753
N3886 X68.763 Y198.149
N3887 X69.987 Y198.53
N3888 X71.215 Y198.896
N3889 X72.448 Y199.247
N3890 X73.685 Y199.582
N3891 X74.926 Y199.901
N3892 X76.171 Y200.206
N3893 X77.419 Y200.494
N3894 X78.671 Y200.767
N3895 X79.926 Y201.025
N3896 X81.185 Y201.267
N3897 X82.446 Y201.493
N3898 X83.71 Y201.704
N3899 X84.977 Y201.899
N3900 X86.246 Y202.078
N3901 X87.517 Y202.241
N3902 X88.79 Y202.388
N3903 X90.065 Y202.52
N3904 X91.341 Y202.635
N3905 X92.619 Y202.735
N3906 X93.898 Y202.819
N3907 X95.177 Y202.887
N3908 X96.458 Y202.939
N3909 X97.739 Y202.975
N3910 X99.02 Y202.995
N3911 X100.302 Y203
N3912 X101.583 Y202.988
N3913 X102.864 Y202.96
N3914 X104.145 Y202.917
N3915 X105.425 Y202.857
N3916 X106.704 Y202.782
N3917 X107.983 Y202.69
N3918 X109.26 Y202.583
N3919 X110.535 Y202.46
N3920 X111.809 Y202.321
N3921 X113.081 Y202.166
N3922 X114.351 Y201.995
N3923 X115.619 Y201.809
N3924 X116.885 Y201.607
N3925 X118.148 Y201.389
N3926 X119.408 Y201.155
N3927 X120.665 Y200.906
N3928 X121.919 Y200.641
N3929 X123.169 Y200.36
N3930 X124.416 Y200.064
N3931 X125.659 Y199.753
N3932 X126.898 Y199.426
N3933 X128.133 Y199.083
N3934 X129.363 Y198.726
N3935 X130.59 Y198.353
N3936 X131.811 Y197.965
N3937 X133.027 Y197.561
N3938 X134.238 Y197.143
N3939 X135.444 Y196.709
N3940 X136.645 Y196.261
N3941 X137.84 Y195.797
N3942 X139.029 Y195.319
N3943 X140.212 Y194.826
N3944 X141.388 Y194.319
N3945 X142.559 Y193.796
N3946 X143.722 Y193.26
N3947 X144.879 Y192.708
N3948 X146.029 Y192.143
N3949 X147.172 Y191.563
N3950 X148.307 Y190.969
N3951 X149.436 Y190.361
N3952 X150.556 Y189.739
N3953 X151.669 Y189.103
N3954 X152.773 Y188.453
N3955 X153.87 Y187.79
N3956 X154.958 Y187.113
N3957 X156.037 Y186.422
N3958 X157.108 Y185.719
N3959 X158.17 Y185.001
N3960 X159.223 Y184.271
N3961 X160.267 Y183.528
N3962 X161.302 Y182.771
N3963 X162.327 Y182.002
N3964 X163.342 Y181.221
N3965 X164.348 Y180.426
N3966 X165.343 Y179.619
N3967 X166.329 Y178.8
N3968 X167.304 Y177.969
N3969 X168.269 Y177.125
N3970 X169.223 Y176.27
N3971 X170.167 Y175.403
N3972 X171.1 Y174.524
N3973 X172.021 Y173.634
N3974 X172.932 Y172.732
N3975 X173.831 Y171.819
N3976 X174.719 Y170.895
N3977 X175.595 Y169.96
N3978 X176.46 Y169.014
N3979 X177.313 Y168.057
N3980 X178.153 Y167.09
N3981 X178.982 Y166.112
N3982 X179.798 Y165.125
N3983 X180.602 Y164.127
N3984 X181.394 Y163.119
N3985 X182.173 Y162.101
N3986 X182.939 Y161.074
N3987 X183.693 Y160.038
N3988 X184.433 Y158.992
N3989 X185.161 Y157.937
N3990 X185.875 Y156.873
N3991 X186.576 Y155.8
N3992 X187.263 Y154.718
N3993 X187.937 Y153.628
N3994 X188.598 Y152.53
N3995 X189.245 Y151.424
N3996 X189.877 Y150.309
N3997 X190.496 Y149.187
N3998 X191.101 Y148.058
N3999 X191.692 Y146.92
N4000 X192.269 Y145.776
N4001 X192.831 Y144.625
N4002 X193.379 Y143.466
N4003 X193.913 Y142.301
N4004 X194.432 Y141.129
N4005 X194.936 Y139.951
N4006 X195.426 Y138.767
N4007 X195.901 Y137.577
N4008 X196.361 Y136.381
N4009 X196.806 Y135.179
N4010 X197.236 Y133.972
N4011 X197.652 Y132.759
N4012 X198.052 Y131.542
N4013 X198.436 Y130.319
N4014 X198.806 Y129.092
N4015 X199.16 Y127.861
N4016 X199.499 Y126.625
N4017 X199.823 Y125.385
N4018 X200.131 Y124.141
N4019 X200.424 Y122.893
N4020 X200.701 Y121.642
N4021 X200.962 Y120.388
N4022 X201.208 Y119.13
N4023 X201.438 Y117.869
N4024 X201.653 Y116.606
N4025 X201.851 Y115.34
N4026 X202.034 Y114.071
N4027 X202.201 Y112.801
N4028 X202.353 Y111.528
N4029 X202.488 Y110.254
N4030 X202.608 Y108.978
N4031 X202.712 Y107.701
N4032 X202.8 Y106.422
N4033 X202.872 Y105.143
N4034 X202.928 Y103.862
N4035 X202.968 Y102.582
N4036 X202.992 Y101.3
N4037 X203 Y100.019
N4038 X202.992 Y98.737
N4039 X202.969 Y97.456
N4040 X202.929 Y96.175
N4041 X202.873 Y94.895
N4042 X202.802 Y93.615
N4043 X202.715 Y92.337
N4044 X202.611 Y91.059
N4045 X202.492 Y89.784
N4046 X202.357 Y88.509
N4047 X202.206 Y87.237
N4048 X202.039 Y85.966
N4049 X201.857 Y84.697
N4050 X201.659 Y83.431
N4051 X201.445 Y82.168
N4052 X201.215 Y80.907
N4053 X200.97 Y79.649
N4054 X200.709 Y78.395
N4055 X200.432 Y77.143
N4056 X200.14 Y75.896
N4057 X199.832 Y74.652
N4058 X199.509 Y73.411
N4059 X199.171 Y72.175
N4060 X198.817 Y70.944
N4061 X198.448 Y69.717
N4062 X198.063 Y68.494
N4063 X197.664 Y67.276
N4064 X197.249 Y66.064
N4065 X196.819 Y64.857
N4066 X196.374 Y63.655
N4067 X195.915 Y62.458
N4068 X195.44 Y61.268
N4069 X194.951 Y60.084
N4070 X194.447 Y58.905
N4071 X193.928 Y57.733
N4072 X193.395 Y56.568
N4073 X192.848 Y55.409
N4074 X192.286 Y54.258
N4075 X191.709 Y53.113
N4076 X191.119 Y51.976
N4077 X190.514 Y50.846
N4078 X189.896 Y49.723
N4079 X189.263 Y48.609
N4080 X188.617 Y47.502
N4081 X187.957 Y46.404
N4082 X187.283 Y45.314
N4083 X186.596 Y44.232
N4084 X185.896 Y43.159
N4085 X185.182 Y42.094
N4086 X184.455 Y41.039
N4087 X183.715 Y39.993
N4088 X182.962 Y38.956
N4089 X182.196 Y37.929
N4090 X181.416 Y36.909 Z8.966 F2500
N4091 X180.624 Y35.9 Z8.933
N4092 X179.819 Y34.901 Z8.899
N4093 X179.002 Y33.911 Z8.865
N4094 X178.172 Y32.932 Z8.831
N4095 X177.331 Y31.964 Z8.798
N4096 X176.477 Y31.005 Z8.764
N4097 X175.612 Y30.058 Z8.73
N4098 X174.734 Y29.121 Z8.697
N4099 X173.846 Y28.196 Z8.663
N4100 X172.945 Y27.282 Z8.629
N4101 X172.034 Y26.378 Z8.596
N4102 X171.111 Y25.487 Z8.562
N4103 X170.177 Y24.607 Z8.528
N4104 X169.232 Y23.738 Z8.494
N4105 X168.277 Y22.882 Z8.461
N4106 X167.311 Y22.037 Z8.427
N4107 X166.334 Y21.204 Z8.393
N4108 X165.348 Y20.384 Z8.36
N4109 X164.351 Y19.576 Z8.326
N4110 X163.344 Y18.781 Z8.292
N4111 X162.327 Y17.998 Z8.258
N4112 X161.301 Y17.228 Z8.225
N4113 X160.265 Y16.471 Z8.191
N4114 X159.219 Y15.726 Z8.157
N4115 X158.165 Y14.995 Z8.124
N4116 X157.101 Y14.277 Z8.09
N4117 X156.029 Y13.572 Z8.056
N4118 X154.948 Y12.881 Z8.022
N4119 X153.858 Y12.203 Z7.989
N4120 X152.76 Y11.539 Z7.955
N4121 X151.654 Y10.889 Z7.921
N4122 X150.54 Y10.252 Z7.888
N4123 X149.418 Y9.629 Z7.854
N4124 X148.288 Y9.021 Z7.82
N4125 X147.151 Y8.426 Z7.787
N4126 X146.007 Y7.846 Z7.753
N4127 X144.855 Y7.28 Z7.719
N4128 X143.697 Y6.728 Z7.685
N4129 X142.531 Y6.191 Z7.652
N4130 X141.359 Y5.669 Z7.618
N4131 X140.181 Y5.161 Z7.584
N4132 X138.996 Y4.667 Z7.551
N4133 X137.805 Y4.189 Z7.517
N4134 X136.609 Y3.725 Z7.483
N4135 X135.407 Y3.277 Z7.449
