%
(Sapin 60 -A)
(T2  D=6 CR=0 - ZMIN=0.3 - flat end mill)
N1 G90
N2 G21

(2D Contour1)
N3 T2
N4 S20000 M3
N5 G0 X20.839 Y30.519
N6 Z33
N7 Z23
N8 G1 Z22 F1000
N9 Z20.5
N10 X0 Z16.07 F2500
N11 X-0.21 Y30.527 Z16.026
N12 X-0.418 Y30.55 Z15.981
N13 X-0.624 Y30.589 Z15.937
N14 X-0.827 Y30.644 Z15.892
N15 X-1.025 Y30.713 Z15.847
N16 X-1.217 Y30.797 Z15.803
N17 X-1.402 Y30.895 Z15.758
N18 X-1.58 Y31.007 Z15.714
N19 X-1.749 Y31.132 Z15.669
N20 X-1.907 Y31.269 Z15.624
N21 X-2.056 Y31.418 Z15.58
N22 X-2.192 Y31.577 Z15.535
N23 X-2.316 Y31.746 Z15.491
N24 X-2.428 Y31.924 Z15.446
N25 X-2.525 Y32.109 Z15.401
N26 X-2.609 Y32.302 Z15.357
N27 X-2.678 Y32.5 Z15.312
N28 X-2.731 Y32.703 Z15.268
N29 X-2.77 Y32.909 Z15.223
N30 X-2.793 Y33.118 Z15.178
N31 X-2.8 Y33.327 Z15.134
N32 X-2.791 Y33.537 Z15.089
N33 X-2.767 Y33.745 Z15.045
N34 X-2.728 Y33.951 Z15
N35 X-2.681 Y34.125 F2760
N36 X-2.624 Y34.295
N37 X-2.556 Y34.462
N38 X-2.478 Y34.623
N39 X-2.389 Y34.78
N40 X62.431 Y140.788
N41 X30.409
N42 X30.204 Y140.795
N43 X30.001 Y140.818
N44 X29.799 Y140.855
N45 X29.602 Y140.907
N46 X29.408 Y140.973
N47 X29.22 Y141.053
N48 X29.038 Y141.147
N49 X28.863 Y141.253
N50 X28.697 Y141.372
N51 X28.539 Y141.503
N52 X28.392 Y141.645
N53 X28.256 Y141.798
N54 X28.131 Y141.96
N55 X28.018 Y142.13
N56 X27.918 Y142.309
N57 X27.831 Y142.494
N58 X27.758 Y142.685
N59 X27.699 Y142.881
N60 X27.655 Y143.081
N61 X27.625 Y143.283
N62 X27.61 Y143.487
N63 Y143.692
N64 X27.626 Y143.896
N65 X27.655 Y144.099
N66 X27.7 Y144.298
N67 X27.759 Y144.494
N68 X27.832 Y144.685
N69 X27.919 Y144.87
N70 X28.02 Y145.049
N71 X91.762 Y249.294
N72 X58.545
N73 X58.34 Y249.301
N74 X58.137 Y249.324
N75 X57.936 Y249.361
N76 X57.738 Y249.413
N77 X57.544 Y249.479
N78 X57.356 Y249.559
N79 X57.174 Y249.653
N80 X56.999 Y249.759
N81 X56.833 Y249.878
N82 X56.676 Y250.009
N83 X56.528 Y250.151
N84 X56.392 Y250.304
N85 X56.267 Y250.466
N86 X56.154 Y250.636
N87 X56.054 Y250.815
N88 X55.967 Y251
N89 X55.894 Y251.191
N90 X55.835 Y251.387
N91 X55.791 Y251.587
N92 X55.761 Y251.789
N93 X55.747 Y251.993
N94 Y252.198
N95 X55.762 Y252.402
N96 X55.792 Y252.605
N97 X55.836 Y252.804
N98 X55.895 Y253
N99 X55.969 Y253.191
N100 X56.056 Y253.376
N101 X56.156 Y253.555
N102 X122.142 Y361.469
N103 X91.411
N104 X91.207 Y361.476
N105 X91.003 Y361.499
N106 X90.801 Y361.536
N107 X90.603 Y361.588
N108 X90.409 Y361.655
N109 X90.221 Y361.735
N110 X90.038 Y361.829
N111 X89.864 Y361.936
N112 X89.697 Y362.055
N113 X89.54 Y362.186
N114 X89.392 Y362.329
N115 X89.256 Y362.482
N116 X89.131 Y362.644
N117 X89.018 Y362.815
N118 X88.918 Y362.994
N119 X88.832 Y363.18
N120 X88.759 Y363.372
N121 X88.701 Y363.568
N122 X88.657 Y363.768
N123 X88.627 Y363.971
N124 X88.613 Y364.176
N125 X88.614 Y364.38
N126 X88.629 Y364.585
N127 X88.66 Y364.787
N128 X88.705 Y364.987
N129 X88.765 Y365.183
N130 X88.839 Y365.374
N131 X88.927 Y365.56
N132 X143.956 Y471.501
N133 X120.706
N134 X120.501 Y471.509
N135 X120.296 Y471.531
N136 X120.094 Y471.569
N137 X119.896 Y471.621
N138 X119.701 Y471.687
N139 X119.512 Y471.768
N140 X119.33 Y471.863
N141 X119.155 Y471.97
N142 X118.988 Y472.09
N143 X118.83 Y472.222
N144 X118.683 Y472.365
N145 X118.547 Y472.519
N146 X118.422 Y472.682
N147 X118.309 Y472.854
N148 X118.209 Y473.033
N149 X118.123 Y473.22
N150 X118.051 Y473.412
N151 X117.993 Y473.609
N152 X117.949 Y473.81
N153 X117.921 Y474.014
N154 X117.907 Y474.219
N155 X117.909 Y474.424
N156 X117.925 Y474.629
N157 X117.957 Y474.832
N158 X118.003 Y475.032
N159 X118.064 Y475.228
N160 X118.139 Y475.42
N161 X118.228 Y475.605
N162 X118.33 Y475.783
N163 X174.049 Y565.095
N164 X174.165 Y565.266
N165 X174.293 Y565.428
N166 X174.433 Y565.581
N167 X174.584 Y565.722
N168 X174.744 Y565.852
N169 X174.914 Y565.97
N170 X175.092 Y566.075
N171 X175.277 Y566.167
N172 X175.469 Y566.245
N173 X175.665 Y566.308
N174 X175.866 Y566.357
N175 X176.07 Y566.39
N176 X176.276 Y566.409
N177 X176.482 Y566.412
N178 X176.689 Y566.401
N179 X176.894 Y566.373
N180 X177.096 Y566.331
N181 X177.295 Y566.275
N182 X177.489 Y566.203
N183 X177.677 Y566.118
N184 X177.858 Y566.018
N185 X178.032 Y565.906
N186 X178.196 Y565.781
N187 X178.351 Y565.645
N188 X178.496 Y565.497
N189 X178.629 Y565.339
N190 X178.751 Y565.172
N191 X178.859 Y564.996
N192 X178.955 Y564.813
N193 X179.036 Y564.623
N194 X179.104 Y564.428
N195 X179.157 Y564.228
N196 X179.195 Y564.025
N197 X179.217 Y563.819
N198 X179.225 Y563.613
N199 Y305.657
N200 X179.218 Y305.457
N201 X179.197 Y305.259
N202 X179.161 Y305.062
N203 X179.112 Y304.868
N204 X179.049 Y304.679
N205 X178.972 Y304.494
N206 X178.883 Y304.315
N207 X178.781 Y304.144
N208 X178.667 Y303.979
N209 X178.541 Y303.824
N210 X178.405 Y303.677
N211 X178.316 Y303.577
N212 X178.238 Y303.467
N213 X178.173 Y303.35
N214 X178.121 Y303.225
N215 X178.084 Y303.096
N216 X178.061 Y302.963
N217 X178.054 Y302.829
N218 X178.061 Y302.695
N219 X178.084 Y302.562
N220 X178.121 Y302.433
N221 X178.173 Y302.308
N222 X178.238 Y302.19
N223 X178.316 Y302.081
N224 X178.405 Y301.98
N225 X178.506 Y301.891
N226 X178.615 Y301.813
N227 X178.733 Y301.748
N228 X178.858 Y301.696
N229 X178.987 Y301.659
N230 X179.12 Y301.636
N231 X179.254 Y301.629
N232 X179.388 Y301.636
N233 X179.521 Y301.659
N234 X179.65 Y301.696
N235 X179.775 Y301.748
N236 X179.892 Y301.813
N237 X180.002 Y301.891
N238 X180.102 Y301.98
N239 X180.249 Y302.116
N240 X180.404 Y302.242
N241 X180.569 Y302.356
N242 X180.74 Y302.458
N243 X180.919 Y302.547
N244 X181.104 Y302.624
N245 X181.293 Y302.687
N246 X181.487 Y302.736
N247 X181.684 Y302.772
N248 X181.882 Y302.793
N249 X182.082 Y302.8
N250 X188.769
N251 X188.969 Y302.793
N252 X189.167 Y302.771
N253 X189.364 Y302.736
N254 X189.558 Y302.687
N255 X189.748 Y302.623
N256 X189.932 Y302.547
N257 X190.111 Y302.457
N258 X190.283 Y302.355
N259 X190.447 Y302.241
N260 X190.603 Y302.116
N261 X190.749 Y301.98
N262 X190.849 Y301.89
N263 X190.959 Y301.812
N264 X191.077 Y301.747
N265 X191.201 Y301.696
N266 X191.33 Y301.658
N267 X191.463 Y301.636
N268 X191.597 Y301.628
N269 X191.732 Y301.636
N270 X191.864 Y301.659
N271 X191.994 Y301.696
N272 X192.118 Y301.747
N273 X192.236 Y301.812
N274 X192.345 Y301.89
N275 X192.446 Y301.98
N276 X192.535 Y302.08
N277 X192.613 Y302.19
N278 X192.678 Y302.308
N279 X192.73 Y302.432
N280 X192.767 Y302.561
N281 X192.79 Y302.694
N282 X192.797 Y302.828
N283 X192.79 Y302.963
N284 X192.767 Y303.095
N285 X192.73 Y303.225
N286 X192.678 Y303.349
N287 X192.613 Y303.467
N288 X192.535 Y303.576
N289 X192.446 Y303.677
N290 X192.309 Y303.823
N291 X192.184 Y303.979
N292 X192.07 Y304.143
N293 X191.968 Y304.315
N294 X191.878 Y304.494
N295 X191.802 Y304.678
N296 X191.738 Y304.868
N297 X191.689 Y305.062
N298 X191.654 Y305.258
N299 X191.632 Y305.457
N300 X191.625 Y305.657
N301 Y563.613
N302 X191.633 Y563.819
N303 X191.655 Y564.025
N304 X191.693 Y564.228
N305 X191.746 Y564.428
N306 X191.814 Y564.623
N307 X191.895 Y564.813
N308 X191.991 Y564.996
N309 X192.099 Y565.172
N310 X192.221 Y565.339
N311 X192.354 Y565.497
N312 X192.499 Y565.645
N313 X192.654 Y565.781
N314 X192.818 Y565.906
N315 X192.992 Y566.018
N316 X193.173 Y566.118
N317 X193.361 Y566.203
N318 X193.555 Y566.275
N319 X193.754 Y566.331
N320 X193.956 Y566.373
N321 X194.161 Y566.401
N322 X194.368 Y566.412
N323 X194.574 Y566.409
N324 X194.78 Y566.39
N325 X194.984 Y566.357
N326 X195.185 Y566.308
N327 X195.381 Y566.245
N328 X195.573 Y566.167
N329 X195.758 Y566.075
N330 X195.936 Y565.97
N331 X196.106 Y565.852
N332 X196.266 Y565.722
N333 X196.417 Y565.581
N334 X196.557 Y565.428
N335 X196.685 Y565.266
N336 X196.801 Y565.095
N337 X252.521 Y475.783
N338 X252.623 Y475.605
N339 X252.712 Y475.42
N340 X252.787 Y475.228
N341 X252.848 Y475.032
N342 X252.894 Y474.832
N343 X252.926 Y474.629
N344 X252.942 Y474.424
N345 X252.944 Y474.219
N346 X252.93 Y474.014
N347 X252.902 Y473.81
N348 X252.858 Y473.609
N349 X252.8 Y473.412
N350 X252.728 Y473.22
N351 X252.642 Y473.033
N352 X252.542 Y472.854
N353 X252.429 Y472.682
N354 X252.304 Y472.519
N355 X252.168 Y472.365
N356 X252.021 Y472.222
N357 X251.863 Y472.09
N358 X251.696 Y471.97
N359 X251.521 Y471.863
N360 X251.339 Y471.768
N361 X251.15 Y471.687
N362 X250.955 Y471.621
N363 X250.757 Y471.569
N364 X250.555 Y471.531
N365 X250.35 Y471.509
N366 X250.145 Y471.501
N367 X226.895
N368 X281.924 Y365.56
N369 X282.012 Y365.374
N370 X282.086 Y365.183
N371 X282.145 Y364.987
N372 X282.191 Y364.787
N373 X282.221 Y364.585
N374 X282.237 Y364.38
N375 Y364.175
N376 X282.223 Y363.971
N377 X282.194 Y363.768
N378 X282.15 Y363.568
N379 X282.091 Y363.372
N380 X282.019 Y363.18
N381 X281.932 Y362.994
N382 X281.832 Y362.815
N383 X281.719 Y362.644
N384 X281.594 Y362.482
N385 X281.458 Y362.329
N386 X281.311 Y362.186
N387 X281.153 Y362.055
N388 X280.987 Y361.936
N389 X280.812 Y361.829
N390 X280.63 Y361.735
N391 X280.441 Y361.654
N392 X280.247 Y361.588
N393 X280.049 Y361.536
N394 X279.848 Y361.499
N395 X279.644 Y361.476
N396 X279.439 Y361.469
N397 X248.709
N398 X314.695 Y253.555
N399 X314.795 Y253.376
N400 X314.882 Y253.191
N401 X314.955 Y253
N402 X315.014 Y252.804
N403 X315.059 Y252.605
N404 X315.089 Y252.402
N405 X315.104 Y252.198
N406 Y251.993
N407 X315.089 Y251.789
N408 X315.06 Y251.587
N409 X315.015 Y251.387
N410 X314.956 Y251.191
N411 X314.883 Y251
N412 X314.797 Y250.815
N413 X314.697 Y250.636
N414 X314.584 Y250.466
N415 X314.459 Y250.304
N416 X314.322 Y250.151
N417 X314.175 Y250.009
N418 X314.018 Y249.878
N419 X313.851 Y249.759
N420 X313.677 Y249.653
N421 X313.495 Y249.559
N422 X313.307 Y249.479
N423 X313.113 Y249.413
N424 X312.915 Y249.361
N425 X312.714 Y249.324
N426 X312.51 Y249.301
N427 X312.306 Y249.294
N428 X279.089
N429 X342.831 Y145.049
N430 X342.931 Y144.87
N431 X343.018 Y144.685
N432 X343.091 Y144.494
N433 X343.15 Y144.298
N434 X343.195 Y144.099
N435 X343.225 Y143.896
N436 X343.24 Y143.692
N437 Y143.487
N438 X343.225 Y143.283
N439 X343.196 Y143.081
N440 X343.151 Y142.881
N441 X343.092 Y142.685
N442 X343.019 Y142.494
N443 X342.933 Y142.309
N444 X342.833 Y142.13
N445 X342.72 Y141.96
N446 X342.595 Y141.798
N447 X342.458 Y141.645
N448 X342.311 Y141.503
N449 X342.154 Y141.372
N450 X341.987 Y141.253
N451 X341.813 Y141.147
N452 X341.631 Y141.053
N453 X341.443 Y140.973
N454 X341.249 Y140.907
N455 X341.051 Y140.855
N456 X340.85 Y140.818
N457 X340.646 Y140.795
N458 X340.442 Y140.788
N459 X308.419
N460 X373.24 Y34.78
N461 X373.34 Y34.601
N462 X373.427 Y34.416
N463 X373.5 Y34.225
N464 X373.559 Y34.029
N465 X373.604 Y33.829
N466 X373.634 Y33.627
N467 X373.649 Y33.423
N468 Y33.218
N469 X373.634 Y33.014
N470 X373.605 Y32.812
N471 X373.56 Y32.612
N472 X373.501 Y32.416
N473 X373.428 Y32.225
N474 X373.342 Y32.04
N475 X373.242 Y31.861
N476 X373.129 Y31.691
N477 X373.004 Y31.529
N478 X372.867 Y31.376
N479 X372.72 Y31.234
N480 X372.563 Y31.103
N481 X372.397 Y30.984
N482 X372.222 Y30.877
N483 X372.04 Y30.784
N484 X371.852 Y30.704
N485 X371.658 Y30.638
N486 X371.46 Y30.586
N487 X371.259 Y30.549
N488 X371.055 Y30.526
N489 X370.851 Y30.519
N490 X265.014
N491 Y0
N492 X265.006 Y-0.209
N493 X264.983 Y-0.417
N494 X264.944 Y-0.623
N495 X264.89 Y-0.825
N496 X264.82 Y-1.023
N497 X264.737 Y-1.215
N498 X264.639 Y-1.4
N499 X264.527 Y-1.577
N500 X264.403 Y-1.746
N501 X264.267 Y-1.904
N502 X264.118 Y-2.053
N503 X263.96 Y-2.189
N504 X263.791 Y-2.313
N505 X263.614 Y-2.425
N506 X263.429 Y-2.523
N507 X263.237 Y-2.606
N508 X263.039 Y-2.676
N509 X262.837 Y-2.73
N510 X262.631 Y-2.769
N511 X262.423 Y-2.792
N512 X262.214 Y-2.8
N513 X108.637
N514 X108.428 Y-2.792
N515 X108.22 Y-2.769
N516 X108.014 Y-2.73
N517 X107.812 Y-2.676
N518 X107.614 Y-2.606
N519 X107.422 Y-2.523
N520 X107.237 Y-2.425
N521 X107.06 Y-2.313
N522 X106.891 Y-2.189
N523 X106.733 Y-2.053
N524 X106.584 Y-1.904
N525 X106.448 Y-1.746
N526 X106.324 Y-1.577
N527 X106.212 Y-1.4
N528 X106.114 Y-1.215
N529 X106.031 Y-1.023
N530 X105.961 Y-0.825
N531 X105.907 Y-0.623
N532 X105.868 Y-0.417
N533 X105.845 Y-0.209
N534 X105.837 Y0
N535 Y30.519
N536 X0
N537 X-0.21 Y30.527
N538 X-0.418 Y30.55
N539 X-0.624 Y30.589
N540 X-0.827 Y30.644
N541 X-1.025 Y30.713
N542 X-1.217 Y30.797
N543 X-1.402 Y30.895
N544 X-1.58 Y31.007
N545 X-1.749 Y31.132
N546 X-1.907 Y31.269
N547 X-2.056 Y31.418
N548 X-2.192 Y31.577
N549 X-2.316 Y31.746
N550 X-2.428 Y31.924
N551 X-2.525 Y32.109
N552 X-2.609 Y32.302
N553 X-2.678 Y32.5
N554 X-2.731 Y32.703
N555 X-2.77 Y32.909
N556 X-2.793 Y33.118
N557 X-2.8 Y33.327
N558 X-2.791 Y33.537
N559 X-2.767 Y33.745
N560 X-2.728 Y33.951
N561 X-2.681 Y34.125 Z14.999 F2500
N562 X-2.624 Y34.295 Z14.998
N563 X-2.556 Y34.462 Z14.996
N564 X-2.478 Y34.623 Z14.995
N565 X-2.389 Y34.78 Z14.994
N566 X62.431 Y140.788 Z14.142
N567 X30.409 Z13.923
N568 X30.204 Y140.795 Z13.922
N569 X30.001 Y140.818 Z13.92
N570 X29.799 Y140.855 Z13.919
N571 X29.602 Y140.907 Z13.917
N572 X29.408 Y140.973 Z13.916
N573 X29.22 Y141.053 Z13.915
N574 X29.038 Y141.147 Z13.913
N575 X28.863 Y141.253 Z13.912
N576 X28.697 Y141.372 Z13.91
N577 X28.539 Y141.503 Z13.909
N578 X28.392 Y141.645 Z13.908
N579 X28.256 Y141.798 Z13.906
N580 X28.131 Y141.96 Z13.905
N581 X28.018 Y142.13 Z13.903
N582 X27.918 Y142.309 Z13.902
N583 X27.831 Y142.494 Z13.901
N584 X27.758 Y142.685 Z13.899
N585 X27.699 Y142.881 Z13.898
N586 X27.655 Y143.081 Z13.896
N587 X27.625 Y143.283 Z13.895
N588 X27.61 Y143.487 Z13.894
N589 Y143.692 Z13.892
N590 X27.626 Y143.896 Z13.891
N591 X27.655 Y144.099 Z13.889
N592 X27.7 Y144.298 Z13.888
N593 X27.759 Y144.494 Z13.887
N594 X27.832 Y144.685 Z13.885
N595 X27.919 Y144.87 Z13.884
N596 X28.02 Y145.049 Z13.882
N597 X91.762 Y249.294 Z13.045
N598 X58.545 Z12.818
N599 X58.34 Y249.301 Z12.816
N600 X58.137 Y249.324 Z12.815
N601 X57.936 Y249.361 Z12.813
N602 X57.738 Y249.413 Z12.812
N603 X57.544 Y249.479 Z12.811
N604 X57.356 Y249.559 Z12.809
N605 X57.174 Y249.653 Z12.808
N606 X56.999 Y249.759 Z12.806
N607 X56.833 Y249.878 Z12.805
N608 X56.676 Y250.009 Z12.804
N609 X56.528 Y250.151 Z12.802
N610 X56.392 Y250.304 Z12.801
N611 X56.267 Y250.466 Z12.799
N612 X56.154 Y250.636 Z12.798
N613 X56.054 Y250.815 Z12.797
N614 X55.967 Y251 Z12.795
N615 X55.894 Y251.191 Z12.794
N616 X55.835 Y251.387 Z12.792
N617 X55.791 Y251.587 Z12.791
N618 X55.761 Y251.789 Z12.79
N619 X55.747 Y251.993 Z12.788
N620 Y252.198 Z12.787
N621 X55.762 Y252.402 Z12.785
N622 X55.792 Y252.605 Z12.784
N623 X55.836 Y252.804 Z12.783
N624 X55.895 Y253 Z12.781
N625 X55.969 Y253.191 Z12.78
N626 X56.056 Y253.376 Z12.778
N627 X56.156 Y253.555 Z12.777
N628 X115.307 Y350.292 Z12
N629 X122.142 Y361.469 F2760
N630 X91.411
N631 X91.207 Y361.476
N632 X91.003 Y361.499
N633 X90.801 Y361.536
N634 X90.603 Y361.588
N635 X90.409 Y361.655
N636 X90.221 Y361.735
N637 X90.038 Y361.829
N638 X89.864 Y361.936
N639 X89.697 Y362.055
N640 X89.54 Y362.186
N641 X89.392 Y362.329
N642 X89.256 Y362.482
N643 X89.131 Y362.644
N644 X89.018 Y362.815
N645 X88.918 Y362.994
N646 X88.832 Y363.18
N647 X88.759 Y363.372
N648 X88.701 Y363.568
N649 X88.657 Y363.768
N650 X88.627 Y363.971
N651 X88.613 Y364.176
N652 X88.614 Y364.38
N653 X88.629 Y364.585
N654 X88.66 Y364.787
N655 X88.705 Y364.987
N656 X88.765 Y365.183
N657 X88.839 Y365.374
N658 X88.927 Y365.56
N659 X143.956 Y471.501
N660 X120.706
N661 X120.501 Y471.509
N662 X120.296 Y471.531
N663 X120.094 Y471.569
N664 X119.896 Y471.621
N665 X119.701 Y471.687
N666 X119.512 Y471.768
N667 X119.33 Y471.863
N668 X119.155 Y471.97
N669 X118.988 Y472.09
N670 X118.83 Y472.222
N671 X118.683 Y472.365
N672 X118.547 Y472.519
N673 X118.422 Y472.682
N674 X118.309 Y472.854
N675 X118.209 Y473.033
N676 X118.123 Y473.22
N677 X118.051 Y473.412
N678 X117.993 Y473.609
N679 X117.949 Y473.81
N680 X117.921 Y474.014
N681 X117.907 Y474.219
N682 X117.909 Y474.424
N683 X117.925 Y474.629
N684 X117.957 Y474.832
N685 X118.003 Y475.032
N686 X118.064 Y475.228
N687 X118.139 Y475.42
N688 X118.228 Y475.605
N689 X118.33 Y475.783
N690 X174.049 Y565.095
N691 X174.165 Y565.266
N692 X174.293 Y565.428
N693 X174.433 Y565.581
N694 X174.584 Y565.722
N695 X174.744 Y565.852
N696 X174.914 Y565.97
N697 X175.092 Y566.075
N698 X175.277 Y566.167
N699 X175.469 Y566.245
N700 X175.665 Y566.308
N701 X175.866 Y566.357
N702 X176.07 Y566.39
N703 X176.276 Y566.409
N704 X176.482 Y566.412
N705 X176.689 Y566.401
N706 X176.894 Y566.373
N707 X177.096 Y566.331
N708 X177.295 Y566.275
N709 X177.489 Y566.203
N710 X177.677 Y566.118
N711 X177.858 Y566.018
N712 X178.032 Y565.906
N713 X178.196 Y565.781
N714 X178.351 Y565.645
N715 X178.496 Y565.497
N716 X178.629 Y565.339
N717 X178.751 Y565.172
N718 X178.859 Y564.996
N719 X178.955 Y564.813
N720 X179.036 Y564.623
N721 X179.104 Y564.428
N722 X179.157 Y564.228
N723 X179.195 Y564.025
N724 X179.217 Y563.819
N725 X179.225 Y563.613
N726 Y305.657
N727 X179.218 Y305.457
N728 X179.197 Y305.259
N729 X179.161 Y305.062
N730 X179.112 Y304.868
N731 X179.049 Y304.679
N732 X178.972 Y304.494
N733 X178.883 Y304.315
N734 X178.781 Y304.144
N735 X178.667 Y303.979
N736 X178.541 Y303.824
N737 X178.405 Y303.677
N738 X178.316 Y303.577
N739 X178.238 Y303.467
N740 X178.173 Y303.35
N741 X178.121 Y303.225
N742 X178.084 Y303.096
N743 X178.061 Y302.963
N744 X178.054 Y302.829
N745 X178.061 Y302.695
N746 X178.084 Y302.562
N747 X178.121 Y302.433
N748 X178.173 Y302.308
N749 X178.238 Y302.19
N750 X178.316 Y302.081
N751 X178.405 Y301.98
N752 X178.506 Y301.891
N753 X178.615 Y301.813
N754 X178.733 Y301.748
N755 X178.858 Y301.696
N756 X178.987 Y301.659
N757 X179.12 Y301.636
N758 X179.254 Y301.629
N759 X179.388 Y301.636
N760 X179.521 Y301.659
N761 X179.65 Y301.696
N762 X179.775 Y301.748
N763 X179.892 Y301.813
N764 X180.002 Y301.891
N765 X180.102 Y301.98
N766 X180.249 Y302.116
N767 X180.404 Y302.242
N768 X180.569 Y302.356
N769 X180.74 Y302.458
N770 X180.919 Y302.547
N771 X181.104 Y302.624
N772 X181.293 Y302.687
N773 X181.487 Y302.736
N774 X181.684 Y302.772
N775 X181.882 Y302.793
N776 X182.082 Y302.8
N777 X188.769
N778 X188.969 Y302.793
N779 X189.167 Y302.771
N780 X189.364 Y302.736
N781 X189.558 Y302.687
N782 X189.748 Y302.623
N783 X189.932 Y302.547
N784 X190.111 Y302.457
N785 X190.283 Y302.355
N786 X190.447 Y302.241
N787 X190.603 Y302.116
N788 X190.749 Y301.98
N789 X190.849 Y301.89
N790 X190.959 Y301.812
N791 X191.077 Y301.747
N792 X191.201 Y301.696
N793 X191.33 Y301.658
N794 X191.463 Y301.636
N795 X191.597 Y301.628
N796 X191.732 Y301.636
N797 X191.864 Y301.659
N798 X191.994 Y301.696
N799 X192.118 Y301.747
N800 X192.236 Y301.812
N801 X192.345 Y301.89
N802 X192.446 Y301.98
N803 X192.535 Y302.08
N804 X192.613 Y302.19
N805 X192.678 Y302.308
N806 X192.73 Y302.432
N807 X192.767 Y302.561
N808 X192.79 Y302.694
N809 X192.797 Y302.828
N810 X192.79 Y302.963
N811 X192.767 Y303.095
N812 X192.73 Y303.225
N813 X192.678 Y303.349
N814 X192.613 Y303.467
N815 X192.535 Y303.576
N816 X192.446 Y303.677
N817 X192.309 Y303.823
N818 X192.184 Y303.979
N819 X192.07 Y304.143
N820 X191.968 Y304.315
N821 X191.878 Y304.494
N822 X191.802 Y304.678
N823 X191.738 Y304.868
N824 X191.689 Y305.062
N825 X191.654 Y305.258
N826 X191.632 Y305.457
N827 X191.625 Y305.657
N828 Y563.613
N829 X191.633 Y563.819
N830 X191.655 Y564.025
N831 X191.693 Y564.228
N832 X191.746 Y564.428
N833 X191.814 Y564.623
N834 X191.895 Y564.813
N835 X191.991 Y564.996
N836 X192.099 Y565.172
N837 X192.221 Y565.339
N838 X192.354 Y565.497
N839 X192.499 Y565.645
N840 X192.654 Y565.781
N841 X192.818 Y565.906
N842 X192.992 Y566.018
N843 X193.173 Y566.118
N844 X193.361 Y566.203
N845 X193.555 Y566.275
N846 X193.754 Y566.331
N847 X193.956 Y566.373
N848 X194.161 Y566.401
N849 X194.368 Y566.412
N850 X194.574 Y566.409
N851 X194.78 Y566.39
N852 X194.984 Y566.357
N853 X195.185 Y566.308
N854 X195.381 Y566.245
N855 X195.573 Y566.167
N856 X195.758 Y566.075
N857 X195.936 Y565.97
N858 X196.106 Y565.852
N859 X196.266 Y565.722
N860 X196.417 Y565.581
N861 X196.557 Y565.428
N862 X196.685 Y565.266
N863 X196.801 Y565.095
N864 X252.521 Y475.783
N865 X252.623 Y475.605
N866 X252.712 Y475.42
N867 X252.787 Y475.228
N868 X252.848 Y475.032
N869 X252.894 Y474.832
N870 X252.926 Y474.629
N871 X252.942 Y474.424
N872 X252.944 Y474.219
N873 X252.93 Y474.014
N874 X252.902 Y473.81
N875 X252.858 Y473.609
N876 X252.8 Y473.412
N877 X252.728 Y473.22
N878 X252.642 Y473.033
N879 X252.542 Y472.854
N880 X252.429 Y472.682
N881 X252.304 Y472.519
N882 X252.168 Y472.365
N883 X252.021 Y472.222
N884 X251.863 Y472.09
N885 X251.696 Y471.97
N886 X251.521 Y471.863
N887 X251.339 Y471.768
N888 X251.15 Y471.687
N889 X250.955 Y471.621
N890 X250.757 Y471.569
N891 X250.555 Y471.531
N892 X250.35 Y471.509
N893 X250.145 Y471.501
N894 X226.895
N895 X281.924 Y365.56
N896 X282.012 Y365.374
N897 X282.086 Y365.183
N898 X282.145 Y364.987
N899 X282.191 Y364.787
N900 X282.221 Y364.585
N901 X282.237 Y364.38
N902 Y364.175
N903 X282.223 Y363.971
N904 X282.194 Y363.768
N905 X282.15 Y363.568
N906 X282.091 Y363.372
N907 X282.019 Y363.18
N908 X281.932 Y362.994
N909 X281.832 Y362.815
N910 X281.719 Y362.644
N911 X281.594 Y362.482
N912 X281.458 Y362.329
N913 X281.311 Y362.186
N914 X281.153 Y362.055
N915 X280.987 Y361.936
N916 X280.812 Y361.829
N917 X280.63 Y361.735
N918 X280.441 Y361.654
N919 X280.247 Y361.588
N920 X280.049 Y361.536
N921 X279.848 Y361.499
N922 X279.644 Y361.476
N923 X279.439 Y361.469
N924 X248.709
N925 X314.695 Y253.555
N926 X314.795 Y253.376
N927 X314.882 Y253.191
N928 X314.955 Y253
N929 X315.014 Y252.804
N930 X315.059 Y252.605
N931 X315.089 Y252.402
N932 X315.104 Y252.198
N933 Y251.993
N934 X315.089 Y251.789
N935 X315.06 Y251.587
N936 X315.015 Y251.387
N937 X314.956 Y251.191
N938 X314.883 Y251
N939 X314.797 Y250.815
N940 X314.697 Y250.636
N941 X314.584 Y250.466
N942 X314.459 Y250.304
N943 X314.322 Y250.151
N944 X314.175 Y250.009
N945 X314.018 Y249.878
N946 X313.851 Y249.759
N947 X313.677 Y249.653
N948 X313.495 Y249.559
N949 X313.307 Y249.479
N950 X313.113 Y249.413
N951 X312.915 Y249.361
N952 X312.714 Y249.324
N953 X312.51 Y249.301
N954 X312.306 Y249.294
N955 X279.089
N956 X342.831 Y145.049
N957 X342.931 Y144.87
N958 X343.018 Y144.685
N959 X343.091 Y144.494
N960 X343.15 Y144.298
N961 X343.195 Y144.099
N962 X343.225 Y143.896
N963 X343.24 Y143.692
N964 Y143.487
N965 X343.225 Y143.283
N966 X343.196 Y143.081
N967 X343.151 Y142.881
N968 X343.092 Y142.685
N969 X343.019 Y142.494
N970 X342.933 Y142.309
N971 X342.833 Y142.13
N972 X342.72 Y141.96
N973 X342.595 Y141.798
N974 X342.458 Y141.645
N975 X342.311 Y141.503
N976 X342.154 Y141.372
N977 X341.987 Y141.253
N978 X341.813 Y141.147
N979 X341.631 Y141.053
N980 X341.443 Y140.973
N981 X341.249 Y140.907
N982 X341.051 Y140.855
N983 X340.85 Y140.818
N984 X340.646 Y140.795
N985 X340.442 Y140.788
N986 X308.419
N987 X373.24 Y34.78
N988 X373.34 Y34.601
N989 X373.427 Y34.416
N990 X373.5 Y34.225
N991 X373.559 Y34.029
N992 X373.604 Y33.829
N993 X373.634 Y33.627
N994 X373.649 Y33.423
N995 Y33.218
N996 X373.634 Y33.014
N997 X373.605 Y32.812
N998 X373.56 Y32.612
N999 X373.501 Y32.416
N1000 X373.428 Y32.225
N1001 X373.342 Y32.04
N1002 X373.242 Y31.861
N1003 X373.129 Y31.691
N1004 X373.004 Y31.529
N1005 X372.867 Y31.376
N1006 X372.72 Y31.234
N1007 X372.563 Y31.103
N1008 X372.397 Y30.984
N1009 X372.222 Y30.877
N1010 X372.04 Y30.784
N1011 X371.852 Y30.704
N1012 X371.658 Y30.638
N1013 X371.46 Y30.586
N1014 X371.259 Y30.549
N1015 X371.055 Y30.526
N1016 X370.851 Y30.519
N1017 X265.014
N1018 Y0
N1019 X265.006 Y-0.209
N1020 X264.983 Y-0.417
N1021 X264.944 Y-0.623
N1022 X264.89 Y-0.825
N1023 X264.82 Y-1.023
N1024 X264.737 Y-1.215
N1025 X264.639 Y-1.4
N1026 X264.527 Y-1.577
N1027 X264.403 Y-1.746
N1028 X264.267 Y-1.904
N1029 X264.118 Y-2.053
N1030 X263.96 Y-2.189
N1031 X263.791 Y-2.313
N1032 X263.614 Y-2.425
N1033 X263.429 Y-2.523
N1034 X263.237 Y-2.606
N1035 X263.039 Y-2.676
N1036 X262.837 Y-2.73
N1037 X262.631 Y-2.769
N1038 X262.423 Y-2.792
N1039 X262.214 Y-2.8
N1040 X108.637
N1041 X108.428 Y-2.792
N1042 X108.22 Y-2.769
N1043 X108.014 Y-2.73
N1044 X107.812 Y-2.676
N1045 X107.614 Y-2.606
N1046 X107.422 Y-2.523
N1047 X107.237 Y-2.425
N1048 X107.06 Y-2.313
N1049 X106.891 Y-2.189
N1050 X106.733 Y-2.053
N1051 X106.584 Y-1.904
N1052 X106.448 Y-1.746
N1053 X106.324 Y-1.577
N1054 X106.212 Y-1.4
N1055 X106.114 Y-1.215
N1056 X106.031 Y-1.023
N1057 X105.961 Y-0.825
N1058 X105.907 Y-0.623
N1059 X105.868 Y-0.417
N1060 X105.845 Y-0.209
N1061 X105.837 Y0
N1062 Y30.519
N1063 X0
N1064 X-0.204 Y30.526
N1065 X-0.408 Y30.549
N1066 X-0.609 Y30.586
N1067 X-0.807 Y30.638
N1068 X-1.001 Y30.704
N1069 X-1.189 Y30.784
N1070 X-1.371 Y30.877
N1071 X-1.545 Y30.984
N1072 X-1.712 Y31.103
N1073 X-1.869 Y31.234
N1074 X-2.016 Y31.376
N1075 X-2.153 Y31.529
N1076 X-2.278 Y31.691
N1077 X-2.391 Y31.861
N1078 X-2.491 Y32.04
N1079 X-2.577 Y32.225
N1080 X-2.65 Y32.416
N1081 X-2.709 Y32.612
N1082 X-2.754 Y32.812
N1083 X-2.783 Y33.014
N1084 X-2.798 Y33.218
N1085 Y33.423
N1086 X-2.783 Y33.627
N1087 X-2.753 Y33.829
N1088 X-2.708 Y34.029
N1089 X-2.649 Y34.225
N1090 X-2.576 Y34.416
N1091 X-2.489 Y34.601
N1092 X-2.389 Y34.78
N1093 X62.431 Y140.788
N1094 X30.409
N1095 X30.204 Y140.795
N1096 X30.001 Y140.818
N1097 X29.799 Y140.855
N1098 X29.602 Y140.907
N1099 X29.408 Y140.973
N1100 X29.22 Y141.053
N1101 X29.038 Y141.147
N1102 X28.863 Y141.253
N1103 X28.697 Y141.372
N1104 X28.539 Y141.503
N1105 X28.392 Y141.645
N1106 X28.256 Y141.798
N1107 X28.131 Y141.96
N1108 X28.018 Y142.13
N1109 X27.918 Y142.309
N1110 X27.831 Y142.494
N1111 X27.758 Y142.685
N1112 X27.699 Y142.881
N1113 X27.655 Y143.081
N1114 X27.625 Y143.283
N1115 X27.61 Y143.487
N1116 Y143.692
N1117 X27.626 Y143.896
N1118 X27.655 Y144.099
N1119 X27.7 Y144.298
N1120 X27.759 Y144.494
N1121 X27.832 Y144.685
N1122 X27.919 Y144.87
N1123 X28.02 Y145.049
N1124 X91.762 Y249.294
N1125 X58.545
N1126 X58.34 Y249.301
N1127 X58.137 Y249.324
N1128 X57.936 Y249.361
N1129 X57.738 Y249.413
N1130 X57.544 Y249.479
N1131 X57.356 Y249.559
N1132 X57.174 Y249.653
N1133 X56.999 Y249.759
N1134 X56.833 Y249.878
N1135 X56.676 Y250.009
N1136 X56.528 Y250.151
N1137 X56.392 Y250.304
N1138 X56.267 Y250.466
N1139 X56.154 Y250.636
N1140 X56.054 Y250.815
N1141 X55.967 Y251
N1142 X55.894 Y251.191
N1143 X55.835 Y251.387
N1144 X55.791 Y251.587
N1145 X55.761 Y251.789
N1146 X55.747 Y251.993
N1147 Y252.198
N1148 X55.762 Y252.402
N1149 X55.792 Y252.605
N1150 X55.836 Y252.804
N1151 X55.895 Y253
N1152 X55.969 Y253.191
N1153 X56.056 Y253.376
N1154 X56.156 Y253.555
N1155 X115.307 Y350.292
N1156 X122.142 Y361.469 Z11.91 F2500
N1157 X91.411 Z11.7
N1158 X91.207 Y361.476 Z11.698
N1159 X91.003 Y361.499 Z11.697
N1160 X90.801 Y361.536 Z11.695
N1161 X90.603 Y361.588 Z11.694
N1162 X90.409 Y361.655 Z11.693
N1163 X90.221 Y361.735 Z11.691
N1164 X90.038 Y361.829 Z11.69
N1165 X89.864 Y361.936 Z11.688
N1166 X89.697 Y362.055 Z11.687
N1167 X89.54 Y362.186 Z11.686
N1168 X89.392 Y362.329 Z11.684
N1169 X89.256 Y362.482 Z11.683
N1170 X89.131 Y362.644 Z11.681
N1171 X89.018 Y362.815 Z11.68
N1172 X88.918 Y362.994 Z11.679
N1173 X88.832 Y363.18 Z11.677
N1174 X88.759 Y363.372 Z11.676
N1175 X88.701 Y363.568 Z11.674
N1176 X88.657 Y363.768 Z11.673
N1177 X88.627 Y363.971 Z11.672
N1178 X88.613 Y364.176 Z11.67
N1179 X88.614 Y364.38 Z11.669
N1180 X88.629 Y364.585 Z11.667
N1181 X88.66 Y364.787 Z11.666
N1182 X88.705 Y364.987 Z11.665
N1183 X88.765 Y365.183 Z11.663
N1184 X88.839 Y365.374 Z11.662
N1185 X88.927 Y365.56 Z11.66
N1186 X143.956 Y471.501 Z10.842
N1187 X120.706 Z10.683
N1188 X120.501 Y471.509 Z10.682
N1189 X120.296 Y471.531 Z10.68
N1190 X120.094 Y471.569 Z10.679
N1191 X119.896 Y471.621 Z10.677
N1192 X119.701 Y471.687 Z10.676
N1193 X119.512 Y471.768 Z10.675
N1194 X119.33 Y471.863 Z10.673
N1195 X119.155 Y471.97 Z10.672
N1196 X118.988 Y472.09 Z10.67
N1197 X118.83 Y472.222 Z10.669
N1198 X118.683 Y472.365 Z10.668
N1199 X118.547 Y472.519 Z10.666
N1200 X118.422 Y472.682 Z10.665
N1201 X118.309 Y472.854 Z10.663
N1202 X118.209 Y473.033 Z10.662
N1203 X118.123 Y473.22 Z10.661
N1204 X118.051 Y473.412 Z10.659
N1205 X117.993 Y473.609 Z10.658
N1206 X117.949 Y473.81 Z10.656
N1207 X117.921 Y474.014 Z10.655
N1208 X117.907 Y474.219 Z10.653
N1209 X117.909 Y474.424 Z10.652
N1210 X117.925 Y474.629 Z10.651
N1211 X117.957 Y474.832 Z10.649
N1212 X118.003 Y475.032 Z10.648
N1213 X118.064 Y475.228 Z10.646
N1214 X118.139 Y475.42 Z10.645
N1215 X118.228 Y475.605 Z10.644
N1216 X118.33 Y475.783 Z10.642
N1217 X174.049 Y565.095 Z9.921
N1218 X174.165 Y565.266 Z9.92
N1219 X174.293 Y565.428 Z9.918
N1220 X174.433 Y565.581 Z9.917
N1221 X174.584 Y565.722 Z9.915
N1222 X174.744 Y565.852 Z9.914
N1223 X174.914 Y565.97 Z9.912
N1224 X175.092 Y566.075 Z9.911
N1225 X175.277 Y566.167 Z9.91
N1226 X175.469 Y566.245 Z9.908
N1227 X175.665 Y566.308 Z9.907
N1228 X175.866 Y566.357 Z9.905
N1229 X176.07 Y566.39 Z9.904
N1230 X176.276 Y566.409 Z9.903
N1231 X176.482 Y566.412 Z9.901
N1232 X176.689 Y566.401 Z9.9
N1233 X176.894 Y566.373 Z9.898
N1234 X177.096 Y566.331 Z9.897
N1235 X177.295 Y566.275 Z9.895
N1236 X177.489 Y566.203 Z9.894
N1237 X177.677 Y566.118 Z9.893
N1238 X177.858 Y566.018 Z9.891
N1239 X178.032 Y565.906 Z9.89
N1240 X178.196 Y565.781 Z9.888
N1241 X178.351 Y565.645 Z9.887
N1242 X178.496 Y565.497 Z9.886
N1243 X178.629 Y565.339 Z9.884
N1244 X178.751 Y565.172 Z9.883
N1245 X178.859 Y564.996 Z9.881
N1246 X178.955 Y564.813 Z9.88
N1247 X179.036 Y564.623 Z9.878
N1248 X179.104 Y564.428 Z9.877
N1249 X179.157 Y564.228 Z9.876
N1250 X179.195 Y564.025 Z9.874
N1251 X179.217 Y563.819 Z9.873
N1252 X179.225 Y563.613 Z9.871
N1253 Y436.436 Z9
N1254 Y305.657 F2760
N1255 X179.218 Y305.457
N1256 X179.197 Y305.259
N1257 X179.161 Y305.062
N1258 X179.112 Y304.868
N1259 X179.049 Y304.679
N1260 X178.972 Y304.494
N1261 X178.883 Y304.315
N1262 X178.781 Y304.144
N1263 X178.667 Y303.979
N1264 X178.541 Y303.824
N1265 X178.405 Y303.677
N1266 X178.316 Y303.577
N1267 X178.238 Y303.467
N1268 X178.173 Y303.35
N1269 X178.121 Y303.225
N1270 X178.084 Y303.096
N1271 X178.061 Y302.963
N1272 X178.054 Y302.829
N1273 X178.061 Y302.695
N1274 X178.084 Y302.562
N1275 X178.121 Y302.433
N1276 X178.173 Y302.308
N1277 X178.238 Y302.19
N1278 X178.316 Y302.081
N1279 X178.405 Y301.98
N1280 X178.506 Y301.891
N1281 X178.615 Y301.813
N1282 X178.733 Y301.748
N1283 X178.858 Y301.696
N1284 X178.987 Y301.659
N1285 X179.12 Y301.636
N1286 X179.254 Y301.629
N1287 X179.388 Y301.636
N1288 X179.521 Y301.659
N1289 X179.65 Y301.696
N1290 X179.775 Y301.748
N1291 X179.892 Y301.813
N1292 X180.002 Y301.891
N1293 X180.102 Y301.98
N1294 X180.249 Y302.116
N1295 X180.404 Y302.242
N1296 X180.569 Y302.356
N1297 X180.74 Y302.458
N1298 X180.919 Y302.547
N1299 X181.104 Y302.624
N1300 X181.293 Y302.687
N1301 X181.487 Y302.736
N1302 X181.684 Y302.772
N1303 X181.882 Y302.793
N1304 X182.082 Y302.8
N1305 X188.769
N1306 X188.969 Y302.793
N1307 X189.167 Y302.771
N1308 X189.364 Y302.736
N1309 X189.558 Y302.687
N1310 X189.748 Y302.623
N1311 X189.932 Y302.547
N1312 X190.111 Y302.457
N1313 X190.283 Y302.355
N1314 X190.447 Y302.241
N1315 X190.603 Y302.116
N1316 X190.749 Y301.98
N1317 X190.849 Y301.89
N1318 X190.959 Y301.812
N1319 X191.077 Y301.747
N1320 X191.201 Y301.696
N1321 X191.33 Y301.658
N1322 X191.463 Y301.636
N1323 X191.597 Y301.628
N1324 X191.732 Y301.636
N1325 X191.864 Y301.659
N1326 X191.994 Y301.696
N1327 X192.118 Y301.747
N1328 X192.236 Y301.812
N1329 X192.345 Y301.89
N1330 X192.446 Y301.98
N1331 X192.535 Y302.08
N1332 X192.613 Y302.19
N1333 X192.678 Y302.308
N1334 X192.73 Y302.432
N1335 X192.767 Y302.561
N1336 X192.79 Y302.694
N1337 X192.797 Y302.828
N1338 X192.79 Y302.963
N1339 X192.767 Y303.095
N1340 X192.73 Y303.225
N1341 X192.678 Y303.349
N1342 X192.613 Y303.467
N1343 X192.535 Y303.576
N1344 X192.446 Y303.677
N1345 X192.309 Y303.823
N1346 X192.184 Y303.979
N1347 X192.07 Y304.143
N1348 X191.968 Y304.315
N1349 X191.878 Y304.494
N1350 X191.802 Y304.678
N1351 X191.738 Y304.868
N1352 X191.689 Y305.062
N1353 X191.654 Y305.258
N1354 X191.632 Y305.457
N1355 X191.625 Y305.657
N1356 Y563.613
N1357 X191.633 Y563.819
N1358 X191.655 Y564.025
N1359 X191.693 Y564.228
N1360 X191.746 Y564.428
N1361 X191.814 Y564.623
N1362 X191.895 Y564.813
N1363 X191.991 Y564.996
N1364 X192.099 Y565.172
N1365 X192.221 Y565.339
N1366 X192.354 Y565.497
N1367 X192.499 Y565.645
N1368 X192.654 Y565.781
N1369 X192.818 Y565.906
N1370 X192.992 Y566.018
N1371 X193.173 Y566.118
N1372 X193.361 Y566.203
N1373 X193.555 Y566.275
N1374 X193.754 Y566.331
N1375 X193.956 Y566.373
N1376 X194.161 Y566.401
N1377 X194.368 Y566.412
N1378 X194.574 Y566.409
N1379 X194.78 Y566.39
N1380 X194.984 Y566.357
N1381 X195.185 Y566.308
N1382 X195.381 Y566.245
N1383 X195.573 Y566.167
N1384 X195.758 Y566.075
N1385 X195.936 Y565.97
N1386 X196.106 Y565.852
N1387 X196.266 Y565.722
N1388 X196.417 Y565.581
N1389 X196.557 Y565.428
N1390 X196.685 Y565.266
N1391 X196.801 Y565.095
N1392 X252.521 Y475.783
N1393 X252.623 Y475.605
N1394 X252.712 Y475.42
N1395 X252.787 Y475.228
N1396 X252.848 Y475.032
N1397 X252.894 Y474.832
N1398 X252.926 Y474.629
N1399 X252.942 Y474.424
N1400 X252.944 Y474.219
N1401 X252.93 Y474.014
N1402 X252.902 Y473.81
N1403 X252.858 Y473.609
N1404 X252.8 Y473.412
N1405 X252.728 Y473.22
N1406 X252.642 Y473.033
N1407 X252.542 Y472.854
N1408 X252.429 Y472.682
N1409 X252.304 Y472.519
N1410 X252.168 Y472.365
N1411 X252.021 Y472.222
N1412 X251.863 Y472.09
N1413 X251.696 Y471.97
N1414 X251.521 Y471.863
N1415 X251.339 Y471.768
N1416 X251.15 Y471.687
N1417 X250.955 Y471.621
N1418 X250.757 Y471.569
N1419 X250.555 Y471.531
N1420 X250.35 Y471.509
N1421 X250.145 Y471.501
N1422 X226.895
N1423 X281.924 Y365.56
N1424 X282.012 Y365.374
N1425 X282.086 Y365.183
N1426 X282.145 Y364.987
N1427 X282.191 Y364.787
N1428 X282.221 Y364.585
N1429 X282.237 Y364.38
N1430 Y364.175
N1431 X282.223 Y363.971
N1432 X282.194 Y363.768
N1433 X282.15 Y363.568
N1434 X282.091 Y363.372
N1435 X282.019 Y363.18
N1436 X281.932 Y362.994
N1437 X281.832 Y362.815
N1438 X281.719 Y362.644
N1439 X281.594 Y362.482
N1440 X281.458 Y362.329
N1441 X281.311 Y362.186
N1442 X281.153 Y362.055
N1443 X280.987 Y361.936
N1444 X280.812 Y361.829
N1445 X280.63 Y361.735
N1446 X280.441 Y361.654
N1447 X280.247 Y361.588
N1448 X280.049 Y361.536
N1449 X279.848 Y361.499
N1450 X279.644 Y361.476
N1451 X279.439 Y361.469
N1452 X248.709
N1453 X314.695 Y253.555
N1454 X314.795 Y253.376
N1455 X314.882 Y253.191
N1456 X314.955 Y253
N1457 X315.014 Y252.804
N1458 X315.059 Y252.605
N1459 X315.089 Y252.402
N1460 X315.104 Y252.198
N1461 Y251.993
N1462 X315.089 Y251.789
N1463 X315.06 Y251.587
N1464 X315.015 Y251.387
N1465 X314.956 Y251.191
N1466 X314.883 Y251
N1467 X314.797 Y250.815
N1468 X314.697 Y250.636
N1469 X314.584 Y250.466
N1470 X314.459 Y250.304
N1471 X314.322 Y250.151
N1472 X314.175 Y250.009
N1473 X314.018 Y249.878
N1474 X313.851 Y249.759
N1475 X313.677 Y249.653
N1476 X313.495 Y249.559
N1477 X313.307 Y249.479
N1478 X313.113 Y249.413
N1479 X312.915 Y249.361
N1480 X312.714 Y249.324
N1481 X312.51 Y249.301
N1482 X312.306 Y249.294
N1483 X279.089
N1484 X342.831 Y145.049
N1485 X342.931 Y144.87
N1486 X343.018 Y144.685
N1487 X343.091 Y144.494
N1488 X343.15 Y144.298
N1489 X343.195 Y144.099
N1490 X343.225 Y143.896
N1491 X343.24 Y143.692
N1492 Y143.487
N1493 X343.225 Y143.283
N1494 X343.196 Y143.081
N1495 X343.151 Y142.881
N1496 X343.092 Y142.685
N1497 X343.019 Y142.494
N1498 X342.933 Y142.309
N1499 X342.833 Y142.13
N1500 X342.72 Y141.96
N1501 X342.595 Y141.798
N1502 X342.458 Y141.645
N1503 X342.311 Y141.503
N1504 X342.154 Y141.372
N1505 X341.987 Y141.253
N1506 X341.813 Y141.147
N1507 X341.631 Y141.053
N1508 X341.443 Y140.973
N1509 X341.249 Y140.907
N1510 X341.051 Y140.855
N1511 X340.85 Y140.818
N1512 X340.646 Y140.795
N1513 X340.442 Y140.788
N1514 X308.419
N1515 X373.24 Y34.78
N1516 X373.34 Y34.601
N1517 X373.427 Y34.416
N1518 X373.5 Y34.225
N1519 X373.559 Y34.029
N1520 X373.604 Y33.829
N1521 X373.634 Y33.627
N1522 X373.649 Y33.423
N1523 Y33.218
N1524 X373.634 Y33.014
N1525 X373.605 Y32.812
N1526 X373.56 Y32.612
N1527 X373.501 Y32.416
N1528 X373.428 Y32.225
N1529 X373.342 Y32.04
N1530 X373.242 Y31.861
N1531 X373.129 Y31.691
N1532 X373.004 Y31.529
N1533 X372.867 Y31.376
N1534 X372.72 Y31.234
N1535 X372.563 Y31.103
N1536 X372.397 Y30.984
N1537 X372.222 Y30.877
N1538 X372.04 Y30.784
N1539 X371.852 Y30.704
N1540 X371.658 Y30.638
N1541 X371.46 Y30.586
N1542 X371.259 Y30.549
N1543 X371.055 Y30.526
N1544 X370.851 Y30.519
N1545 X265.014
N1546 Y0
N1547 X265.006 Y-0.209
N1548 X264.983 Y-0.417
N1549 X264.944 Y-0.623
N1550 X264.89 Y-0.825
N1551 X264.82 Y-1.023
N1552 X264.737 Y-1.215
N1553 X264.639 Y-1.4
N1554 X264.527 Y-1.577
N1555 X264.403 Y-1.746
N1556 X264.267 Y-1.904
N1557 X264.118 Y-2.053
N1558 X263.96 Y-2.189
N1559 X263.791 Y-2.313
N1560 X263.614 Y-2.425
N1561 X263.429 Y-2.523
N1562 X263.237 Y-2.606
N1563 X263.039 Y-2.676
N1564 X262.837 Y-2.73
N1565 X262.631 Y-2.769
N1566 X262.423 Y-2.792
N1567 X262.214 Y-2.8
N1568 X108.637
N1569 X108.428 Y-2.792
N1570 X108.22 Y-2.769
N1571 X108.014 Y-2.73
N1572 X107.812 Y-2.676
N1573 X107.614 Y-2.606
N1574 X107.422 Y-2.523
N1575 X107.237 Y-2.425
N1576 X107.06 Y-2.313
N1577 X106.891 Y-2.189
N1578 X106.733 Y-2.053
N1579 X106.584 Y-1.904
N1580 X106.448 Y-1.746
N1581 X106.324 Y-1.577
N1582 X106.212 Y-1.4
N1583 X106.114 Y-1.215
N1584 X106.031 Y-1.023
N1585 X105.961 Y-0.825
N1586 X105.907 Y-0.623
N1587 X105.868 Y-0.417
N1588 X105.845 Y-0.209
N1589 X105.837 Y0
N1590 Y30.519
N1591 X0
N1592 X-0.204 Y30.526
N1593 X-0.408 Y30.549
N1594 X-0.609 Y30.586
N1595 X-0.807 Y30.638
N1596 X-1.001 Y30.704
N1597 X-1.189 Y30.784
N1598 X-1.371 Y30.877
N1599 X-1.545 Y30.984
N1600 X-1.712 Y31.103
N1601 X-1.869 Y31.234
N1602 X-2.016 Y31.376
N1603 X-2.153 Y31.529
N1604 X-2.278 Y31.691
N1605 X-2.391 Y31.861
N1606 X-2.491 Y32.04
N1607 X-2.577 Y32.225
N1608 X-2.65 Y32.416
N1609 X-2.709 Y32.612
N1610 X-2.754 Y32.812
N1611 X-2.783 Y33.014
N1612 X-2.798 Y33.218
N1613 Y33.423
N1614 X-2.783 Y33.627
N1615 X-2.753 Y33.829
N1616 X-2.708 Y34.029
N1617 X-2.649 Y34.225
N1618 X-2.576 Y34.416
N1619 X-2.489 Y34.601
N1620 X-2.389 Y34.78
N1621 X62.431 Y140.788
N1622 X30.409
N1623 X30.204 Y140.795
N1624 X30.001 Y140.818
N1625 X29.799 Y140.855
N1626 X29.602 Y140.907
N1627 X29.408 Y140.973
N1628 X29.22 Y141.053
N1629 X29.038 Y141.147
N1630 X28.863 Y141.253
N1631 X28.697 Y141.372
N1632 X28.539 Y141.503
N1633 X28.392 Y141.645
N1634 X28.256 Y141.798
N1635 X28.131 Y141.96
N1636 X28.018 Y142.13
N1637 X27.918 Y142.309
N1638 X27.831 Y142.494
N1639 X27.758 Y142.685
N1640 X27.699 Y142.881
N1641 X27.655 Y143.081
N1642 X27.625 Y143.283
N1643 X27.61 Y143.487
N1644 Y143.692
N1645 X27.626 Y143.896
N1646 X27.655 Y144.099
N1647 X27.7 Y144.298
N1648 X27.759 Y144.494
N1649 X27.832 Y144.685
N1650 X27.919 Y144.87
N1651 X28.02 Y145.049
N1652 X91.762 Y249.294
N1653 X58.545
N1654 X58.34 Y249.301
N1655 X58.137 Y249.324
N1656 X57.936 Y249.361
N1657 X57.738 Y249.413
N1658 X57.544 Y249.479
N1659 X57.356 Y249.559
N1660 X57.174 Y249.653
N1661 X56.999 Y249.759
N1662 X56.833 Y249.878
N1663 X56.676 Y250.009
N1664 X56.528 Y250.151
N1665 X56.392 Y250.304
N1666 X56.267 Y250.466
N1667 X56.154 Y250.636
N1668 X56.054 Y250.815
N1669 X55.967 Y251
N1670 X55.894 Y251.191
N1671 X55.835 Y251.387
N1672 X55.791 Y251.587
N1673 X55.761 Y251.789
N1674 X55.747 Y251.993
N1675 Y252.198
N1676 X55.762 Y252.402
N1677 X55.792 Y252.605
N1678 X55.836 Y252.804
N1679 X55.895 Y253
N1680 X55.969 Y253.191
N1681 X56.056 Y253.376
N1682 X56.156 Y253.555
N1683 X115.307 Y350.292
N1684 X122.142 Y361.469
N1685 X91.411
N1686 X91.207 Y361.476
N1687 X91.003 Y361.499
N1688 X90.801 Y361.536
N1689 X90.603 Y361.588
N1690 X90.409 Y361.655
N1691 X90.221 Y361.735
N1692 X90.038 Y361.829
N1693 X89.864 Y361.936
N1694 X89.697 Y362.055
N1695 X89.54 Y362.186
N1696 X89.392 Y362.329
N1697 X89.256 Y362.482
N1698 X89.131 Y362.644
N1699 X89.018 Y362.815
N1700 X88.918 Y362.994
N1701 X88.832 Y363.18
N1702 X88.759 Y363.372
N1703 X88.701 Y363.568
N1704 X88.657 Y363.768
N1705 X88.627 Y363.971
N1706 X88.613 Y364.176
N1707 X88.614 Y364.38
N1708 X88.629 Y364.585
N1709 X88.66 Y364.787
N1710 X88.705 Y364.987
N1711 X88.765 Y365.183
N1712 X88.839 Y365.374
N1713 X88.927 Y365.56
N1714 X143.956 Y471.501
N1715 X120.706
N1716 X120.501 Y471.509
N1717 X120.296 Y471.531
N1718 X120.094 Y471.569
N1719 X119.896 Y471.621
N1720 X119.701 Y471.687
N1721 X119.512 Y471.768
N1722 X119.33 Y471.863
N1723 X119.155 Y471.97
N1724 X118.988 Y472.09
N1725 X118.83 Y472.222
N1726 X118.683 Y472.365
N1727 X118.547 Y472.519
N1728 X118.422 Y472.682
N1729 X118.309 Y472.854
N1730 X118.209 Y473.033
N1731 X118.123 Y473.22
N1732 X118.051 Y473.412
N1733 X117.993 Y473.609
N1734 X117.949 Y473.81
N1735 X117.921 Y474.014
N1736 X117.907 Y474.219
N1737 X117.909 Y474.424
N1738 X117.925 Y474.629
N1739 X117.957 Y474.832
N1740 X118.003 Y475.032
N1741 X118.064 Y475.228
N1742 X118.139 Y475.42
N1743 X118.228 Y475.605
N1744 X118.33 Y475.783
N1745 X174.049 Y565.095
N1746 X174.165 Y565.266
N1747 X174.293 Y565.428
N1748 X174.433 Y565.581
N1749 X174.584 Y565.722
N1750 X174.744 Y565.852
N1751 X174.914 Y565.97
N1752 X175.092 Y566.075
N1753 X175.277 Y566.167
N1754 X175.469 Y566.245
N1755 X175.665 Y566.308
N1756 X175.866 Y566.357
N1757 X176.07 Y566.39
N1758 X176.276 Y566.409
N1759 X176.482 Y566.412
N1760 X176.689 Y566.401
N1761 X176.894 Y566.373
N1762 X177.096 Y566.331
N1763 X177.295 Y566.275
N1764 X177.489 Y566.203
N1765 X177.677 Y566.118
N1766 X177.858 Y566.018
N1767 X178.032 Y565.906
N1768 X178.196 Y565.781
N1769 X178.351 Y565.645
N1770 X178.496 Y565.497
N1771 X178.629 Y565.339
N1772 X178.751 Y565.172
N1773 X178.859 Y564.996
N1774 X178.955 Y564.813
N1775 X179.036 Y564.623
N1776 X179.104 Y564.428
N1777 X179.157 Y564.228
N1778 X179.195 Y564.025
N1779 X179.217 Y563.819
N1780 X179.225 Y563.613
N1781 Y436.436
N1782 Y305.657 Z8.104 F2500
N1783 X179.218 Y305.457 Z8.103
N1784 X179.197 Y305.259 Z8.101
N1785 X179.161 Y305.062 Z8.1
N1786 X179.112 Y304.868 Z8.098
N1787 X179.049 Y304.679 Z8.097
N1788 X178.972 Y304.494 Z8.096
N1789 X178.883 Y304.315 Z8.094
N1790 X178.781 Y304.144 Z8.093
N1791 X178.667 Y303.979 Z8.092
N1792 X178.541 Y303.824 Z8.09
N1793 X178.405 Y303.677 Z8.089
N1794 X178.316 Y303.577 Z8.088
N1795 X178.238 Y303.467 Z8.087
N1796 X178.173 Y303.35 Z8.086
N1797 X178.121 Y303.225 Z8.085
N1798 X178.084 Y303.096 Z8.084
N1799 X178.061 Y302.963 Z8.083
N1800 X178.054 Y302.829 Z8.082
N1801 X178.061 Y302.695 Z8.081
N1802 X178.084 Y302.562
N1803 X178.121 Y302.433 Z8.08
N1804 X178.173 Y302.308 Z8.079
N1805 X178.238 Y302.19 Z8.078
N1806 X178.316 Y302.081 Z8.077
N1807 X178.405 Y301.98 Z8.076
N1808 X178.506 Y301.891 Z8.075
N1809 X178.615 Y301.813 Z8.074
N1810 X178.733 Y301.748 Z8.073
N1811 X178.858 Y301.696 Z8.072
N1812 X178.987 Y301.659 Z8.071
N1813 X179.12 Y301.636 Z8.07
N1814 X179.254 Y301.629 Z8.069
N1815 X179.388 Y301.636
N1816 X179.521 Y301.659 Z8.068
N1817 X179.65 Y301.696 Z8.067
N1818 X179.775 Y301.748 Z8.066
N1819 X179.892 Y301.813 Z8.065
N1820 X180.002 Y301.891 Z8.064
N1821 X180.102 Y301.98 Z8.063
N1822 X180.249 Y302.116 Z8.062
N1823 X180.404 Y302.242 Z8.06
N1824 X180.569 Y302.356 Z8.059
N1825 X180.74 Y302.458 Z8.058
N1826 X180.919 Y302.547 Z8.056
N1827 X181.104 Y302.624 Z8.055
N1828 X181.293 Y302.687 Z8.053
N1829 X181.487 Y302.736 Z8.052
N1830 X181.684 Y302.772 Z8.051
N1831 X181.882 Y302.793 Z8.049
N1832 X182.082 Y302.8 Z8.048
N1833 X188.769 Z8.002
N1834 X188.969 Y302.793 Z8.001
N1835 X189.167 Y302.771 Z7.999
N1836 X189.364 Y302.736 Z7.998
N1837 X189.558 Y302.687 Z7.997
N1838 X189.748 Y302.623 Z7.995
N1839 X189.932 Y302.547 Z7.994
N1840 X190.111 Y302.457 Z7.993
N1841 X190.283 Y302.355 Z7.991
N1842 X190.447 Y302.241 Z7.99
N1843 X190.603 Y302.116 Z7.988
N1844 X190.749 Y301.98 Z7.987
N1845 X190.849 Y301.89 Z7.986
N1846 X190.959 Y301.812 Z7.985
N1847 X191.077 Y301.747 Z7.984
N1848 X191.201 Y301.696 Z7.983
N1849 X191.33 Y301.658 Z7.982
N1850 X191.463 Y301.636
N1851 X191.597 Y301.628 Z7.981
N1852 X191.732 Y301.636 Z7.98
N1853 X191.864 Y301.659 Z7.979
N1854 X191.994 Y301.696 Z7.978
N1855 X192.118 Y301.747 Z7.977
N1856 X192.236 Y301.812 Z7.976
N1857 X192.345 Y301.89 Z7.975
N1858 X192.446 Y301.98 Z7.974
N1859 X192.535 Y302.08 Z7.973
N1860 X192.613 Y302.19 Z7.972
N1861 X192.678 Y302.308 Z7.971
N1862 X192.73 Y302.432 Z7.97
N1863 X192.767 Y302.561
N1864 X192.79 Y302.694 Z7.969
N1865 X192.797 Y302.828 Z7.968
N1866 X192.79 Y302.963 Z7.967
N1867 X192.767 Y303.095 Z7.966
N1868 X192.73 Y303.225 Z7.965
N1869 X192.678 Y303.349 Z7.964
N1870 X192.613 Y303.467 Z7.963
N1871 X192.535 Y303.576 Z7.962
N1872 X192.446 Y303.677 Z7.961
N1873 X192.309 Y303.823 Z7.96
N1874 X192.184 Y303.979 Z7.959
N1875 X192.07 Y304.143 Z7.957
N1876 X191.968 Y304.315 Z7.956
N1877 X191.878 Y304.494 Z7.954
N1878 X191.802 Y304.678 Z7.953
N1879 X191.738 Y304.868 Z7.952
N1880 X191.689 Y305.062 Z7.95
N1881 X191.654 Y305.258 Z7.949
N1882 X191.632 Y305.457 Z7.948
N1883 X191.625 Y305.657 Z7.946
N1884 Y563.613 Z6.179
N1885 X191.633 Y563.819 Z6.177
N1886 X191.655 Y564.025 Z6.176
N1887 X191.693 Y564.228 Z6.174
N1888 X191.746 Y564.428 Z6.173
N1889 X191.814 Y564.623 Z6.172
N1890 X191.895 Y564.813 Z6.17
N1891 X191.991 Y564.996 Z6.169
N1892 X192.099 Y565.172 Z6.167
N1893 X192.221 Y565.339 Z6.166
N1894 X192.354 Y565.497 Z6.165
N1895 X192.499 Y565.645 Z6.163
N1896 X192.654 Y565.781 Z6.162
N1897 X192.818 Y565.906 Z6.16
N1898 X192.992 Y566.018 Z6.159
N1899 X193.173 Y566.118 Z6.157
N1900 X193.361 Y566.203 Z6.156
N1901 X193.555 Y566.275 Z6.155
N1902 X193.754 Y566.331 Z6.153
N1903 X193.956 Y566.373 Z6.152
N1904 X194.161 Y566.401 Z6.15
N1905 X194.368 Y566.412 Z6.149
N1906 X194.574 Y566.409 Z6.148
N1907 X194.78 Y566.39 Z6.146
N1908 X194.984 Y566.357 Z6.145
N1909 X195.185 Y566.308 Z6.143
N1910 X195.381 Y566.245 Z6.142
N1911 X195.573 Y566.167 Z6.14
N1912 X195.758 Y566.075 Z6.139
N1913 X195.936 Y565.97 Z6.138
N1914 X196.106 Y565.852 Z6.136
N1915 X196.266 Y565.722 Z6.135
N1916 X196.417 Y565.581 Z6.133
N1917 X196.557 Y565.428 Z6.132
N1918 X196.685 Y565.266 Z6.131
N1919 X196.801 Y565.095 Z6.129
N1920 X206.778 Y549.102 Z6
N1921 X252.521 Y475.783 F2760
N1922 X252.623 Y475.605
N1923 X252.712 Y475.42
N1924 X252.787 Y475.228
N1925 X252.848 Y475.032
N1926 X252.894 Y474.832
N1927 X252.926 Y474.629
N1928 X252.942 Y474.424
N1929 X252.944 Y474.219
N1930 X252.93 Y474.014
N1931 X252.902 Y473.81
N1932 X252.858 Y473.609
N1933 X252.8 Y473.412
N1934 X252.728 Y473.22
N1935 X252.642 Y473.033
N1936 X252.542 Y472.854
N1937 X252.429 Y472.682
N1938 X252.304 Y472.519
N1939 X252.168 Y472.365
N1940 X252.021 Y472.222
N1941 X251.863 Y472.09
N1942 X251.696 Y471.97
N1943 X251.521 Y471.863
N1944 X251.339 Y471.768
N1945 X251.15 Y471.687
N1946 X250.955 Y471.621
N1947 X250.757 Y471.569
N1948 X250.555 Y471.531
N1949 X250.35 Y471.509
N1950 X250.145 Y471.501
N1951 X226.895
N1952 X281.924 Y365.56
N1953 X282.012 Y365.374
N1954 X282.086 Y365.183
N1955 X282.145 Y364.987
N1956 X282.191 Y364.787
N1957 X282.221 Y364.585
N1958 X282.237 Y364.38
N1959 Y364.175
N1960 X282.223 Y363.971
N1961 X282.194 Y363.768
N1962 X282.15 Y363.568
N1963 X282.091 Y363.372
N1964 X282.019 Y363.18
N1965 X281.932 Y362.994
N1966 X281.832 Y362.815
N1967 X281.719 Y362.644
N1968 X281.594 Y362.482
N1969 X281.458 Y362.329
N1970 X281.311 Y362.186
N1971 X281.153 Y362.055
N1972 X280.987 Y361.936
N1973 X280.812 Y361.829
N1974 X280.63 Y361.735
N1975 X280.441 Y361.654
N1976 X280.247 Y361.588
N1977 X280.049 Y361.536
N1978 X279.848 Y361.499
N1979 X279.644 Y361.476
N1980 X279.439 Y361.469
N1981 X248.709
N1982 X314.695 Y253.555
N1983 X314.795 Y253.376
N1984 X314.882 Y253.191
N1985 X314.955 Y253
N1986 X315.014 Y252.804
N1987 X315.059 Y252.605
N1988 X315.089 Y252.402
N1989 X315.104 Y252.198
N1990 Y251.993
N1991 X315.089 Y251.789
N1992 X315.06 Y251.587
N1993 X315.015 Y251.387
N1994 X314.956 Y251.191
N1995 X314.883 Y251
N1996 X314.797 Y250.815
N1997 X314.697 Y250.636
N1998 X314.584 Y250.466
N1999 X314.459 Y250.304
N2000 X314.322 Y250.151
N2001 X314.175 Y250.009
N2002 X314.018 Y249.878
N2003 X313.851 Y249.759
N2004 X313.677 Y249.653
N2005 X313.495 Y249.559
N2006 X313.307 Y249.479
N2007 X313.113 Y249.413
N2008 X312.915 Y249.361
N2009 X312.714 Y249.324
N2010 X312.51 Y249.301
N2011 X312.306 Y249.294
N2012 X279.089
N2013 X342.831 Y145.049
N2014 X342.931 Y144.87
N2015 X343.018 Y144.685
N2016 X343.091 Y144.494
N2017 X343.15 Y144.298
N2018 X343.195 Y144.099
N2019 X343.225 Y143.896
N2020 X343.24 Y143.692
N2021 Y143.487
N2022 X343.225 Y143.283
N2023 X343.196 Y143.081
N2024 X343.151 Y142.881
N2025 X343.092 Y142.685
N2026 X343.019 Y142.494
N2027 X342.933 Y142.309
N2028 X342.833 Y142.13
N2029 X342.72 Y141.96
N2030 X342.595 Y141.798
N2031 X342.458 Y141.645
N2032 X342.311 Y141.503
N2033 X342.154 Y141.372
N2034 X341.987 Y141.253
N2035 X341.813 Y141.147
N2036 X341.631 Y141.053
N2037 X341.443 Y140.973
N2038 X341.249 Y140.907
N2039 X341.051 Y140.855
N2040 X340.85 Y140.818
N2041 X340.646 Y140.795
N2042 X340.442 Y140.788
N2043 X308.419
N2044 X373.24 Y34.78
N2045 X373.34 Y34.601
N2046 X373.427 Y34.416
N2047 X373.5 Y34.225
N2048 X373.559 Y34.029
N2049 X373.604 Y33.829
N2050 X373.634 Y33.627
N2051 X373.649 Y33.423
N2052 Y33.218
N2053 X373.634 Y33.014
N2054 X373.605 Y32.812
N2055 X373.56 Y32.612
N2056 X373.501 Y32.416
N2057 X373.428 Y32.225
N2058 X373.342 Y32.04
N2059 X373.242 Y31.861
N2060 X373.129 Y31.691
N2061 X373.004 Y31.529
N2062 X372.867 Y31.376
N2063 X372.72 Y31.234
N2064 X372.563 Y31.103
N2065 X372.397 Y30.984
N2066 X372.222 Y30.877
N2067 X372.04 Y30.784
N2068 X371.852 Y30.704
N2069 X371.658 Y30.638
N2070 X371.46 Y30.586
N2071 X371.259 Y30.549
N2072 X371.055 Y30.526
N2073 X370.851 Y30.519
N2074 X265.014
N2075 Y0
N2076 X265.006 Y-0.209
N2077 X264.983 Y-0.417
N2078 X264.944 Y-0.623
N2079 X264.89 Y-0.825
N2080 X264.82 Y-1.023
N2081 X264.737 Y-1.215
N2082 X264.639 Y-1.4
N2083 X264.527 Y-1.577
N2084 X264.403 Y-1.746
N2085 X264.267 Y-1.904
N2086 X264.118 Y-2.053
N2087 X263.96 Y-2.189
N2088 X263.791 Y-2.313
N2089 X263.614 Y-2.425
N2090 X263.429 Y-2.523
N2091 X263.237 Y-2.606
N2092 X263.039 Y-2.676
N2093 X262.837 Y-2.73
N2094 X262.631 Y-2.769
N2095 X262.423 Y-2.792
N2096 X262.214 Y-2.8
N2097 X108.637
N2098 X108.428 Y-2.792
N2099 X108.22 Y-2.769
N2100 X108.014 Y-2.73
N2101 X107.812 Y-2.676
N2102 X107.614 Y-2.606
N2103 X107.422 Y-2.523
N2104 X107.237 Y-2.425
N2105 X107.06 Y-2.313
N2106 X106.891 Y-2.189
N2107 X106.733 Y-2.053
N2108 X106.584 Y-1.904
N2109 X106.448 Y-1.746
N2110 X106.324 Y-1.577
N2111 X106.212 Y-1.4
N2112 X106.114 Y-1.215
N2113 X106.031 Y-1.023
N2114 X105.961 Y-0.825
N2115 X105.907 Y-0.623
N2116 X105.868 Y-0.417
N2117 X105.845 Y-0.209
N2118 X105.837 Y0
N2119 Y30.519
N2120 X0
N2121 X-0.204 Y30.526
N2122 X-0.408 Y30.549
N2123 X-0.609 Y30.586
N2124 X-0.807 Y30.638
N2125 X-1.001 Y30.704
N2126 X-1.189 Y30.784
N2127 X-1.371 Y30.877
N2128 X-1.545 Y30.984
N2129 X-1.712 Y31.103
N2130 X-1.869 Y31.234
N2131 X-2.016 Y31.376
N2132 X-2.153 Y31.529
N2133 X-2.278 Y31.691
N2134 X-2.391 Y31.861
N2135 X-2.491 Y32.04
N2136 X-2.577 Y32.225
N2137 X-2.65 Y32.416
N2138 X-2.709 Y32.612
N2139 X-2.754 Y32.812
N2140 X-2.783 Y33.014
N2141 X-2.798 Y33.218
N2142 Y33.423
N2143 X-2.783 Y33.627
N2144 X-2.753 Y33.829
N2145 X-2.708 Y34.029
N2146 X-2.649 Y34.225
N2147 X-2.576 Y34.416
N2148 X-2.489 Y34.601
N2149 X-2.389 Y34.78
N2150 X62.431 Y140.788
N2151 X30.409
N2152 X30.204 Y140.795
N2153 X30.001 Y140.818
N2154 X29.799 Y140.855
N2155 X29.602 Y140.907
N2156 X29.408 Y140.973
N2157 X29.22 Y141.053
N2158 X29.038 Y141.147
N2159 X28.863 Y141.253
N2160 X28.697 Y141.372
N2161 X28.539 Y141.503
N2162 X28.392 Y141.645
N2163 X28.256 Y141.798
N2164 X28.131 Y141.96
N2165 X28.018 Y142.13
N2166 X27.918 Y142.309
N2167 X27.831 Y142.494
N2168 X27.758 Y142.685
N2169 X27.699 Y142.881
N2170 X27.655 Y143.081
N2171 X27.625 Y143.283
N2172 X27.61 Y143.487
N2173 Y143.692
N2174 X27.626 Y143.896
N2175 X27.655 Y144.099
N2176 X27.7 Y144.298
N2177 X27.759 Y144.494
N2178 X27.832 Y144.685
N2179 X27.919 Y144.87
N2180 X28.02 Y145.049
N2181 X91.762 Y249.294
N2182 X58.545
N2183 X58.34 Y249.301
N2184 X58.137 Y249.324
N2185 X57.936 Y249.361
N2186 X57.738 Y249.413
N2187 X57.544 Y249.479
N2188 X57.356 Y249.559
N2189 X57.174 Y249.653
N2190 X56.999 Y249.759
N2191 X56.833 Y249.878
N2192 X56.676 Y250.009
N2193 X56.528 Y250.151
N2194 X56.392 Y250.304
N2195 X56.267 Y250.466
N2196 X56.154 Y250.636
N2197 X56.054 Y250.815
N2198 X55.967 Y251
N2199 X55.894 Y251.191
N2200 X55.835 Y251.387
N2201 X55.791 Y251.587
N2202 X55.761 Y251.789
N2203 X55.747 Y251.993
N2204 Y252.198
N2205 X55.762 Y252.402
N2206 X55.792 Y252.605
N2207 X55.836 Y252.804
N2208 X55.895 Y253
N2209 X55.969 Y253.191
N2210 X56.056 Y253.376
N2211 X56.156 Y253.555
N2212 X122.142 Y361.469
N2213 X91.411
N2214 X91.207 Y361.476
N2215 X91.003 Y361.499
N2216 X90.801 Y361.536
N2217 X90.603 Y361.588
N2218 X90.409 Y361.655
N2219 X90.221 Y361.735
N2220 X90.038 Y361.829
N2221 X89.864 Y361.936
N2222 X89.697 Y362.055
N2223 X89.54 Y362.186
N2224 X89.392 Y362.329
N2225 X89.256 Y362.482
N2226 X89.131 Y362.644
N2227 X89.018 Y362.815
N2228 X88.918 Y362.994
N2229 X88.832 Y363.18
N2230 X88.759 Y363.372
N2231 X88.701 Y363.568
N2232 X88.657 Y363.768
N2233 X88.627 Y363.971
N2234 X88.613 Y364.176
N2235 X88.614 Y364.38
N2236 X88.629 Y364.585
N2237 X88.66 Y364.787
N2238 X88.705 Y364.987
N2239 X88.765 Y365.183
N2240 X88.839 Y365.374
N2241 X88.927 Y365.56
N2242 X143.956 Y471.501
N2243 X120.706
N2244 X120.501 Y471.509
N2245 X120.296 Y471.531
N2246 X120.094 Y471.569
N2247 X119.896 Y471.621
N2248 X119.701 Y471.687
N2249 X119.512 Y471.768
N2250 X119.33 Y471.863
N2251 X119.155 Y471.97
N2252 X118.988 Y472.09
N2253 X118.83 Y472.222
N2254 X118.683 Y472.365
N2255 X118.547 Y472.519
N2256 X118.422 Y472.682
N2257 X118.309 Y472.854
N2258 X118.209 Y473.033
N2259 X118.123 Y473.22
N2260 X118.051 Y473.412
N2261 X117.993 Y473.609
N2262 X117.949 Y473.81
N2263 X117.921 Y474.014
N2264 X117.907 Y474.219
N2265 X117.909 Y474.424
N2266 X117.925 Y474.629
N2267 X117.957 Y474.832
N2268 X118.003 Y475.032
N2269 X118.064 Y475.228
N2270 X118.139 Y475.42
N2271 X118.228 Y475.605
N2272 X118.33 Y475.783
N2273 X174.049 Y565.095
N2274 X174.165 Y565.266
N2275 X174.293 Y565.428
N2276 X174.433 Y565.581
N2277 X174.584 Y565.722
N2278 X174.744 Y565.852
N2279 X174.914 Y565.97
N2280 X175.092 Y566.075
N2281 X175.277 Y566.167
N2282 X175.469 Y566.245
N2283 X175.665 Y566.308
N2284 X175.866 Y566.357
N2285 X176.07 Y566.39
N2286 X176.276 Y566.409
N2287 X176.482 Y566.412
N2288 X176.689 Y566.401
N2289 X176.894 Y566.373
N2290 X177.096 Y566.331
N2291 X177.295 Y566.275
N2292 X177.489 Y566.203
N2293 X177.677 Y566.118
N2294 X177.858 Y566.018
N2295 X178.032 Y565.906
N2296 X178.196 Y565.781
N2297 X178.351 Y565.645
N2298 X178.496 Y565.497
N2299 X178.629 Y565.339
N2300 X178.751 Y565.172
N2301 X178.859 Y564.996
N2302 X178.955 Y564.813
N2303 X179.036 Y564.623
N2304 X179.104 Y564.428
N2305 X179.157 Y564.228
N2306 X179.195 Y564.025
N2307 X179.217 Y563.819
N2308 X179.225 Y563.613
N2309 Y305.657
N2310 X179.218 Y305.457
N2311 X179.197 Y305.259
N2312 X179.161 Y305.062
N2313 X179.112 Y304.868
N2314 X179.049 Y304.679
N2315 X178.972 Y304.494
N2316 X178.883 Y304.315
N2317 X178.781 Y304.144
N2318 X178.667 Y303.979
N2319 X178.541 Y303.824
N2320 X178.405 Y303.677
N2321 X178.316 Y303.577
N2322 X178.238 Y303.467
N2323 X178.173 Y303.35
N2324 X178.121 Y303.225
N2325 X178.084 Y303.096
N2326 X178.061 Y302.963
N2327 X178.054 Y302.829
N2328 X178.061 Y302.695
N2329 X178.084 Y302.562
N2330 X178.121 Y302.433
N2331 X178.173 Y302.308
N2332 X178.238 Y302.19
N2333 X178.316 Y302.081
N2334 X178.405 Y301.98
N2335 X178.506 Y301.891
N2336 X178.615 Y301.813
N2337 X178.733 Y301.748
N2338 X178.858 Y301.696
N2339 X178.987 Y301.659
N2340 X179.12 Y301.636
N2341 X179.254 Y301.629
N2342 X179.388 Y301.636
N2343 X179.521 Y301.659
N2344 X179.65 Y301.696
N2345 X179.775 Y301.748
N2346 X179.892 Y301.813
N2347 X180.002 Y301.891
N2348 X180.102 Y301.98
N2349 X180.249 Y302.116
N2350 X180.404 Y302.242
N2351 X180.569 Y302.356
N2352 X180.74 Y302.458
N2353 X180.919 Y302.547
N2354 X181.104 Y302.624
N2355 X181.293 Y302.687
N2356 X181.487 Y302.736
N2357 X181.684 Y302.772
N2358 X181.882 Y302.793
N2359 X182.082 Y302.8
N2360 X188.769
N2361 X188.969 Y302.793
N2362 X189.167 Y302.771
N2363 X189.364 Y302.736
N2364 X189.558 Y302.687
N2365 X189.748 Y302.623
N2366 X189.932 Y302.547
N2367 X190.111 Y302.457
N2368 X190.283 Y302.355
N2369 X190.447 Y302.241
N2370 X190.603 Y302.116
N2371 X190.749 Y301.98
N2372 X190.849 Y301.89
N2373 X190.959 Y301.812
N2374 X191.077 Y301.747
N2375 X191.201 Y301.696
N2376 X191.33 Y301.658
N2377 X191.463 Y301.636
N2378 X191.597 Y301.628
N2379 X191.732 Y301.636
N2380 X191.864 Y301.659
N2381 X191.994 Y301.696
N2382 X192.118 Y301.747
N2383 X192.236 Y301.812
N2384 X192.345 Y301.89
N2385 X192.446 Y301.98
N2386 X192.535 Y302.08
N2387 X192.613 Y302.19
N2388 X192.678 Y302.308
N2389 X192.73 Y302.432
N2390 X192.767 Y302.561
N2391 X192.79 Y302.694
N2392 X192.797 Y302.828
N2393 X192.79 Y302.963
N2394 X192.767 Y303.095
N2395 X192.73 Y303.225
N2396 X192.678 Y303.349
N2397 X192.613 Y303.467
N2398 X192.535 Y303.576
N2399 X192.446 Y303.677
N2400 X192.309 Y303.823
N2401 X192.184 Y303.979
N2402 X192.07 Y304.143
N2403 X191.968 Y304.315
N2404 X191.878 Y304.494
N2405 X191.802 Y304.678
N2406 X191.738 Y304.868
N2407 X191.689 Y305.062
N2408 X191.654 Y305.258
N2409 X191.632 Y305.457
N2410 X191.625 Y305.657
N2411 Y563.613
N2412 X191.633 Y563.819
N2413 X191.655 Y564.025
N2414 X191.693 Y564.228
N2415 X191.746 Y564.428
N2416 X191.814 Y564.623
N2417 X191.895 Y564.813
N2418 X191.991 Y564.996
N2419 X192.099 Y565.172
N2420 X192.221 Y565.339
N2421 X192.354 Y565.497
N2422 X192.499 Y565.645
N2423 X192.654 Y565.781
N2424 X192.818 Y565.906
N2425 X192.992 Y566.018
N2426 X193.173 Y566.118
N2427 X193.361 Y566.203
N2428 X193.555 Y566.275
N2429 X193.754 Y566.331
N2430 X193.956 Y566.373
N2431 X194.161 Y566.401
N2432 X194.368 Y566.412
N2433 X194.574 Y566.409
N2434 X194.78 Y566.39
N2435 X194.984 Y566.357
N2436 X195.185 Y566.308
N2437 X195.381 Y566.245
N2438 X195.573 Y566.167
N2439 X195.758 Y566.075
N2440 X195.936 Y565.97
N2441 X196.106 Y565.852
N2442 X196.266 Y565.722
N2443 X196.417 Y565.581
N2444 X196.557 Y565.428
N2445 X196.685 Y565.266
N2446 X196.801 Y565.095
N2447 X206.778 Y549.102
N2448 X252.521 Y475.783 Z5.408 F2500
N2449 X252.623 Y475.605 Z5.406
N2450 X252.712 Y475.42 Z5.405
N2451 X252.787 Y475.228 Z5.404
N2452 X252.848 Y475.032 Z5.402
N2453 X252.894 Y474.832 Z5.401
N2454 X252.926 Y474.629 Z5.399
N2455 X252.942 Y474.424 Z5.398
N2456 X252.944 Y474.219 Z5.397
N2457 X252.93 Y474.014 Z5.395
N2458 X252.902 Y473.81 Z5.394
N2459 X252.858 Y473.609 Z5.392
N2460 X252.8 Y473.412 Z5.391
N2461 X252.728 Y473.22 Z5.39
N2462 X252.642 Y473.033 Z5.388
N2463 X252.542 Y472.854 Z5.387
N2464 X252.429 Y472.682 Z5.385
N2465 X252.304 Y472.519 Z5.384
N2466 X252.168 Y472.365 Z5.383
N2467 X252.021 Y472.222 Z5.381
N2468 X251.863 Y472.09 Z5.38
N2469 X251.696 Y471.97 Z5.378
N2470 X251.521 Y471.863 Z5.377
N2471 X251.339 Y471.768 Z5.375
N2472 X251.15 Y471.687 Z5.374
N2473 X250.955 Y471.621 Z5.373
N2474 X250.757 Y471.569 Z5.371
N2475 X250.555 Y471.531 Z5.37
N2476 X250.35 Y471.509 Z5.368
N2477 X250.145 Y471.501 Z5.367
N2478 X226.895 Z5.208
N2479 X281.924 Y365.56 Z4.39
N2480 X282.012 Y365.374 Z4.388
N2481 X282.086 Y365.183 Z4.387
N2482 X282.145 Y364.987 Z4.386
N2483 X282.191 Y364.787 Z4.384
N2484 X282.221 Y364.585 Z4.383
N2485 X282.237 Y364.38 Z4.381
N2486 Y364.175 Z4.38
N2487 X282.223 Y363.971 Z4.379
N2488 X282.194 Y363.768 Z4.377
N2489 X282.15 Y363.568 Z4.376
N2490 X282.091 Y363.372 Z4.374
N2491 X282.019 Y363.18 Z4.373
N2492 X281.932 Y362.994 Z4.372
N2493 X281.832 Y362.815 Z4.37
N2494 X281.719 Y362.644 Z4.369
N2495 X281.594 Y362.482 Z4.367
N2496 X281.458 Y362.329 Z4.366
N2497 X281.311 Y362.186 Z4.364
N2498 X281.153 Y362.055 Z4.363
N2499 X280.987 Y361.936 Z4.362
N2500 X280.812 Y361.829 Z4.36
N2501 X280.63 Y361.735 Z4.359
N2502 X280.441 Y361.654 Z4.357
N2503 X280.247 Y361.588 Z4.356
N2504 X280.049 Y361.536 Z4.355
N2505 X279.848 Y361.499 Z4.353
N2506 X279.644 Y361.476 Z4.352
N2507 X279.439 Y361.469 Z4.35
N2508 X248.709 Z4.14
N2509 X314.695 Y253.555 Z3.273
N2510 X314.795 Y253.376 Z3.272
N2511 X314.882 Y253.191 Z3.27
N2512 X314.955 Y253 Z3.269
N2513 X315.014 Y252.804 Z3.268
N2514 X315.059 Y252.605 Z3.266
N2515 X315.089 Y252.402 Z3.265
N2516 X315.104 Y252.198 Z3.263
N2517 Y251.993 Z3.262
N2518 X315.089 Y251.789 Z3.261
N2519 X315.06 Y251.587 Z3.259
N2520 X315.015 Y251.387 Z3.258
N2521 X314.956 Y251.191 Z3.256
N2522 X314.883 Y251 Z3.255
N2523 X314.797 Y250.815 Z3.254
N2524 X314.697 Y250.636 Z3.252
N2525 X314.584 Y250.466 Z3.251
N2526 X314.459 Y250.304 Z3.249
N2527 X314.322 Y250.151 Z3.248
N2528 X314.175 Y250.009 Z3.247
N2529 X314.018 Y249.878 Z3.245
N2530 X313.851 Y249.759 Z3.244
N2531 X313.677 Y249.653 Z3.242
N2532 X313.495 Y249.559 Z3.241
N2533 X313.307 Y249.479 Z3.24
N2534 X313.113 Y249.413 Z3.238
N2535 X312.915 Y249.361 Z3.237
N2536 X312.714 Y249.324 Z3.235
N2537 X312.51 Y249.301 Z3.234
N2538 X312.306 Y249.294 Z3.233
N2539 X279.089 Z3.005
N2540 X279.466 Y248.678 Z3
N2541 X342.831 Y145.049 F2760
N2542 X342.931 Y144.87
N2543 X343.018 Y144.685
N2544 X343.091 Y144.494
N2545 X343.15 Y144.298
N2546 X343.195 Y144.099
N2547 X343.225 Y143.896
N2548 X343.24 Y143.692
N2549 Y143.487
N2550 X343.225 Y143.283
N2551 X343.196 Y143.081
N2552 X343.151 Y142.881
N2553 X343.092 Y142.685
N2554 X343.019 Y142.494
N2555 X342.933 Y142.309
N2556 X342.833 Y142.13
N2557 X342.72 Y141.96
N2558 X342.595 Y141.798
N2559 X342.458 Y141.645
N2560 X342.311 Y141.503
N2561 X342.154 Y141.372
N2562 X341.987 Y141.253
N2563 X341.813 Y141.147
N2564 X341.631 Y141.053
N2565 X341.443 Y140.973
N2566 X341.249 Y140.907
N2567 X341.051 Y140.855
N2568 X340.85 Y140.818
N2569 X340.646 Y140.795
N2570 X340.442 Y140.788
N2571 X308.419
N2572 X373.24 Y34.78
N2573 X373.34 Y34.601
N2574 X373.427 Y34.416
N2575 X373.5 Y34.225
N2576 X373.559 Y34.029
N2577 X373.604 Y33.829
N2578 X373.634 Y33.627
N2579 X373.649 Y33.423
N2580 Y33.218
N2581 X373.634 Y33.014
N2582 X373.605 Y32.812
N2583 X373.56 Y32.612
N2584 X373.501 Y32.416
N2585 X373.428 Y32.225
N2586 X373.342 Y32.04
N2587 X373.242 Y31.861
N2588 X373.129 Y31.691
N2589 X373.004 Y31.529
N2590 X372.867 Y31.376
N2591 X372.72 Y31.234
N2592 X372.563 Y31.103
N2593 X372.397 Y30.984
N2594 X372.222 Y30.877
N2595 X372.04 Y30.784
N2596 X371.852 Y30.704
N2597 X371.658 Y30.638
N2598 X371.46 Y30.586
N2599 X371.259 Y30.549
N2600 X371.055 Y30.526
N2601 X370.851 Y30.519
N2602 X265.014
N2603 Y0
N2604 X265.006 Y-0.209
N2605 X264.983 Y-0.417
N2606 X264.944 Y-0.623
N2607 X264.89 Y-0.825
N2608 X264.82 Y-1.023
N2609 X264.737 Y-1.215
N2610 X264.639 Y-1.4
N2611 X264.527 Y-1.577
N2612 X264.403 Y-1.746
N2613 X264.267 Y-1.904
N2614 X264.118 Y-2.053
N2615 X263.96 Y-2.189
N2616 X263.791 Y-2.313
N2617 X263.614 Y-2.425
N2618 X263.429 Y-2.523
N2619 X263.237 Y-2.606
N2620 X263.039 Y-2.676
N2621 X262.837 Y-2.73
N2622 X262.631 Y-2.769
N2623 X262.423 Y-2.792
N2624 X262.214 Y-2.8
N2625 X108.637
N2626 X108.428 Y-2.792
N2627 X108.22 Y-2.769
N2628 X108.014 Y-2.73
N2629 X107.812 Y-2.676
N2630 X107.614 Y-2.606
N2631 X107.422 Y-2.523
N2632 X107.237 Y-2.425
N2633 X107.06 Y-2.313
N2634 X106.891 Y-2.189
N2635 X106.733 Y-2.053
N2636 X106.584 Y-1.904
N2637 X106.448 Y-1.746
N2638 X106.324 Y-1.577
N2639 X106.212 Y-1.4
N2640 X106.114 Y-1.215
N2641 X106.031 Y-1.023
N2642 X105.961 Y-0.825
N2643 X105.907 Y-0.623
N2644 X105.868 Y-0.417
N2645 X105.845 Y-0.209
N2646 X105.837 Y0
N2647 Y30.519
N2648 X0
N2649 X-0.204 Y30.526
N2650 X-0.408 Y30.549
N2651 X-0.609 Y30.586
N2652 X-0.807 Y30.638
N2653 X-1.001 Y30.704
N2654 X-1.189 Y30.784
N2655 X-1.371 Y30.877
N2656 X-1.545 Y30.984
N2657 X-1.712 Y31.103
N2658 X-1.869 Y31.234
N2659 X-2.016 Y31.376
N2660 X-2.153 Y31.529
N2661 X-2.278 Y31.691
N2662 X-2.391 Y31.861
N2663 X-2.491 Y32.04
N2664 X-2.577 Y32.225
N2665 X-2.65 Y32.416
N2666 X-2.709 Y32.612
N2667 X-2.754 Y32.812
N2668 X-2.783 Y33.014
N2669 X-2.798 Y33.218
N2670 Y33.423
N2671 X-2.783 Y33.627
N2672 X-2.753 Y33.829
N2673 X-2.708 Y34.029
N2674 X-2.649 Y34.225
N2675 X-2.576 Y34.416
N2676 X-2.489 Y34.601
N2677 X-2.389 Y34.78
N2678 X62.431 Y140.788
N2679 X30.409
N2680 X30.204 Y140.795
N2681 X30.001 Y140.818
N2682 X29.799 Y140.855
N2683 X29.602 Y140.907
N2684 X29.408 Y140.973
N2685 X29.22 Y141.053
N2686 X29.038 Y141.147
N2687 X28.863 Y141.253
N2688 X28.697 Y141.372
N2689 X28.539 Y141.503
N2690 X28.392 Y141.645
N2691 X28.256 Y141.798
N2692 X28.131 Y141.96
N2693 X28.018 Y142.13
N2694 X27.918 Y142.309
N2695 X27.831 Y142.494
N2696 X27.758 Y142.685
N2697 X27.699 Y142.881
N2698 X27.655 Y143.081
N2699 X27.625 Y143.283
N2700 X27.61 Y143.487
N2701 Y143.692
N2702 X27.626 Y143.896
N2703 X27.655 Y144.099
N2704 X27.7 Y144.298
N2705 X27.759 Y144.494
N2706 X27.832 Y144.685
N2707 X27.919 Y144.87
N2708 X28.02 Y145.049
N2709 X91.762 Y249.294
N2710 X58.545
N2711 X58.34 Y249.301
N2712 X58.137 Y249.324
N2713 X57.936 Y249.361
N2714 X57.738 Y249.413
N2715 X57.544 Y249.479
N2716 X57.356 Y249.559
N2717 X57.174 Y249.653
N2718 X56.999 Y249.759
N2719 X56.833 Y249.878
N2720 X56.676 Y250.009
N2721 X56.528 Y250.151
N2722 X56.392 Y250.304
N2723 X56.267 Y250.466
N2724 X56.154 Y250.636
N2725 X56.054 Y250.815
N2726 X55.967 Y251
N2727 X55.894 Y251.191
N2728 X55.835 Y251.387
N2729 X55.791 Y251.587
N2730 X55.761 Y251.789
N2731 X55.747 Y251.993
N2732 Y252.198
N2733 X55.762 Y252.402
N2734 X55.792 Y252.605
N2735 X55.836 Y252.804
N2736 X55.895 Y253
N2737 X55.969 Y253.191
N2738 X56.056 Y253.376
N2739 X56.156 Y253.555
N2740 X122.142 Y361.469
N2741 X91.411
N2742 X91.207 Y361.476
N2743 X91.003 Y361.499
N2744 X90.801 Y361.536
N2745 X90.603 Y361.588
N2746 X90.409 Y361.655
N2747 X90.221 Y361.735
N2748 X90.038 Y361.829
N2749 X89.864 Y361.936
N2750 X89.697 Y362.055
N2751 X89.54 Y362.186
N2752 X89.392 Y362.329
N2753 X89.256 Y362.482
N2754 X89.131 Y362.644
N2755 X89.018 Y362.815
N2756 X88.918 Y362.994
N2757 X88.832 Y363.18
N2758 X88.759 Y363.372
N2759 X88.701 Y363.568
N2760 X88.657 Y363.768
N2761 X88.627 Y363.971
N2762 X88.613 Y364.176
N2763 X88.614 Y364.38
N2764 X88.629 Y364.585
N2765 X88.66 Y364.787
N2766 X88.705 Y364.987
N2767 X88.765 Y365.183
N2768 X88.839 Y365.374
N2769 X88.927 Y365.56
N2770 X143.956 Y471.501
N2771 X120.706
N2772 X120.501 Y471.509
N2773 X120.296 Y471.531
N2774 X120.094 Y471.569
N2775 X119.896 Y471.621
N2776 X119.701 Y471.687
N2777 X119.512 Y471.768
N2778 X119.33 Y471.863
N2779 X119.155 Y471.97
N2780 X118.988 Y472.09
N2781 X118.83 Y472.222
N2782 X118.683 Y472.365
N2783 X118.547 Y472.519
N2784 X118.422 Y472.682
N2785 X118.309 Y472.854
N2786 X118.209 Y473.033
N2787 X118.123 Y473.22
N2788 X118.051 Y473.412
N2789 X117.993 Y473.609
N2790 X117.949 Y473.81
N2791 X117.921 Y474.014
N2792 X117.907 Y474.219
N2793 X117.909 Y474.424
N2794 X117.925 Y474.629
N2795 X117.957 Y474.832
N2796 X118.003 Y475.032
N2797 X118.064 Y475.228
N2798 X118.139 Y475.42
N2799 X118.228 Y475.605
N2800 X118.33 Y475.783
N2801 X174.049 Y565.095
N2802 X174.165 Y565.266
N2803 X174.293 Y565.428
N2804 X174.433 Y565.581
N2805 X174.584 Y565.722
N2806 X174.744 Y565.852
N2807 X174.914 Y565.97
N2808 X175.092 Y566.075
N2809 X175.277 Y566.167
N2810 X175.469 Y566.245
N2811 X175.665 Y566.308
N2812 X175.866 Y566.357
N2813 X176.07 Y566.39
N2814 X176.276 Y566.409
N2815 X176.482 Y566.412
N2816 X176.689 Y566.401
N2817 X176.894 Y566.373
N2818 X177.096 Y566.331
N2819 X177.295 Y566.275
N2820 X177.489 Y566.203
N2821 X177.677 Y566.118
N2822 X177.858 Y566.018
N2823 X178.032 Y565.906
N2824 X178.196 Y565.781
N2825 X178.351 Y565.645
N2826 X178.496 Y565.497
N2827 X178.629 Y565.339
N2828 X178.751 Y565.172
N2829 X178.859 Y564.996
N2830 X178.955 Y564.813
N2831 X179.036 Y564.623
N2832 X179.104 Y564.428
N2833 X179.157 Y564.228
N2834 X179.195 Y564.025
N2835 X179.217 Y563.819
N2836 X179.225 Y563.613
N2837 Y305.657
N2838 X179.218 Y305.457
N2839 X179.197 Y305.259
N2840 X179.161 Y305.062
N2841 X179.112 Y304.868
N2842 X179.049 Y304.679
N2843 X178.972 Y304.494
N2844 X178.883 Y304.315
N2845 X178.781 Y304.144
N2846 X178.667 Y303.979
N2847 X178.541 Y303.824
N2848 X178.405 Y303.677
N2849 X178.316 Y303.577
N2850 X178.238 Y303.467
N2851 X178.173 Y303.35
N2852 X178.121 Y303.225
N2853 X178.084 Y303.096
N2854 X178.061 Y302.963
N2855 X178.054 Y302.829
N2856 X178.061 Y302.695
N2857 X178.084 Y302.562
N2858 X178.121 Y302.433
N2859 X178.173 Y302.308
N2860 X178.238 Y302.19
N2861 X178.316 Y302.081
N2862 X178.405 Y301.98
N2863 X178.506 Y301.891
N2864 X178.615 Y301.813
N2865 X178.733 Y301.748
N2866 X178.858 Y301.696
N2867 X178.987 Y301.659
N2868 X179.12 Y301.636
N2869 X179.254 Y301.629
N2870 X179.388 Y301.636
N2871 X179.521 Y301.659
N2872 X179.65 Y301.696
N2873 X179.775 Y301.748
N2874 X179.892 Y301.813
N2875 X180.002 Y301.891
N2876 X180.102 Y301.98
N2877 X180.249 Y302.116
N2878 X180.404 Y302.242
N2879 X180.569 Y302.356
N2880 X180.74 Y302.458
N2881 X180.919 Y302.547
N2882 X181.104 Y302.624
N2883 X181.293 Y302.687
N2884 X181.487 Y302.736
N2885 X181.684 Y302.772
N2886 X181.882 Y302.793
N2887 X182.082 Y302.8
N2888 X188.769
N2889 X188.969 Y302.793
N2890 X189.167 Y302.771
N2891 X189.364 Y302.736
N2892 X189.558 Y302.687
N2893 X189.748 Y302.623
N2894 X189.932 Y302.547
N2895 X190.111 Y302.457
N2896 X190.283 Y302.355
N2897 X190.447 Y302.241
N2898 X190.603 Y302.116
N2899 X190.749 Y301.98
N2900 X190.849 Y301.89
N2901 X190.959 Y301.812
N2902 X191.077 Y301.747
N2903 X191.201 Y301.696
N2904 X191.33 Y301.658
N2905 X191.463 Y301.636
N2906 X191.597 Y301.628
N2907 X191.732 Y301.636
N2908 X191.864 Y301.659
N2909 X191.994 Y301.696
N2910 X192.118 Y301.747
N2911 X192.236 Y301.812
N2912 X192.345 Y301.89
N2913 X192.446 Y301.98
N2914 X192.535 Y302.08
N2915 X192.613 Y302.19
N2916 X192.678 Y302.308
N2917 X192.73 Y302.432
N2918 X192.767 Y302.561
N2919 X192.79 Y302.694
N2920 X192.797 Y302.828
N2921 X192.79 Y302.963
N2922 X192.767 Y303.095
N2923 X192.73 Y303.225
N2924 X192.678 Y303.349
N2925 X192.613 Y303.467
N2926 X192.535 Y303.576
N2927 X192.446 Y303.677
N2928 X192.309 Y303.823
N2929 X192.184 Y303.979
N2930 X192.07 Y304.143
N2931 X191.968 Y304.315
N2932 X191.878 Y304.494
N2933 X191.802 Y304.678
N2934 X191.738 Y304.868
N2935 X191.689 Y305.062
N2936 X191.654 Y305.258
N2937 X191.632 Y305.457
N2938 X191.625 Y305.657
N2939 Y563.613
N2940 X191.633 Y563.819
N2941 X191.655 Y564.025
N2942 X191.693 Y564.228
N2943 X191.746 Y564.428
N2944 X191.814 Y564.623
N2945 X191.895 Y564.813
N2946 X191.991 Y564.996
N2947 X192.099 Y565.172
N2948 X192.221 Y565.339
N2949 X192.354 Y565.497
N2950 X192.499 Y565.645
N2951 X192.654 Y565.781
N2952 X192.818 Y565.906
N2953 X192.992 Y566.018
N2954 X193.173 Y566.118
N2955 X193.361 Y566.203
N2956 X193.555 Y566.275
N2957 X193.754 Y566.331
N2958 X193.956 Y566.373
N2959 X194.161 Y566.401
N2960 X194.368 Y566.412
N2961 X194.574 Y566.409
N2962 X194.78 Y566.39
N2963 X194.984 Y566.357
N2964 X195.185 Y566.308
N2965 X195.381 Y566.245
N2966 X195.573 Y566.167
N2967 X195.758 Y566.075
N2968 X195.936 Y565.97
N2969 X196.106 Y565.852
N2970 X196.266 Y565.722
N2971 X196.417 Y565.581
N2972 X196.557 Y565.428
N2973 X196.685 Y565.266
N2974 X196.801 Y565.095
N2975 X252.521 Y475.783
N2976 X252.623 Y475.605
N2977 X252.712 Y475.42
N2978 X252.787 Y475.228
N2979 X252.848 Y475.032
N2980 X252.894 Y474.832
N2981 X252.926 Y474.629
N2982 X252.942 Y474.424
N2983 X252.944 Y474.219
N2984 X252.93 Y474.014
N2985 X252.902 Y473.81
N2986 X252.858 Y473.609
N2987 X252.8 Y473.412
N2988 X252.728 Y473.22
N2989 X252.642 Y473.033
N2990 X252.542 Y472.854
N2991 X252.429 Y472.682
N2992 X252.304 Y472.519
N2993 X252.168 Y472.365
N2994 X252.021 Y472.222
N2995 X251.863 Y472.09
N2996 X251.696 Y471.97
N2997 X251.521 Y471.863
N2998 X251.339 Y471.768
N2999 X251.15 Y471.687
N3000 X250.955 Y471.621
N3001 X250.757 Y471.569
N3002 X250.555 Y471.531
N3003 X250.35 Y471.509
N3004 X250.145 Y471.501
N3005 X226.895
N3006 X281.924 Y365.56
N3007 X282.012 Y365.374
N3008 X282.086 Y365.183
N3009 X282.145 Y364.987
N3010 X282.191 Y364.787
N3011 X282.221 Y364.585
N3012 X282.237 Y364.38
N3013 Y364.175
N3014 X282.223 Y363.971
N3015 X282.194 Y363.768
N3016 X282.15 Y363.568
N3017 X282.091 Y363.372
N3018 X282.019 Y363.18
N3019 X281.932 Y362.994
N3020 X281.832 Y362.815
N3021 X281.719 Y362.644
N3022 X281.594 Y362.482
N3023 X281.458 Y362.329
N3024 X281.311 Y362.186
N3025 X281.153 Y362.055
N3026 X280.987 Y361.936
N3027 X280.812 Y361.829
N3028 X280.63 Y361.735
N3029 X280.441 Y361.654
N3030 X280.247 Y361.588
N3031 X280.049 Y361.536
N3032 X279.848 Y361.499
N3033 X279.644 Y361.476
N3034 X279.439 Y361.469
N3035 X248.709
N3036 X314.695 Y253.555
N3037 X314.795 Y253.376
N3038 X314.882 Y253.191
N3039 X314.955 Y253
N3040 X315.014 Y252.804
N3041 X315.059 Y252.605
N3042 X315.089 Y252.402
N3043 X315.104 Y252.198
N3044 Y251.993
N3045 X315.089 Y251.789
N3046 X315.06 Y251.587
N3047 X315.015 Y251.387
N3048 X314.956 Y251.191
N3049 X314.883 Y251
N3050 X314.797 Y250.815
N3051 X314.697 Y250.636
N3052 X314.584 Y250.466
N3053 X314.459 Y250.304
N3054 X314.322 Y250.151
N3055 X314.175 Y250.009
N3056 X314.018 Y249.878
N3057 X313.851 Y249.759
N3058 X313.677 Y249.653
N3059 X313.495 Y249.559
N3060 X313.307 Y249.479
N3061 X313.113 Y249.413
N3062 X312.915 Y249.361
N3063 X312.714 Y249.324
N3064 X312.51 Y249.301
N3065 X312.306 Y249.294
N3066 X279.089
N3067 X279.466 Y248.678
N3068 X342.831 Y145.049 Z2.168 F2500
N3069 X342.931 Y144.87 Z2.166
N3070 X343.018 Y144.685 Z2.165
N3071 X343.091 Y144.494 Z2.164
N3072 X343.15 Y144.298 Z2.162
N3073 X343.195 Y144.099 Z2.161
N3074 X343.225 Y143.896 Z2.159
N3075 X343.24 Y143.692 Z2.158
N3076 Y143.487 Z2.157
N3077 X343.225 Y143.283 Z2.155
N3078 X343.196 Y143.081 Z2.154
N3079 X343.151 Y142.881 Z2.152
N3080 X343.092 Y142.685 Z2.151
N3081 X343.019 Y142.494 Z2.15
N3082 X342.933 Y142.309 Z2.148
N3083 X342.833 Y142.13 Z2.147
N3084 X342.72 Y141.96 Z2.145
N3085 X342.595 Y141.798 Z2.144
N3086 X342.458 Y141.645 Z2.142
N3087 X342.311 Y141.503 Z2.141
N3088 X342.154 Y141.372 Z2.14
N3089 X341.987 Y141.253 Z2.138
N3090 X341.813 Y141.147 Z2.137
N3091 X341.631 Y141.053 Z2.135
N3092 X341.443 Y140.973 Z2.134
N3093 X341.249 Y140.907 Z2.133
N3094 X341.051 Y140.855 Z2.131
N3095 X340.85 Y140.818 Z2.13
N3096 X340.646 Y140.795 Z2.128
N3097 X340.442 Y140.788 Z2.127
N3098 X308.419 Z1.908
N3099 X373.24 Y34.78 Z1.056
N3100 X373.34 Y34.601 Z1.055
N3101 X373.427 Y34.416 Z1.053
N3102 X373.5 Y34.225 Z1.052
N3103 X373.559 Y34.029 Z1.051
N3104 X373.604 Y33.829 Z1.049
N3105 X373.634 Y33.627 Z1.048
N3106 X373.649 Y33.423 Z1.046
N3107 Y33.218 Z1.045
N3108 X373.634 Y33.014 Z1.044
N3109 X373.605 Y32.812 Z1.042
N3110 X373.56 Y32.612 Z1.041
N3111 X373.501 Y32.416 Z1.039
N3112 X373.428 Y32.225 Z1.038
N3113 X373.342 Y32.04 Z1.037
N3114 X373.242 Y31.861 Z1.035
N3115 X373.129 Y31.691 Z1.034
N3116 X373.004 Y31.529 Z1.032
N3117 X372.867 Y31.376 Z1.031
N3118 X372.72 Y31.234 Z1.03
N3119 X372.563 Y31.103 Z1.028
N3120 X372.397 Y30.984 Z1.027
N3121 X372.222 Y30.877 Z1.025
N3122 X372.04 Y30.784 Z1.024
N3123 X371.852 Y30.704 Z1.023
N3124 X371.658 Y30.638 Z1.021
N3125 X371.46 Y30.586 Z1.02
N3126 X371.259 Y30.549 Z1.018
N3127 X371.055 Y30.526 Z1.017
N3128 X370.851 Y30.519 Z1.016
N3129 X266.408 Z0.3
N3130 X265.014 F2760
N3131 Y0
N3132 X265.006 Y-0.209
N3133 X264.983 Y-0.417
N3134 X264.944 Y-0.623
N3135 X264.89 Y-0.825
N3136 X264.82 Y-1.023
N3137 X264.737 Y-1.215
N3138 X264.639 Y-1.4
N3139 X264.527 Y-1.577
N3140 X264.403 Y-1.746
N3141 X264.267 Y-1.904
N3142 X264.118 Y-2.053
N3143 X263.96 Y-2.189
N3144 X263.791 Y-2.313
N3145 X263.614 Y-2.425
N3146 X263.429 Y-2.523
N3147 X263.237 Y-2.606
N3148 X263.039 Y-2.676
N3149 X262.837 Y-2.73
N3150 X262.631 Y-2.769
N3151 X262.423 Y-2.792
N3152 X262.214 Y-2.8
N3153 X108.637
N3154 X108.428 Y-2.792
N3155 X108.22 Y-2.769
N3156 X108.014 Y-2.73
N3157 X107.812 Y-2.676
N3158 X107.614 Y-2.606
N3159 X107.422 Y-2.523
N3160 X107.237 Y-2.425
N3161 X107.06 Y-2.313
N3162 X106.891 Y-2.189
N3163 X106.733 Y-2.053
N3164 X106.584 Y-1.904
N3165 X106.448 Y-1.746
N3166 X106.324 Y-1.577
N3167 X106.212 Y-1.4
N3168 X106.114 Y-1.215
N3169 X106.031 Y-1.023
N3170 X105.961 Y-0.825
N3171 X105.907 Y-0.623
N3172 X105.868 Y-0.417
N3173 X105.845 Y-0.209
N3174 X105.837 Y0
N3175 Y30.519
N3176 X0
N3177 X-0.204 Y30.526
N3178 X-0.408 Y30.549
N3179 X-0.609 Y30.586
N3180 X-0.807 Y30.638
N3181 X-1.001 Y30.704
N3182 X-1.189 Y30.784
N3183 X-1.371 Y30.877
N3184 X-1.545 Y30.984
N3185 X-1.712 Y31.103
N3186 X-1.869 Y31.234
N3187 X-2.016 Y31.376
N3188 X-2.153 Y31.529
N3189 X-2.278 Y31.691
N3190 X-2.391 Y31.861
N3191 X-2.491 Y32.04
N3192 X-2.577 Y32.225
N3193 X-2.65 Y32.416
N3194 X-2.709 Y32.612
N3195 X-2.754 Y32.812
N3196 X-2.783 Y33.014
N3197 X-2.798 Y33.218
N3198 Y33.423
N3199 X-2.783 Y33.627
N3200 X-2.753 Y33.829
N3201 X-2.708 Y34.029
N3202 X-2.649 Y34.225
N3203 X-2.576 Y34.416
N3204 X-2.489 Y34.601
N3205 X-2.389 Y34.78
N3206 X62.431 Y140.788
N3207 X30.409
N3208 X30.204 Y140.795
N3209 X30.001 Y140.818
N3210 X29.799 Y140.855
N3211 X29.602 Y140.907
N3212 X29.408 Y140.973
N3213 X29.22 Y141.053
N3214 X29.038 Y141.147
N3215 X28.863 Y141.253
N3216 X28.697 Y141.372
N3217 X28.539 Y141.503
N3218 X28.392 Y141.645
N3219 X28.256 Y141.798
N3220 X28.131 Y141.96
N3221 X28.018 Y142.13
N3222 X27.918 Y142.309
N3223 X27.831 Y142.494
N3224 X27.758 Y142.685
N3225 X27.699 Y142.881
N3226 X27.655 Y143.081
N3227 X27.625 Y143.283
N3228 X27.61 Y143.487
N3229 Y143.692
N3230 X27.626 Y143.896
N3231 X27.655 Y144.099
N3232 X27.7 Y144.298
N3233 X27.759 Y144.494
N3234 X27.832 Y144.685
N3235 X27.919 Y144.87
N3236 X28.02 Y145.049
N3237 X91.762 Y249.294
N3238 X58.545
N3239 X58.34 Y249.301
N3240 X58.137 Y249.324
N3241 X57.936 Y249.361
N3242 X57.738 Y249.413
N3243 X57.544 Y249.479
N3244 X57.356 Y249.559
N3245 X57.174 Y249.653
N3246 X56.999 Y249.759
N3247 X56.833 Y249.878
N3248 X56.676 Y250.009
N3249 X56.528 Y250.151
N3250 X56.392 Y250.304
N3251 X56.267 Y250.466
N3252 X56.154 Y250.636
N3253 X56.054 Y250.815
N3254 X55.967 Y251
N3255 X55.894 Y251.191
N3256 X55.835 Y251.387
N3257 X55.791 Y251.587
N3258 X55.761 Y251.789
N3259 X55.747 Y251.993
N3260 Y252.198
N3261 X55.762 Y252.402
N3262 X55.792 Y252.605
N3263 X55.836 Y252.804
N3264 X55.895 Y253
N3265 X55.969 Y253.191
N3266 X56.056 Y253.376
N3267 X56.156 Y253.555
N3268 X122.142 Y361.469
N3269 X91.411
N3270 X91.207 Y361.476
N3271 X91.003 Y361.499
N3272 X90.801 Y361.536
N3273 X90.603 Y361.588
N3274 X90.409 Y361.655
N3275 X90.221 Y361.735
N3276 X90.038 Y361.829
N3277 X89.864 Y361.936
N3278 X89.697 Y362.055
N3279 X89.54 Y362.186
N3280 X89.392 Y362.329
N3281 X89.256 Y362.482
N3282 X89.131 Y362.644
N3283 X89.018 Y362.815
N3284 X88.918 Y362.994
N3285 X88.832 Y363.18
N3286 X88.759 Y363.372
N3287 X88.701 Y363.568
N3288 X88.657 Y363.768
N3289 X88.627 Y363.971
N3290 X88.613 Y364.176
N3291 X88.614 Y364.38
N3292 X88.629 Y364.585
N3293 X88.66 Y364.787
N3294 X88.705 Y364.987
N3295 X88.765 Y365.183
N3296 X88.839 Y365.374
N3297 X88.927 Y365.56
N3298 X143.956 Y471.501
N3299 X120.706
N3300 X120.501 Y471.509
N3301 X120.296 Y471.531
N3302 X120.094 Y471.569
N3303 X119.896 Y471.621
N3304 X119.701 Y471.687
N3305 X119.512 Y471.768
N3306 X119.33 Y471.863
N3307 X119.155 Y471.97
N3308 X118.988 Y472.09
N3309 X118.83 Y472.222
N3310 X118.683 Y472.365
N3311 X118.547 Y472.519
N3312 X118.422 Y472.682
N3313 X118.309 Y472.854
N3314 X118.209 Y473.033
N3315 X118.123 Y473.22
N3316 X118.051 Y473.412
N3317 X117.993 Y473.609
N3318 X117.949 Y473.81
N3319 X117.921 Y474.014
N3320 X117.907 Y474.219
N3321 X117.909 Y474.424
N3322 X117.925 Y474.629
N3323 X117.957 Y474.832
N3324 X118.003 Y475.032
N3325 X118.064 Y475.228
N3326 X118.139 Y475.42
N3327 X118.228 Y475.605
N3328 X118.33 Y475.783
N3329 X174.049 Y565.095
N3330 X174.165 Y565.266
N3331 X174.293 Y565.428
N3332 X174.433 Y565.581
N3333 X174.584 Y565.722
N3334 X174.744 Y565.852
N3335 X174.914 Y565.97
N3336 X175.092 Y566.075
N3337 X175.277 Y566.167
N3338 X175.469 Y566.245
N3339 X175.665 Y566.308
N3340 X175.866 Y566.357
N3341 X176.07 Y566.39
N3342 X176.276 Y566.409
N3343 X176.482 Y566.412
N3344 X176.689 Y566.401
N3345 X176.894 Y566.373
N3346 X177.096 Y566.331
N3347 X177.295 Y566.275
N3348 X177.489 Y566.203
N3349 X177.677 Y566.118
N3350 X177.858 Y566.018
N3351 X178.032 Y565.906
N3352 X178.196 Y565.781
N3353 X178.351 Y565.645
N3354 X178.496 Y565.497
N3355 X178.629 Y565.339
N3356 X178.751 Y565.172
N3357 X178.859 Y564.996
N3358 X178.955 Y564.813
N3359 X179.036 Y564.623
N3360 X179.104 Y564.428
N3361 X179.157 Y564.228
N3362 X179.195 Y564.025
N3363 X179.217 Y563.819
N3364 X179.225 Y563.613
N3365 Y305.657
N3366 X179.218 Y305.457
N3367 X179.197 Y305.259
N3368 X179.161 Y305.062
N3369 X179.112 Y304.868
N3370 X179.049 Y304.679
N3371 X178.972 Y304.494
N3372 X178.883 Y304.315
N3373 X178.781 Y304.144
N3374 X178.667 Y303.979
N3375 X178.541 Y303.824
N3376 X178.405 Y303.677
N3377 X178.316 Y303.577
N3378 X178.238 Y303.467
N3379 X178.173 Y303.35
N3380 X178.121 Y303.225
N3381 X178.084 Y303.096
N3382 X178.061 Y302.963
N3383 X178.054 Y302.829
N3384 X178.061 Y302.695
N3385 X178.084 Y302.562
N3386 X178.121 Y302.433
N3387 X178.173 Y302.308
N3388 X178.238 Y302.19
N3389 X178.316 Y302.081
N3390 X178.405 Y301.98
N3391 X178.506 Y301.891
N3392 X178.615 Y301.813
N3393 X178.733 Y301.748
N3394 X178.858 Y301.696
N3395 X178.987 Y301.659
N3396 X179.12 Y301.636
N3397 X179.254 Y301.629
N3398 X179.388 Y301.636
N3399 X179.521 Y301.659
N3400 X179.65 Y301.696
N3401 X179.775 Y301.748
N3402 X179.892 Y301.813
N3403 X180.002 Y301.891
N3404 X180.102 Y301.98
N3405 X180.249 Y302.116
N3406 X180.404 Y302.242
N3407 X180.569 Y302.356
N3408 X180.74 Y302.458
N3409 X180.919 Y302.547
N3410 X181.104 Y302.624
N3411 X181.293 Y302.687
N3412 X181.487 Y302.736
N3413 X181.684 Y302.772
N3414 X181.882 Y302.793
N3415 X182.082 Y302.8
N3416 X188.769
N3417 X188.969 Y302.793
N3418 X189.167 Y302.771
N3419 X189.364 Y302.736
N3420 X189.558 Y302.687
N3421 X189.748 Y302.623
N3422 X189.932 Y302.547
N3423 X190.111 Y302.457
N3424 X190.283 Y302.355
N3425 X190.447 Y302.241
N3426 X190.603 Y302.116
N3427 X190.749 Y301.98
N3428 X190.849 Y301.89
N3429 X190.959 Y301.812
N3430 X191.077 Y301.747
N3431 X191.201 Y301.696
N3432 X191.33 Y301.658
N3433 X191.463 Y301.636
N3434 X191.597 Y301.628
N3435 X191.732 Y301.636
N3436 X191.864 Y301.659
N3437 X191.994 Y301.696
N3438 X192.118 Y301.747
N3439 X192.236 Y301.812
N3440 X192.345 Y301.89
N3441 X192.446 Y301.98
N3442 X192.535 Y302.08
N3443 X192.613 Y302.19
N3444 X192.678 Y302.308
N3445 X192.73 Y302.432
N3446 X192.767 Y302.561
N3447 X192.79 Y302.694
N3448 X192.797 Y302.828
N3449 X192.79 Y302.963
N3450 X192.767 Y303.095
N3451 X192.73 Y303.225
N3452 X192.678 Y303.349
N3453 X192.613 Y303.467
N3454 X192.535 Y303.576
N3455 X192.446 Y303.677
N3456 X192.309 Y303.823
N3457 X192.184 Y303.979
N3458 X192.07 Y304.143
N3459 X191.968 Y304.315
N3460 X191.878 Y304.494
N3461 X191.802 Y304.678
N3462 X191.738 Y304.868
N3463 X191.689 Y305.062
N3464 X191.654 Y305.258
N3465 X191.632 Y305.457
N3466 X191.625 Y305.657
N3467 Y563.613
N3468 X191.633 Y563.819
N3469 X191.655 Y564.025
N3470 X191.693 Y564.228
N3471 X191.746 Y564.428
N3472 X191.814 Y564.623
N3473 X191.895 Y564.813
N3474 X191.991 Y564.996
N3475 X192.099 Y565.172
N3476 X192.221 Y565.339
N3477 X192.354 Y565.497
N3478 X192.499 Y565.645
N3479 X192.654 Y565.781
N3480 X192.818 Y565.906
N3481 X192.992 Y566.018
N3482 X193.173 Y566.118
N3483 X193.361 Y566.203
N3484 X193.555 Y566.275
N3485 X193.754 Y566.331
N3486 X193.956 Y566.373
N3487 X194.161 Y566.401
N3488 X194.368 Y566.412
N3489 X194.574 Y566.409
N3490 X194.78 Y566.39
N3491 X194.984 Y566.357
N3492 X195.185 Y566.308
N3493 X195.381 Y566.245
N3494 X195.573 Y566.167
N3495 X195.758 Y566.075
N3496 X195.936 Y565.97
N3497 X196.106 Y565.852
N3498 X196.266 Y565.722
N3499 X196.417 Y565.581
N3500 X196.557 Y565.428
N3501 X196.685 Y565.266
N3502 X196.801 Y565.095
N3503 X252.521 Y475.783
N3504 X252.623 Y475.605
N3505 X252.712 Y475.42
N3506 X252.787 Y475.228
N3507 X252.848 Y475.032
N3508 X252.894 Y474.832
N3509 X252.926 Y474.629
N3510 X252.942 Y474.424
N3511 X252.944 Y474.219
N3512 X252.93 Y474.014
N3513 X252.902 Y473.81
N3514 X252.858 Y473.609
N3515 X252.8 Y473.412
N3516 X252.728 Y473.22
N3517 X252.642 Y473.033
N3518 X252.542 Y472.854
N3519 X252.429 Y472.682
N3520 X252.304 Y472.519
N3521 X252.168 Y472.365
N3522 X252.021 Y472.222
N3523 X251.863 Y472.09
N3524 X251.696 Y471.97
N3525 X251.521 Y471.863
N3526 X251.339 Y471.768
N3527 X251.15 Y471.687
N3528 X250.955 Y471.621
N3529 X250.757 Y471.569
N3530 X250.555 Y471.531
N3531 X250.35 Y471.509
N3532 X250.145 Y471.501
N3533 X226.895
N3534 X281.924 Y365.56
N3535 X282.012 Y365.374
N3536 X282.086 Y365.183
N3537 X282.145 Y364.987
N3538 X282.191 Y364.787
N3539 X282.221 Y364.585
N3540 X282.237 Y364.38
N3541 Y364.175
N3542 X282.223 Y363.971
N3543 X282.194 Y363.768
N3544 X282.15 Y363.568
N3545 X282.091 Y363.372
N3546 X282.019 Y363.18
N3547 X281.932 Y362.994
N3548 X281.832 Y362.815
N3549 X281.719 Y362.644
N3550 X281.594 Y362.482
N3551 X281.458 Y362.329
N3552 X281.311 Y362.186
N3553 X281.153 Y362.055
N3554 X280.987 Y361.936
N3555 X280.812 Y361.829
N3556 X280.63 Y361.735
N3557 X280.441 Y361.654
N3558 X280.247 Y361.588
N3559 X280.049 Y361.536
N3560 X279.848 Y361.499
N3561 X279.644 Y361.476
N3562 X279.439 Y361.469
N3563 X248.709
N3564 X314.695 Y253.555
N3565 X314.795 Y253.376
N3566 X314.882 Y253.191
N3567 X314.955 Y253
N3568 X315.014 Y252.804
N3569 X315.059 Y252.605
N3570 X315.089 Y252.402
N3571 X315.104 Y252.198
N3572 Y251.993
N3573 X315.089 Y251.789
N3574 X315.06 Y251.587
N3575 X315.015 Y251.387
N3576 X314.956 Y251.191
N3577 X314.883 Y251
N3578 X314.797 Y250.815
N3579 X314.697 Y250.636
N3580 X314.584 Y250.466
N3581 X314.459 Y250.304
N3582 X314.322 Y250.151
N3583 X314.175 Y250.009
N3584 X314.018 Y249.878
N3585 X313.851 Y249.759
N3586 X313.677 Y249.653
N3587 X313.495 Y249.559
N3588 X313.307 Y249.479
N3589 X313.113 Y249.413
N3590 X312.915 Y249.361
N3591 X312.714 Y249.324
N3592 X312.51 Y249.301
N3593 X312.306 Y249.294
N3594 X279.089
N3595 X279.466 Y248.678
N3596 X342.831 Y145.049
N3597 X342.931 Y144.87
N3598 X343.018 Y144.685
N3599 X343.091 Y144.494
N3600 X343.15 Y144.298
N3601 X343.195 Y144.099
N3602 X343.225 Y143.896
N3603 X343.24 Y143.692
N3604 Y143.487
N3605 X343.225 Y143.283
N3606 X343.196 Y143.081
N3607 X343.151 Y142.881
N3608 X343.092 Y142.685
N3609 X343.019 Y142.494
N3610 X342.933 Y142.309
N3611 X342.833 Y142.13
N3612 X342.72 Y141.96
N3613 X342.595 Y141.798
N3614 X342.458 Y141.645
N3615 X342.311 Y141.503
N3616 X342.154 Y141.372
N3617 X341.987 Y141.253
N3618 X341.813 Y141.147
N3619 X341.631 Y141.053
N3620 X341.443 Y140.973
N3621 X341.249 Y140.907
N3622 X341.051 Y140.855
N3623 X340.85 Y140.818
N3624 X340.646 Y140.795
N3625 X340.442 Y140.788
N3626 X308.419
N3627 X373.24 Y34.78
N3628 X373.34 Y34.601
N3629 X373.427 Y34.416
N3630 X373.5 Y34.225
N3631 X373.559 Y34.029
N3632 X373.604 Y33.829
N3633 X373.634 Y33.627
N3634 X373.649 Y33.423
N3635 Y33.218
N3636 X373.634 Y33.014
N3637 X373.605 Y32.812
N3638 X373.56 Y32.612
N3639 X373.501 Y32.416
N3640 X373.428 Y32.225
N3641 X373.342 Y32.04
N3642 X373.242 Y31.861
N3643 X373.129 Y31.691
N3644 X373.004 Y31.529
N3645 X372.867 Y31.376
N3646 X372.72 Y31.234
N3647 X372.563 Y31.103
N3648 X372.397 Y30.984
N3649 X372.222 Y30.877
N3650 X372.04 Y30.784
N3651 X371.852 Y30.704
N3652 X371.658 Y30.638
N3653 X371.46 Y30.586
N3654 X371.259 Y30.549
N3655 X371.055 Y30.526
N3656 X370.851 Y30.519
N3657 X266.408
N3658 G0 Z33
N3659 M5
N3660 M0
%
