%
(Sapin_60_base)
(T2  D=6 CR=0 - ZMIN=0.3 - flat end mill)
N1 G90
N2 G21

(2D Contour3)
N3 T2
N4 S20000 M3
N5 G0 X117.324 Y143.8
N6 Z33
N7 Z23
N8 G1 Z22 F1000
N9 Z20.5
N10 X141 Z15.467 F2500
N11 X141.2 Y143.793 Z15.425
N12 X141.398 Y143.772 Z15.382
N13 X141.595 Y143.736 Z15.34
N14 X141.789 Y143.687 Z15.297
N15 X141.979 Y143.623 Z15.255
N16 X142.163 Y143.547 Z15.212
N17 X142.342 Y143.458 Z15.17
N18 X142.514 Y143.356 Z15.127
N19 X142.678 Y143.242 Z15.085
N20 X142.834 Y143.116 Z15.042
N21 X142.98 Y142.98 Z15
N22 X143.116 Y142.834 F2760
N23 X143.242 Y142.678
N24 X143.356 Y142.514
N25 X143.458 Y142.342
N26 X143.547 Y142.163
N27 X143.623 Y141.979
N28 X143.687 Y141.789
N29 X143.736 Y141.595
N30 X143.772 Y141.398
N31 X143.793 Y141.2
N32 X143.8 Y141
N33 Y77.212
N34 X143.792 Y77.002
N35 X143.769 Y76.794
N36 X143.73 Y76.588
N37 X143.676 Y76.386
N38 X143.606 Y76.189
N39 X143.523 Y75.997
N40 X143.425 Y75.812
N41 X143.313 Y75.634
N42 X143.189 Y75.466
N43 X143.053 Y75.307
N44 X142.904 Y75.159
N45 X142.746 Y75.022
N46 X142.577 Y74.898
N47 X142.4 Y74.787
N48 X142.215 Y74.689
N49 X142.023 Y74.605
N50 X141.825 Y74.536
N51 X141.623 Y74.482
N52 X141.417 Y74.443
N53 X141.209 Y74.419
N54 X141 Y74.411
N55 X140.862 Y74.404
N56 X140.727 Y74.38
N57 X140.594 Y74.341
N58 X140.468 Y74.287
N59 X140.348 Y74.219
N60 X140.237 Y74.137
N61 X140.135 Y74.044
N62 X140.046 Y73.939
N63 X139.969 Y73.825
N64 X139.905 Y73.702
N65 X139.856 Y73.574
N66 X139.822 Y73.44
N67 X139.804 Y73.303
N68 X139.801 Y73.166
N69 X139.814 Y73.028
N70 X139.843 Y72.894
N71 X139.887 Y72.763
N72 X139.946 Y72.638
N73 X140.018 Y72.521
N74 X140.104 Y72.413
N75 X140.202 Y72.316
N76 X140.31 Y72.23
N77 X140.427 Y72.157
N78 X140.551 Y72.099
N79 X140.682 Y72.054
N80 X140.817 Y72.026
N81 X140.954 Y72.012
N82 X141.092 Y72.015
N83 X141.228 Y72.033
N84 X141.362 Y72.067
N85 X141.491 Y72.117
N86 X141.613 Y72.18
N87 X141.727 Y72.257
N88 X141.832 Y72.347
N89 X141.926 Y72.448
N90 X142.007 Y72.559
N91 X142.075 Y72.679
N92 X142.129 Y72.806
N93 X142.168 Y72.938
N94 X142.192 Y73.074
N95 X142.2 Y73.212
N96 X142.208 Y73.421
N97 X142.231 Y73.629
N98 X142.27 Y73.835
N99 X142.324 Y74.037
N100 X142.394 Y74.234
N101 X142.477 Y74.426
N102 X142.575 Y74.612
N103 X142.687 Y74.789
N104 X142.811 Y74.957
N105 X142.947 Y75.116
N106 X143.096 Y75.264
N107 X143.254 Y75.401
N108 X143.423 Y75.525
N109 X143.6 Y75.636
N110 X143.785 Y75.734
N111 X143.977 Y75.818
N112 X144.175 Y75.887
N113 X144.377 Y75.941
N114 X144.583 Y75.98
N115 X144.791 Y76.004
N116 X145 Y76.011
N117 X155
N118 X155.209 Y76.004
N119 X155.417 Y75.98
N120 X155.623 Y75.941
N121 X155.825 Y75.887
N122 X156.023 Y75.818
N123 X156.215 Y75.734
N124 X156.4 Y75.636
N125 X156.577 Y75.525
N126 X156.746 Y75.401
N127 X156.904 Y75.264
N128 X157.053 Y75.116
N129 X157.189 Y74.957
N130 X157.313 Y74.789
N131 X157.425 Y74.612
N132 X157.523 Y74.426
N133 X157.606 Y74.234
N134 X157.676 Y74.037
N135 X157.73 Y73.835
N136 X157.769 Y73.629
N137 X157.792 Y73.421
N138 X157.8 Y73.212
N139 X157.808 Y73.074
N140 X157.832 Y72.938
N141 X157.871 Y72.806
N142 X157.925 Y72.679
N143 X157.993 Y72.559
N144 X158.074 Y72.448
N145 X158.168 Y72.347
N146 X158.273 Y72.257
N147 X158.387 Y72.18
N148 X158.509 Y72.117
N149 X158.638 Y72.067
N150 X158.772 Y72.033
N151 X158.908 Y72.015
N152 X159.046 Y72.012
N153 X159.183 Y72.026
N154 X159.318 Y72.054
N155 X159.449 Y72.099
N156 X159.573 Y72.157
N157 X159.69 Y72.23
N158 X159.798 Y72.316
N159 X159.896 Y72.413
N160 X159.982 Y72.521
N161 X160.054 Y72.638
N162 X160.113 Y72.763
N163 X160.157 Y72.894
N164 X160.186 Y73.028
N165 X160.199 Y73.166
N166 X160.196 Y73.303
N167 X160.178 Y73.44
N168 X160.144 Y73.574
N169 X160.095 Y73.702
N170 X160.031 Y73.825
N171 X159.954 Y73.939
N172 X159.865 Y74.044
N173 X159.763 Y74.137
N174 X159.652 Y74.219
N175 X159.532 Y74.287
N176 X159.406 Y74.341
N177 X159.273 Y74.38
N178 X159.138 Y74.404
N179 X159 Y74.411
N180 X158.791 Y74.419
N181 X158.583 Y74.443
N182 X158.377 Y74.482
N183 X158.175 Y74.536
N184 X157.977 Y74.605
N185 X157.785 Y74.689
N186 X157.6 Y74.787
N187 X157.423 Y74.898
N188 X157.254 Y75.022
N189 X157.096 Y75.159
N190 X156.947 Y75.307
N191 X156.811 Y75.466
N192 X156.687 Y75.634
N193 X156.575 Y75.812
N194 X156.477 Y75.997
N195 X156.394 Y76.189
N196 X156.324 Y76.386
N197 X156.27 Y76.588
N198 X156.231 Y76.794
N199 X156.208 Y77.002
N200 X156.2 Y77.212
N201 Y141
N202 X156.208 Y141.209
N203 X156.231 Y141.417
N204 X156.27 Y141.623
N205 X156.324 Y141.825
N206 X156.394 Y142.023
N207 X156.477 Y142.215
N208 X156.575 Y142.4
N209 X156.687 Y142.577
N210 X156.811 Y142.746
N211 X156.947 Y142.904
N212 X157.096 Y143.053
N213 X157.254 Y143.189
N214 X157.423 Y143.313
N215 X157.6 Y143.425
N216 X157.785 Y143.523
N217 X157.977 Y143.606
N218 X158.175 Y143.676
N219 X158.377 Y143.73
N220 X158.583 Y143.769
N221 X158.791 Y143.792
N222 X159 Y143.8
N223 X222.789
N224 X222.998 Y143.792
N225 X223.206 Y143.769
N226 X223.412 Y143.73
N227 X223.614 Y143.676
N228 X223.812 Y143.606
N229 X224.004 Y143.523
N230 X224.189 Y143.425
N231 X224.366 Y143.313
N232 X224.535 Y143.189
N233 X224.693 Y143.053
N234 X224.842 Y142.904
N235 X224.978 Y142.746
N236 X225.102 Y142.577
N237 X225.214 Y142.4
N238 X225.312 Y142.215
N239 X225.395 Y142.023
N240 X225.465 Y141.825
N241 X225.519 Y141.623
N242 X225.558 Y141.417
N243 X225.581 Y141.209
N244 X225.589 Y141
N245 X225.597 Y140.862
N246 X225.621 Y140.727
N247 X225.66 Y140.594
N248 X225.714 Y140.468
N249 X225.782 Y140.348
N250 X225.863 Y140.237
N251 X225.957 Y140.135
N252 X226.062 Y140.046
N253 X226.176 Y139.969
N254 X226.298 Y139.905
N255 X226.427 Y139.856
N256 X226.561 Y139.822
N257 X226.697 Y139.804
N258 X226.835 Y139.801
N259 X226.972 Y139.814
N260 X227.107 Y139.843
N261 X227.238 Y139.887
N262 X227.362 Y139.946
N263 X227.479 Y140.018
N264 X227.587 Y140.104
N265 X227.685 Y140.202
N266 X227.771 Y140.31
N267 X227.843 Y140.427
N268 X227.902 Y140.551
N269 X227.946 Y140.682
N270 X227.975 Y140.817
N271 X227.988 Y140.954
N272 X227.985 Y141.092
N273 X227.967 Y141.228
N274 X227.933 Y141.362
N275 X227.884 Y141.491
N276 X227.82 Y141.613
N277 X227.743 Y141.727
N278 X227.654 Y141.832
N279 X227.552 Y141.926
N280 X227.441 Y142.007
N281 X227.321 Y142.075
N282 X227.195 Y142.129
N283 X227.062 Y142.168
N284 X226.927 Y142.192
N285 X226.789 Y142.2
N286 X226.58 Y142.208
N287 X226.372 Y142.231
N288 X226.166 Y142.27
N289 X225.964 Y142.324
N290 X225.766 Y142.394
N291 X225.574 Y142.477
N292 X225.389 Y142.575
N293 X225.212 Y142.687
N294 X225.043 Y142.811
N295 X224.885 Y142.947
N296 X224.736 Y143.096
N297 X224.6 Y143.254
N298 X224.476 Y143.423
N299 X224.364 Y143.6
N300 X224.266 Y143.785
N301 X224.183 Y143.977
N302 X224.113 Y144.175
N303 X224.059 Y144.377
N304 X224.02 Y144.583
N305 X223.997 Y144.791
N306 X223.989 Y145
N307 Y155
N308 X223.997 Y155.209
N309 X224.02 Y155.417
N310 X224.059 Y155.623
N311 X224.113 Y155.825
N312 X224.183 Y156.023
N313 X224.266 Y156.215
N314 X224.364 Y156.4
N315 X224.476 Y156.577
N316 X224.6 Y156.746
N317 X224.736 Y156.904
N318 X224.885 Y157.053
N319 X225.043 Y157.189
N320 X225.212 Y157.313
N321 X225.389 Y157.425
N322 X225.574 Y157.523
N323 X225.766 Y157.606
N324 X225.964 Y157.676
N325 X226.166 Y157.73
N326 X226.372 Y157.769
N327 X226.58 Y157.792
N328 X226.789 Y157.8
N329 X226.927 Y157.808
N330 X227.062 Y157.832
N331 X227.195 Y157.871
N332 X227.321 Y157.925
N333 X227.441 Y157.993
N334 X227.552 Y158.074
N335 X227.654 Y158.168
N336 X227.743 Y158.273
N337 X227.82 Y158.387
N338 X227.884 Y158.509
N339 X227.933 Y158.638
N340 X227.967 Y158.772
N341 X227.985 Y158.908
N342 X227.988 Y159.046
N343 X227.975 Y159.183
N344 X227.946 Y159.318
N345 X227.902 Y159.449
N346 X227.843 Y159.573
N347 X227.771 Y159.69
N348 X227.685 Y159.798
N349 X227.587 Y159.896
N350 X227.479 Y159.982
N351 X227.362 Y160.054
N352 X227.238 Y160.113
N353 X227.107 Y160.157
N354 X226.972 Y160.186
N355 X226.835 Y160.199
N356 X226.697 Y160.196
N357 X226.561 Y160.178
N358 X226.427 Y160.144
N359 X226.298 Y160.095
N360 X226.176 Y160.031
N361 X226.062 Y159.954
N362 X225.957 Y159.865
N363 X225.863 Y159.763
N364 X225.782 Y159.652
N365 X225.714 Y159.532
N366 X225.66 Y159.406
N367 X225.621 Y159.273
N368 X225.597 Y159.138
N369 X225.589 Y159
N370 X225.581 Y158.791
N371 X225.558 Y158.583
N372 X225.519 Y158.377
N373 X225.465 Y158.175
N374 X225.395 Y157.977
N375 X225.312 Y157.785
N376 X225.214 Y157.6
N377 X225.102 Y157.423
N378 X224.978 Y157.254
N379 X224.842 Y157.096
N380 X224.693 Y156.947
N381 X224.535 Y156.811
N382 X224.366 Y156.687
N383 X224.189 Y156.575
N384 X224.004 Y156.477
N385 X223.812 Y156.394
N386 X223.614 Y156.324
N387 X223.412 Y156.27
N388 X223.206 Y156.231
N389 X222.998 Y156.208
N390 X222.789 Y156.2
N391 X159
N392 X158.791 Y156.208
N393 X158.583 Y156.231
N394 X158.377 Y156.27
N395 X158.175 Y156.324
N396 X157.977 Y156.394
N397 X157.785 Y156.477
N398 X157.6 Y156.575
N399 X157.423 Y156.687
N400 X157.254 Y156.811
N401 X157.096 Y156.947
N402 X156.947 Y157.096
N403 X156.811 Y157.254
N404 X156.687 Y157.423
N405 X156.575 Y157.6
N406 X156.477 Y157.785
N407 X156.394 Y157.977
N408 X156.324 Y158.175
N409 X156.27 Y158.377
N410 X156.231 Y158.583
N411 X156.208 Y158.791
N412 X156.2 Y159
N413 Y222.788
N414 X156.208 Y222.997
N415 X156.231 Y223.205
N416 X156.27 Y223.411
N417 X156.324 Y223.613
N418 X156.394 Y223.811
N419 X156.477 Y224.003
N420 X156.575 Y224.188
N421 X156.687 Y224.365
N422 X156.811 Y224.534
N423 X156.947 Y224.692
N424 X157.096 Y224.841
N425 X157.254 Y224.977
N426 X157.423 Y225.101
N427 X157.6 Y225.213
N428 X157.785 Y225.311
N429 X157.977 Y225.394
N430 X158.175 Y225.464
N431 X158.377 Y225.518
N432 X158.583 Y225.557
N433 X158.791 Y225.58
N434 X159 Y225.588
N435 X159.138 Y225.596
N436 X159.273 Y225.62
N437 X159.406 Y225.659
N438 X159.532 Y225.713
N439 X159.652 Y225.781
N440 X159.763 Y225.862
N441 X159.865 Y225.956
N442 X159.954 Y226.061
N443 X160.031 Y226.175
N444 X160.095 Y226.297
N445 X160.144 Y226.426
N446 X160.178 Y226.56
N447 X160.196 Y226.696
N448 X160.199 Y226.834
N449 X160.186 Y226.971
N450 X160.157 Y227.106
N451 X160.113 Y227.237
N452 X160.054 Y227.361
N453 X159.982 Y227.478
N454 X159.896 Y227.586
N455 X159.798 Y227.684
N456 X159.69 Y227.77
N457 X159.573 Y227.842
N458 X159.449 Y227.901
N459 X159.318 Y227.945
N460 X159.183 Y227.974
N461 X159.046 Y227.987
N462 X158.908 Y227.984
N463 X158.772 Y227.966
N464 X158.638 Y227.932
N465 X158.509 Y227.883
N466 X158.387 Y227.819
N467 X158.273 Y227.742
N468 X158.168 Y227.653
N469 X158.074 Y227.551
N470 X157.993 Y227.44
N471 X157.925 Y227.32
N472 X157.871 Y227.194
N473 X157.832 Y227.061
N474 X157.808 Y226.926
N475 X157.8 Y226.788
N476 X157.792 Y226.579
N477 X157.769 Y226.371
N478 X157.73 Y226.165
N479 X157.676 Y225.963
N480 X157.606 Y225.765
N481 X157.523 Y225.573
N482 X157.425 Y225.388
N483 X157.313 Y225.211
N484 X157.189 Y225.042
N485 X157.053 Y224.884
N486 X156.904 Y224.735
N487 X156.746 Y224.599
N488 X156.577 Y224.475
N489 X156.4 Y224.363
N490 X156.215 Y224.265
N491 X156.023 Y224.182
N492 X155.825 Y224.112
N493 X155.623 Y224.058
N494 X155.417 Y224.019
N495 X155.209 Y223.996
N496 X155 Y223.988
N497 X145
N498 X144.791 Y223.996
N499 X144.583 Y224.019
N500 X144.377 Y224.058
N501 X144.175 Y224.112
N502 X143.977 Y224.182
N503 X143.785 Y224.265
N504 X143.6 Y224.363
N505 X143.423 Y224.475
N506 X143.254 Y224.599
N507 X143.095 Y224.736
N508 X142.947 Y224.884
N509 X142.811 Y225.042
N510 X142.686 Y225.211
N511 X142.575 Y225.388
N512 X142.477 Y225.573
N513 X142.393 Y225.765
N514 X142.324 Y225.963
N515 X142.27 Y226.165
N516 X142.231 Y226.371
N517 X142.208 Y226.579
N518 X142.2 Y226.788
N519 X142.192 Y226.926
N520 X142.168 Y227.062
N521 X142.129 Y227.194
N522 X142.076 Y227.321
N523 X142.007 Y227.44
N524 X141.926 Y227.552
N525 X141.832 Y227.653
N526 X141.728 Y227.742
N527 X141.614 Y227.819
N528 X141.491 Y227.883
N529 X141.363 Y227.932
N530 X141.229 Y227.966
N531 X141.092 Y227.984
N532 X140.955 Y227.987
N533 X140.818 Y227.974
N534 X140.683 Y227.945
N535 X140.552 Y227.901
N536 X140.428 Y227.842
N537 X140.311 Y227.77
N538 X140.203 Y227.684
N539 X140.105 Y227.587
N540 X140.019 Y227.479
N541 X139.947 Y227.362
N542 X139.888 Y227.237
N543 X139.844 Y227.106
N544 X139.815 Y226.972
N545 X139.802 Y226.835
N546 X139.805 Y226.697
N547 X139.823 Y226.56
N548 X139.857 Y226.427
N549 X139.906 Y226.298
N550 X139.969 Y226.176
N551 X140.046 Y226.061
N552 X140.136 Y225.957
N553 X140.237 Y225.863
N554 X140.348 Y225.782
N555 X140.468 Y225.714
N556 X140.595 Y225.66
N557 X140.727 Y225.621
N558 X140.863 Y225.597
N559 X141 Y225.589
N560 X141.21 Y225.581
N561 X141.418 Y225.558
N562 X141.623 Y225.519
N563 X141.826 Y225.465
N564 X142.023 Y225.395
N565 X142.215 Y225.312
N566 X142.4 Y225.214
N567 X142.577 Y225.102
N568 X142.746 Y224.978
N569 X142.905 Y224.841
N570 X143.053 Y224.693
N571 X143.189 Y224.535
N572 X143.314 Y224.366
N573 X143.425 Y224.189
N574 X143.523 Y224.004
N575 X143.606 Y223.812
N576 X143.676 Y223.614
N577 X143.73 Y223.412
N578 X143.769 Y223.206
N579 X143.792 Y222.998
N580 X143.8 Y222.789
N581 Y159
N582 X143.792 Y158.791
N583 X143.769 Y158.583
N584 X143.73 Y158.377
N585 X143.676 Y158.175
N586 X143.606 Y157.977
N587 X143.523 Y157.785
N588 X143.425 Y157.6
N589 X143.313 Y157.423
N590 X143.189 Y157.254
N591 X143.053 Y157.096
N592 X142.904 Y156.947
N593 X142.746 Y156.811
N594 X142.577 Y156.687
N595 X142.4 Y156.575
N596 X142.215 Y156.477
N597 X142.023 Y156.394
N598 X141.825 Y156.324
N599 X141.623 Y156.27
N600 X141.417 Y156.231
N601 X141.209 Y156.208
N602 X141 Y156.2
N603 X77.211
N604 X77.002 Y156.208
N605 X76.794 Y156.231
N606 X76.588 Y156.27
N607 X76.386 Y156.324
N608 X76.188 Y156.394
N609 X75.997 Y156.477
N610 X75.811 Y156.575
N611 X75.634 Y156.687
N612 X75.466 Y156.811
N613 X75.307 Y156.947
N614 X75.159 Y157.096
N615 X75.022 Y157.254
N616 X74.898 Y157.423
N617 X74.787 Y157.6
N618 X74.689 Y157.785
N619 X74.605 Y157.977
N620 X74.536 Y158.175
N621 X74.482 Y158.377
N622 X74.443 Y158.583
N623 X74.419 Y158.791
N624 X74.411 Y159
N625 X74.403 Y159.138
N626 X74.38 Y159.273
N627 X74.341 Y159.406
N628 X74.287 Y159.532
N629 X74.219 Y159.652
N630 X74.137 Y159.763
N631 X74.044 Y159.865
N632 X73.939 Y159.954
N633 X73.825 Y160.031
N634 X73.702 Y160.095
N635 X73.573 Y160.144
N636 X73.44 Y160.178
N637 X73.303 Y160.196
N638 X73.165 Y160.199
N639 X73.028 Y160.186
N640 X72.893 Y160.157
N641 X72.763 Y160.113
N642 X72.638 Y160.054
N643 X72.521 Y159.982
N644 X72.413 Y159.896
N645 X72.316 Y159.798
N646 X72.23 Y159.69
N647 X72.157 Y159.573
N648 X72.098 Y159.449
N649 X72.054 Y159.318
N650 X72.025 Y159.183
N651 X72.012 Y159.046
N652 X72.015 Y158.908
N653 X72.033 Y158.772
N654 X72.067 Y158.638
N655 X72.116 Y158.509
N656 X72.18 Y158.387
N657 X72.257 Y158.273
N658 X72.347 Y158.168
N659 X72.448 Y158.074
N660 X72.559 Y157.993
N661 X72.679 Y157.925
N662 X72.806 Y157.871
N663 X72.938 Y157.832
N664 X73.074 Y157.808
N665 X73.211 Y157.8
N666 X73.421 Y157.792
N667 X73.629 Y157.769
N668 X73.834 Y157.73
N669 X74.037 Y157.676
N670 X74.234 Y157.606
N671 X74.426 Y157.523
N672 X74.611 Y157.425
N673 X74.789 Y157.313
N674 X74.957 Y157.189
N675 X75.116 Y157.053
N676 X75.264 Y156.904
N677 X75.401 Y156.746
N678 X75.525 Y156.577
N679 X75.636 Y156.4
N680 X75.734 Y156.215
N681 X75.818 Y156.023
N682 X75.887 Y155.825
N683 X75.941 Y155.623
N684 X75.98 Y155.417
N685 X76.004 Y155.209
N686 X76.011 Y155
N687 Y145
N688 X76.004 Y144.791
N689 X75.98 Y144.583
N690 X75.941 Y144.377
N691 X75.887 Y144.175
N692 X75.818 Y143.977
N693 X75.734 Y143.785
N694 X75.636 Y143.6
N695 X75.525 Y143.423
N696 X75.401 Y143.254
N697 X75.264 Y143.096
N698 X75.116 Y142.947
N699 X74.957 Y142.811
N700 X74.789 Y142.687
N701 X74.611 Y142.575
N702 X74.426 Y142.477
N703 X74.234 Y142.394
N704 X74.037 Y142.324
N705 X73.834 Y142.27
N706 X73.629 Y142.231
N707 X73.421 Y142.208
N708 X73.211 Y142.2
N709 X73.074 Y142.192
N710 X72.938 Y142.168
N711 X72.806 Y142.129
N712 X72.679 Y142.075
N713 X72.559 Y142.007
N714 X72.448 Y141.926
N715 X72.347 Y141.832
N716 X72.257 Y141.727
N717 X72.18 Y141.613
N718 X72.116 Y141.491
N719 X72.067 Y141.362
N720 X72.033 Y141.228
N721 X72.015 Y141.092
N722 X72.012 Y140.954
N723 X72.025 Y140.817
N724 X72.054 Y140.682
N725 X72.098 Y140.551
N726 X72.157 Y140.427
N727 X72.23 Y140.31
N728 X72.316 Y140.202
N729 X72.413 Y140.104
N730 X72.521 Y140.018
N731 X72.638 Y139.946
N732 X72.763 Y139.887
N733 X72.893 Y139.843
N734 X73.028 Y139.814
N735 X73.165 Y139.801
N736 X73.303 Y139.804
N737 X73.44 Y139.822
N738 X73.573 Y139.856
N739 X73.702 Y139.905
N740 X73.825 Y139.969
N741 X73.939 Y140.046
N742 X74.044 Y140.135
N743 X74.137 Y140.237
N744 X74.219 Y140.348
N745 X74.287 Y140.468
N746 X74.341 Y140.594
N747 X74.38 Y140.727
N748 X74.403 Y140.862
N749 X74.411 Y141
N750 X74.419 Y141.209
N751 X74.443 Y141.417
N752 X74.482 Y141.623
N753 X74.536 Y141.825
N754 X74.605 Y142.023
N755 X74.689 Y142.215
N756 X74.787 Y142.4
N757 X74.898 Y142.577
N758 X75.022 Y142.746
N759 X75.159 Y142.904
N760 X75.307 Y143.053
N761 X75.466 Y143.189
N762 X75.634 Y143.313
N763 X75.811 Y143.425
N764 X75.997 Y143.523
N765 X76.188 Y143.606
N766 X76.386 Y143.676
N767 X76.588 Y143.73
N768 X76.794 Y143.769
N769 X77.002 Y143.792
N770 X77.211 Y143.8
N771 X141
N772 X141.2 Y143.793
N773 X141.398 Y143.772
N774 X141.595 Y143.736
N775 X141.789 Y143.687
N776 X141.979 Y143.623
N777 X142.163 Y143.547
N778 X142.342 Y143.458
N779 X142.514 Y143.356
N780 X142.678 Y143.242
N781 X142.834 Y143.116
N782 X142.98 Y142.98
N783 X143.116 Y142.834 Z14.995 F2500
N784 X143.242 Y142.678 Z14.99
N785 X143.356 Y142.514 Z14.985
N786 X143.458 Y142.342 Z14.98
N787 X143.547 Y142.163 Z14.975
N788 X143.623 Y141.979 Z14.97
N789 X143.687 Y141.789 Z14.965
N790 X143.736 Y141.595 Z14.96
N791 X143.772 Y141.398 Z14.955
N792 X143.793 Y141.2 Z14.95
N793 X143.8 Y141 Z14.945
N794 Y77.212 Z13.359
N795 X143.792 Y77.002 Z13.354
N796 X143.769 Y76.794 Z13.348
N797 X143.73 Y76.588 Z13.343
N798 X143.676 Y76.386 Z13.338
N799 X143.606 Y76.189 Z13.333
N800 X143.523 Y75.997 Z13.328
N801 X143.425 Y75.812 Z13.322
N802 X143.313 Y75.634 Z13.317
N803 X143.189 Y75.466 Z13.312
N804 X143.053 Y75.307 Z13.307
N805 X142.904 Y75.159 Z13.301
N806 X142.746 Y75.022 Z13.296
N807 X142.577 Y74.898 Z13.291
N808 X142.4 Y74.787 Z13.286
N809 X142.215 Y74.689 Z13.281
N810 X142.023 Y74.605 Z13.275
N811 X141.825 Y74.536 Z13.27
N812 X141.623 Y74.482 Z13.265
N813 X141.417 Y74.443 Z13.26
N814 X141.209 Y74.419 Z13.255
N815 X141 Y74.411 Z13.249
N816 X140.862 Y74.404 Z13.246
N817 X140.727 Y74.38 Z13.243
N818 X140.594 Y74.341 Z13.239
N819 X140.468 Y74.287 Z13.236
N820 X140.348 Y74.219 Z13.232
N821 X140.237 Y74.137 Z13.229
N822 X140.135 Y74.044 Z13.225
N823 X140.046 Y73.939 Z13.222
N824 X139.969 Y73.825 Z13.219
N825 X139.905 Y73.702 Z13.215
N826 X139.856 Y73.574 Z13.212
N827 X139.822 Y73.44 Z13.208
N828 X139.804 Y73.303 Z13.205
N829 X139.801 Y73.166 Z13.201
N830 X139.814 Y73.028 Z13.198
N831 X139.843 Y72.894 Z13.195
N832 X139.887 Y72.763 Z13.191
N833 X139.946 Y72.638 Z13.188
N834 X140.018 Y72.521 Z13.184
N835 X140.104 Y72.413 Z13.181
N836 X140.202 Y72.316 Z13.177
N837 X140.31 Y72.23 Z13.174
N838 X140.427 Y72.157 Z13.17
N839 X140.551 Y72.099 Z13.167
N840 X140.682 Y72.054 Z13.164
N841 X140.817 Y72.026 Z13.16
N842 X140.954 Y72.012 Z13.157
N843 X141.092 Y72.015 Z13.153
N844 X141.228 Y72.033 Z13.15
N845 X141.362 Y72.067 Z13.146
N846 X141.491 Y72.117 Z13.143
N847 X141.613 Y72.18 Z13.14
N848 X141.727 Y72.257 Z13.136
N849 X141.832 Y72.347 Z13.133
N850 X141.926 Y72.448 Z13.129
N851 X142.007 Y72.559 Z13.126
N852 X142.075 Y72.679 Z13.122
N853 X142.129 Y72.806 Z13.119
N854 X142.168 Y72.938 Z13.116
N855 X142.192 Y73.074 Z13.112
N856 X142.2 Y73.212 Z13.109
N857 X142.208 Y73.421 Z13.104
N858 X142.231 Y73.629 Z13.098
N859 X142.27 Y73.835 Z13.093
N860 X142.324 Y74.037 Z13.088
N861 X142.394 Y74.234 Z13.083
N862 X142.477 Y74.426 Z13.077
N863 X142.575 Y74.612 Z13.072
N864 X142.687 Y74.789 Z13.067
N865 X142.811 Y74.957 Z13.062
N866 X142.947 Y75.116 Z13.057
N867 X143.096 Y75.264 Z13.051
N868 X143.254 Y75.401 Z13.046
N869 X143.423 Y75.525 Z13.041
N870 X143.6 Y75.636 Z13.036
N871 X143.785 Y75.734 Z13.031
N872 X143.977 Y75.818 Z13.025
N873 X144.175 Y75.887 Z13.02
N874 X144.377 Y75.941 Z13.015
N875 X144.583 Y75.98 Z13.01
N876 X144.791 Y76.004 Z13.005
N877 X145 Y76.011 Z12.999
N878 X155 Z12.751
N879 X155.209 Y76.004 Z12.745
N880 X155.417 Y75.98 Z12.74
N881 X155.623 Y75.941 Z12.735
N882 X155.825 Y75.887 Z12.73
N883 X156.023 Y75.818 Z12.725
N884 X156.215 Y75.734 Z12.719
N885 X156.4 Y75.636 Z12.714
N886 X156.577 Y75.525 Z12.709
N887 X156.746 Y75.401 Z12.704
N888 X156.904 Y75.264 Z12.699
N889 X157.053 Y75.116 Z12.693
N890 X157.189 Y74.957 Z12.688
N891 X157.313 Y74.789 Z12.683
N892 X157.425 Y74.612 Z12.678
N893 X157.523 Y74.426 Z12.673
N894 X157.606 Y74.234 Z12.667
N895 X157.676 Y74.037 Z12.662
N896 X157.73 Y73.835 Z12.657
N897 X157.769 Y73.629 Z12.652
N898 X157.792 Y73.421 Z12.646
N899 X157.8 Y73.212 Z12.641
N900 X157.808 Y73.074 Z12.638
N901 X157.832 Y72.938 Z12.634
N902 X157.871 Y72.806 Z12.631
N903 X157.925 Y72.679 Z12.628
N904 X157.993 Y72.559 Z12.624
N905 X158.074 Y72.448 Z12.621
N906 X158.168 Y72.347 Z12.617
N907 X158.273 Y72.257 Z12.614
N908 X158.387 Y72.18 Z12.61
N909 X158.509 Y72.117 Z12.607
N910 X158.638 Y72.067 Z12.604
N911 X158.772 Y72.033 Z12.6
N912 X158.908 Y72.015 Z12.597
N913 X159.046 Y72.012 Z12.593
N914 X159.183 Y72.026 Z12.59
N915 X159.318 Y72.054 Z12.586
N916 X159.449 Y72.099 Z12.583
N917 X159.573 Y72.157 Z12.58
N918 X159.69 Y72.23 Z12.576
N919 X159.798 Y72.316 Z12.573
N920 X159.896 Y72.413 Z12.569
N921 X159.982 Y72.521 Z12.566
N922 X160.054 Y72.638 Z12.562
N923 X160.113 Y72.763 Z12.559
N924 X160.157 Y72.894 Z12.555
N925 X160.186 Y73.028 Z12.552
N926 X160.199 Y73.166 Z12.549
N927 X160.196 Y73.303 Z12.545
N928 X160.178 Y73.44 Z12.542
N929 X160.144 Y73.574 Z12.538
N930 X160.095 Y73.702 Z12.535
N931 X160.031 Y73.825 Z12.531
N932 X159.954 Y73.939 Z12.528
N933 X159.865 Y74.044 Z12.525
N934 X159.763 Y74.137 Z12.521
N935 X159.652 Y74.219 Z12.518
N936 X159.532 Y74.287 Z12.514
N937 X159.406 Y74.341 Z12.511
N938 X159.273 Y74.38 Z12.507
N939 X159.138 Y74.404 Z12.504
N940 X159 Y74.411 Z12.501
N941 X158.791 Y74.419 Z12.495
N942 X158.583 Y74.443 Z12.49
N943 X158.377 Y74.482 Z12.485
N944 X158.175 Y74.536 Z12.48
N945 X157.977 Y74.605 Z12.475
N946 X157.785 Y74.689 Z12.469
N947 X157.6 Y74.787 Z12.464
N948 X157.423 Y74.898 Z12.459
N949 X157.254 Y75.022 Z12.454
N950 X157.096 Y75.159 Z12.449
N951 X156.947 Y75.307 Z12.443
N952 X156.811 Y75.466 Z12.438
N953 X156.687 Y75.634 Z12.433
N954 X156.575 Y75.812 Z12.428
N955 X156.477 Y75.997 Z12.422
N956 X156.394 Y76.189 Z12.417
N957 X156.324 Y76.386 Z12.412
N958 X156.27 Y76.588 Z12.407
N959 X156.231 Y76.794 Z12.402
N960 X156.208 Y77.002 Z12.396
N961 X156.2 Y77.212 Z12.391
N962 Y92.941 Z12
N963 Y141 F2760
N964 X156.208 Y141.209
N965 X156.231 Y141.417
N966 X156.27 Y141.623
N967 X156.324 Y141.825
N968 X156.394 Y142.023
N969 X156.477 Y142.215
N970 X156.575 Y142.4
N971 X156.687 Y142.577
N972 X156.811 Y142.746
N973 X156.947 Y142.904
N974 X157.096 Y143.053
N975 X157.254 Y143.189
N976 X157.423 Y143.313
N977 X157.6 Y143.425
N978 X157.785 Y143.523
N979 X157.977 Y143.606
N980 X158.175 Y143.676
N981 X158.377 Y143.73
N982 X158.583 Y143.769
N983 X158.791 Y143.792
N984 X159 Y143.8
N985 X222.789
N986 X222.998 Y143.792
N987 X223.206 Y143.769
N988 X223.412 Y143.73
N989 X223.614 Y143.676
N990 X223.812 Y143.606
N991 X224.004 Y143.523
N992 X224.189 Y143.425
N993 X224.366 Y143.313
N994 X224.535 Y143.189
N995 X224.693 Y143.053
N996 X224.842 Y142.904
N997 X224.978 Y142.746
N998 X225.102 Y142.577
N999 X225.214 Y142.4
N1000 X225.312 Y142.215
N1001 X225.395 Y142.023
N1002 X225.465 Y141.825
N1003 X225.519 Y141.623
N1004 X225.558 Y141.417
N1005 X225.581 Y141.209
N1006 X225.589 Y141
N1007 X225.597 Y140.862
N1008 X225.621 Y140.727
N1009 X225.66 Y140.594
N1010 X225.714 Y140.468
N1011 X225.782 Y140.348
N1012 X225.863 Y140.237
N1013 X225.957 Y140.135
N1014 X226.062 Y140.046
N1015 X226.176 Y139.969
N1016 X226.298 Y139.905
N1017 X226.427 Y139.856
N1018 X226.561 Y139.822
N1019 X226.697 Y139.804
N1020 X226.835 Y139.801
N1021 X226.972 Y139.814
N1022 X227.107 Y139.843
N1023 X227.238 Y139.887
N1024 X227.362 Y139.946
N1025 X227.479 Y140.018
N1026 X227.587 Y140.104
N1027 X227.685 Y140.202
N1028 X227.771 Y140.31
N1029 X227.843 Y140.427
N1030 X227.902 Y140.551
N1031 X227.946 Y140.682
N1032 X227.975 Y140.817
N1033 X227.988 Y140.954
N1034 X227.985 Y141.092
N1035 X227.967 Y141.228
N1036 X227.933 Y141.362
N1037 X227.884 Y141.491
N1038 X227.82 Y141.613
N1039 X227.743 Y141.727
N1040 X227.654 Y141.832
N1041 X227.552 Y141.926
N1042 X227.441 Y142.007
N1043 X227.321 Y142.075
N1044 X227.195 Y142.129
N1045 X227.062 Y142.168
N1046 X226.927 Y142.192
N1047 X226.789 Y142.2
N1048 X226.58 Y142.208
N1049 X226.372 Y142.231
N1050 X226.166 Y142.27
N1051 X225.964 Y142.324
N1052 X225.766 Y142.394
N1053 X225.574 Y142.477
N1054 X225.389 Y142.575
N1055 X225.212 Y142.687
N1056 X225.043 Y142.811
N1057 X224.885 Y142.947
N1058 X224.736 Y143.096
N1059 X224.6 Y143.254
N1060 X224.476 Y143.423
N1061 X224.364 Y143.6
N1062 X224.266 Y143.785
N1063 X224.183 Y143.977
N1064 X224.113 Y144.175
N1065 X224.059 Y144.377
N1066 X224.02 Y144.583
N1067 X223.997 Y144.791
N1068 X223.989 Y145
N1069 Y155
N1070 X223.997 Y155.209
N1071 X224.02 Y155.417
N1072 X224.059 Y155.623
N1073 X224.113 Y155.825
N1074 X224.183 Y156.023
N1075 X224.266 Y156.215
N1076 X224.364 Y156.4
N1077 X224.476 Y156.577
N1078 X224.6 Y156.746
N1079 X224.736 Y156.904
N1080 X224.885 Y157.053
N1081 X225.043 Y157.189
N1082 X225.212 Y157.313
N1083 X225.389 Y157.425
N1084 X225.574 Y157.523
N1085 X225.766 Y157.606
N1086 X225.964 Y157.676
N1087 X226.166 Y157.73
N1088 X226.372 Y157.769
N1089 X226.58 Y157.792
N1090 X226.789 Y157.8
N1091 X226.927 Y157.808
N1092 X227.062 Y157.832
N1093 X227.195 Y157.871
N1094 X227.321 Y157.925
N1095 X227.441 Y157.993
N1096 X227.552 Y158.074
N1097 X227.654 Y158.168
N1098 X227.743 Y158.273
N1099 X227.82 Y158.387
N1100 X227.884 Y158.509
N1101 X227.933 Y158.638
N1102 X227.967 Y158.772
N1103 X227.985 Y158.908
N1104 X227.988 Y159.046
N1105 X227.975 Y159.183
N1106 X227.946 Y159.318
N1107 X227.902 Y159.449
N1108 X227.843 Y159.573
N1109 X227.771 Y159.69
N1110 X227.685 Y159.798
N1111 X227.587 Y159.896
N1112 X227.479 Y159.982
N1113 X227.362 Y160.054
N1114 X227.238 Y160.113
N1115 X227.107 Y160.157
N1116 X226.972 Y160.186
N1117 X226.835 Y160.199
N1118 X226.697 Y160.196
N1119 X226.561 Y160.178
N1120 X226.427 Y160.144
N1121 X226.298 Y160.095
N1122 X226.176 Y160.031
N1123 X226.062 Y159.954
N1124 X225.957 Y159.865
N1125 X225.863 Y159.763
N1126 X225.782 Y159.652
N1127 X225.714 Y159.532
N1128 X225.66 Y159.406
N1129 X225.621 Y159.273
N1130 X225.597 Y159.138
N1131 X225.589 Y159
N1132 X225.581 Y158.791
N1133 X225.558 Y158.583
N1134 X225.519 Y158.377
N1135 X225.465 Y158.175
N1136 X225.395 Y157.977
N1137 X225.312 Y157.785
N1138 X225.214 Y157.6
N1139 X225.102 Y157.423
N1140 X224.978 Y157.254
N1141 X224.842 Y157.096
N1142 X224.693 Y156.947
N1143 X224.535 Y156.811
N1144 X224.366 Y156.687
N1145 X224.189 Y156.575
N1146 X224.004 Y156.477
N1147 X223.812 Y156.394
N1148 X223.614 Y156.324
N1149 X223.412 Y156.27
N1150 X223.206 Y156.231
N1151 X222.998 Y156.208
N1152 X222.789 Y156.2
N1153 X159
N1154 X158.791 Y156.208
N1155 X158.583 Y156.231
N1156 X158.377 Y156.27
N1157 X158.175 Y156.324
N1158 X157.977 Y156.394
N1159 X157.785 Y156.477
N1160 X157.6 Y156.575
N1161 X157.423 Y156.687
N1162 X157.254 Y156.811
N1163 X157.096 Y156.947
N1164 X156.947 Y157.096
N1165 X156.811 Y157.254
N1166 X156.687 Y157.423
N1167 X156.575 Y157.6
N1168 X156.477 Y157.785
N1169 X156.394 Y157.977
N1170 X156.324 Y158.175
N1171 X156.27 Y158.377
N1172 X156.231 Y158.583
N1173 X156.208 Y158.791
N1174 X156.2 Y159
N1175 Y222.788
N1176 X156.208 Y222.997
N1177 X156.231 Y223.205
N1178 X156.27 Y223.411
N1179 X156.324 Y223.613
N1180 X156.394 Y223.811
N1181 X156.477 Y224.003
N1182 X156.575 Y224.188
N1183 X156.687 Y224.365
N1184 X156.811 Y224.534
N1185 X156.947 Y224.692
N1186 X157.096 Y224.841
N1187 X157.254 Y224.977
N1188 X157.423 Y225.101
N1189 X157.6 Y225.213
N1190 X157.785 Y225.311
N1191 X157.977 Y225.394
N1192 X158.175 Y225.464
N1193 X158.377 Y225.518
N1194 X158.583 Y225.557
N1195 X158.791 Y225.58
N1196 X159 Y225.588
N1197 X159.138 Y225.596
N1198 X159.273 Y225.62
N1199 X159.406 Y225.659
N1200 X159.532 Y225.713
N1201 X159.652 Y225.781
N1202 X159.763 Y225.862
N1203 X159.865 Y225.956
N1204 X159.954 Y226.061
N1205 X160.031 Y226.175
N1206 X160.095 Y226.297
N1207 X160.144 Y226.426
N1208 X160.178 Y226.56
N1209 X160.196 Y226.696
N1210 X160.199 Y226.834
N1211 X160.186 Y226.971
N1212 X160.157 Y227.106
N1213 X160.113 Y227.237
N1214 X160.054 Y227.361
N1215 X159.982 Y227.478
N1216 X159.896 Y227.586
N1217 X159.798 Y227.684
N1218 X159.69 Y227.77
N1219 X159.573 Y227.842
N1220 X159.449 Y227.901
N1221 X159.318 Y227.945
N1222 X159.183 Y227.974
N1223 X159.046 Y227.987
N1224 X158.908 Y227.984
N1225 X158.772 Y227.966
N1226 X158.638 Y227.932
N1227 X158.509 Y227.883
N1228 X158.387 Y227.819
N1229 X158.273 Y227.742
N1230 X158.168 Y227.653
N1231 X158.074 Y227.551
N1232 X157.993 Y227.44
N1233 X157.925 Y227.32
N1234 X157.871 Y227.194
N1235 X157.832 Y227.061
N1236 X157.808 Y226.926
N1237 X157.8 Y226.788
N1238 X157.792 Y226.579
N1239 X157.769 Y226.371
N1240 X157.73 Y226.165
N1241 X157.676 Y225.963
N1242 X157.606 Y225.765
N1243 X157.523 Y225.573
N1244 X157.425 Y225.388
N1245 X157.313 Y225.211
N1246 X157.189 Y225.042
N1247 X157.053 Y224.884
N1248 X156.904 Y224.735
N1249 X156.746 Y224.599
N1250 X156.577 Y224.475
N1251 X156.4 Y224.363
N1252 X156.215 Y224.265
N1253 X156.023 Y224.182
N1254 X155.825 Y224.112
N1255 X155.623 Y224.058
N1256 X155.417 Y224.019
N1257 X155.209 Y223.996
N1258 X155 Y223.988
N1259 X145
N1260 X144.791 Y223.996
N1261 X144.583 Y224.019
N1262 X144.377 Y224.058
N1263 X144.175 Y224.112
N1264 X143.977 Y224.182
N1265 X143.785 Y224.265
N1266 X143.6 Y224.363
N1267 X143.423 Y224.475
N1268 X143.254 Y224.599
N1269 X143.095 Y224.736
N1270 X142.947 Y224.884
N1271 X142.811 Y225.042
N1272 X142.686 Y225.211
N1273 X142.575 Y225.388
N1274 X142.477 Y225.573
N1275 X142.393 Y225.765
N1276 X142.324 Y225.963
N1277 X142.27 Y226.165
N1278 X142.231 Y226.371
N1279 X142.208 Y226.579
N1280 X142.2 Y226.788
N1281 X142.192 Y226.926
N1282 X142.168 Y227.062
N1283 X142.129 Y227.194
N1284 X142.076 Y227.321
N1285 X142.007 Y227.44
N1286 X141.926 Y227.552
N1287 X141.832 Y227.653
N1288 X141.728 Y227.742
N1289 X141.614 Y227.819
N1290 X141.491 Y227.883
N1291 X141.363 Y227.932
N1292 X141.229 Y227.966
N1293 X141.092 Y227.984
N1294 X140.955 Y227.987
N1295 X140.818 Y227.974
N1296 X140.683 Y227.945
N1297 X140.552 Y227.901
N1298 X140.428 Y227.842
N1299 X140.311 Y227.77
N1300 X140.203 Y227.684
N1301 X140.105 Y227.587
N1302 X140.019 Y227.479
N1303 X139.947 Y227.362
N1304 X139.888 Y227.237
N1305 X139.844 Y227.106
N1306 X139.815 Y226.972
N1307 X139.802 Y226.835
N1308 X139.805 Y226.697
N1309 X139.823 Y226.56
N1310 X139.857 Y226.427
N1311 X139.906 Y226.298
N1312 X139.969 Y226.176
N1313 X140.046 Y226.061
N1314 X140.136 Y225.957
N1315 X140.237 Y225.863
N1316 X140.348 Y225.782
N1317 X140.468 Y225.714
N1318 X140.595 Y225.66
N1319 X140.727 Y225.621
N1320 X140.863 Y225.597
N1321 X141 Y225.589
N1322 X141.21 Y225.581
N1323 X141.418 Y225.558
N1324 X141.623 Y225.519
N1325 X141.826 Y225.465
N1326 X142.023 Y225.395
N1327 X142.215 Y225.312
N1328 X142.4 Y225.214
N1329 X142.577 Y225.102
N1330 X142.746 Y224.978
N1331 X142.905 Y224.841
N1332 X143.053 Y224.693
N1333 X143.189 Y224.535
N1334 X143.314 Y224.366
N1335 X143.425 Y224.189
N1336 X143.523 Y224.004
N1337 X143.606 Y223.812
N1338 X143.676 Y223.614
N1339 X143.73 Y223.412
N1340 X143.769 Y223.206
N1341 X143.792 Y222.998
N1342 X143.8 Y222.789
N1343 Y159
N1344 X143.792 Y158.791
N1345 X143.769 Y158.583
N1346 X143.73 Y158.377
N1347 X143.676 Y158.175
N1348 X143.606 Y157.977
N1349 X143.523 Y157.785
N1350 X143.425 Y157.6
N1351 X143.313 Y157.423
N1352 X143.189 Y157.254
N1353 X143.053 Y157.096
N1354 X142.904 Y156.947
N1355 X142.746 Y156.811
N1356 X142.577 Y156.687
N1357 X142.4 Y156.575
N1358 X142.215 Y156.477
N1359 X142.023 Y156.394
N1360 X141.825 Y156.324
N1361 X141.623 Y156.27
N1362 X141.417 Y156.231
N1363 X141.209 Y156.208
N1364 X141 Y156.2
N1365 X77.211
N1366 X77.002 Y156.208
N1367 X76.794 Y156.231
N1368 X76.588 Y156.27
N1369 X76.386 Y156.324
N1370 X76.188 Y156.394
N1371 X75.997 Y156.477
N1372 X75.811 Y156.575
N1373 X75.634 Y156.687
N1374 X75.466 Y156.811
N1375 X75.307 Y156.947
N1376 X75.159 Y157.096
N1377 X75.022 Y157.254
N1378 X74.898 Y157.423
N1379 X74.787 Y157.6
N1380 X74.689 Y157.785
N1381 X74.605 Y157.977
N1382 X74.536 Y158.175
N1383 X74.482 Y158.377
N1384 X74.443 Y158.583
N1385 X74.419 Y158.791
N1386 X74.411 Y159
N1387 X74.403 Y159.138
N1388 X74.38 Y159.273
N1389 X74.341 Y159.406
N1390 X74.287 Y159.532
N1391 X74.219 Y159.652
N1392 X74.137 Y159.763
N1393 X74.044 Y159.865
N1394 X73.939 Y159.954
N1395 X73.825 Y160.031
N1396 X73.702 Y160.095
N1397 X73.573 Y160.144
N1398 X73.44 Y160.178
N1399 X73.303 Y160.196
N1400 X73.165 Y160.199
N1401 X73.028 Y160.186
N1402 X72.893 Y160.157
N1403 X72.763 Y160.113
N1404 X72.638 Y160.054
N1405 X72.521 Y159.982
N1406 X72.413 Y159.896
N1407 X72.316 Y159.798
N1408 X72.23 Y159.69
N1409 X72.157 Y159.573
N1410 X72.098 Y159.449
N1411 X72.054 Y159.318
N1412 X72.025 Y159.183
N1413 X72.012 Y159.046
N1414 X72.015 Y158.908
N1415 X72.033 Y158.772
N1416 X72.067 Y158.638
N1417 X72.116 Y158.509
N1418 X72.18 Y158.387
N1419 X72.257 Y158.273
N1420 X72.347 Y158.168
N1421 X72.448 Y158.074
N1422 X72.559 Y157.993
N1423 X72.679 Y157.925
N1424 X72.806 Y157.871
N1425 X72.938 Y157.832
N1426 X73.074 Y157.808
N1427 X73.211 Y157.8
N1428 X73.421 Y157.792
N1429 X73.629 Y157.769
N1430 X73.834 Y157.73
N1431 X74.037 Y157.676
N1432 X74.234 Y157.606
N1433 X74.426 Y157.523
N1434 X74.611 Y157.425
N1435 X74.789 Y157.313
N1436 X74.957 Y157.189
N1437 X75.116 Y157.053
N1438 X75.264 Y156.904
N1439 X75.401 Y156.746
N1440 X75.525 Y156.577
N1441 X75.636 Y156.4
N1442 X75.734 Y156.215
N1443 X75.818 Y156.023
N1444 X75.887 Y155.825
N1445 X75.941 Y155.623
N1446 X75.98 Y155.417
N1447 X76.004 Y155.209
N1448 X76.011 Y155
N1449 Y145
N1450 X76.004 Y144.791
N1451 X75.98 Y144.583
N1452 X75.941 Y144.377
N1453 X75.887 Y144.175
N1454 X75.818 Y143.977
N1455 X75.734 Y143.785
N1456 X75.636 Y143.6
N1457 X75.525 Y143.423
N1458 X75.401 Y143.254
N1459 X75.264 Y143.096
N1460 X75.116 Y142.947
N1461 X74.957 Y142.811
N1462 X74.789 Y142.687
N1463 X74.611 Y142.575
N1464 X74.426 Y142.477
N1465 X74.234 Y142.394
N1466 X74.037 Y142.324
N1467 X73.834 Y142.27
N1468 X73.629 Y142.231
N1469 X73.421 Y142.208
N1470 X73.211 Y142.2
N1471 X73.074 Y142.192
N1472 X72.938 Y142.168
N1473 X72.806 Y142.129
N1474 X72.679 Y142.075
N1475 X72.559 Y142.007
N1476 X72.448 Y141.926
N1477 X72.347 Y141.832
N1478 X72.257 Y141.727
N1479 X72.18 Y141.613
N1480 X72.116 Y141.491
N1481 X72.067 Y141.362
N1482 X72.033 Y141.228
N1483 X72.015 Y141.092
N1484 X72.012 Y140.954
N1485 X72.025 Y140.817
N1486 X72.054 Y140.682
N1487 X72.098 Y140.551
N1488 X72.157 Y140.427
N1489 X72.23 Y140.31
N1490 X72.316 Y140.202
N1491 X72.413 Y140.104
N1492 X72.521 Y140.018
N1493 X72.638 Y139.946
N1494 X72.763 Y139.887
N1495 X72.893 Y139.843
N1496 X73.028 Y139.814
N1497 X73.165 Y139.801
N1498 X73.303 Y139.804
N1499 X73.44 Y139.822
N1500 X73.573 Y139.856
N1501 X73.702 Y139.905
N1502 X73.825 Y139.969
N1503 X73.939 Y140.046
N1504 X74.044 Y140.135
N1505 X74.137 Y140.237
N1506 X74.219 Y140.348
N1507 X74.287 Y140.468
N1508 X74.341 Y140.594
N1509 X74.38 Y140.727
N1510 X74.403 Y140.862
N1511 X74.411 Y141
N1512 X74.419 Y141.209
N1513 X74.443 Y141.417
N1514 X74.482 Y141.623
N1515 X74.536 Y141.825
N1516 X74.605 Y142.023
N1517 X74.689 Y142.215
N1518 X74.787 Y142.4
N1519 X74.898 Y142.577
N1520 X75.022 Y142.746
N1521 X75.159 Y142.904
N1522 X75.307 Y143.053
N1523 X75.466 Y143.189
N1524 X75.634 Y143.313
N1525 X75.811 Y143.425
N1526 X75.997 Y143.523
N1527 X76.188 Y143.606
N1528 X76.386 Y143.676
N1529 X76.588 Y143.73
N1530 X76.794 Y143.769
N1531 X77.002 Y143.792
N1532 X77.211 Y143.8
N1533 X141
N1534 X141.209 Y143.792
N1535 X141.417 Y143.769
N1536 X141.623 Y143.73
N1537 X141.825 Y143.676
N1538 X142.023 Y143.606
N1539 X142.215 Y143.523
N1540 X142.4 Y143.425
N1541 X142.577 Y143.313
N1542 X142.746 Y143.189
N1543 X142.904 Y143.053
N1544 X143.053 Y142.904
N1545 X143.189 Y142.746
N1546 X143.313 Y142.577
N1547 X143.425 Y142.4
N1548 X143.523 Y142.215
N1549 X143.606 Y142.023
N1550 X143.676 Y141.825
N1551 X143.73 Y141.623
N1552 X143.769 Y141.417
N1553 X143.792 Y141.209
N1554 X143.8 Y141
N1555 Y77.212
N1556 X143.792 Y77.002
N1557 X143.769 Y76.794
N1558 X143.73 Y76.588
N1559 X143.676 Y76.386
N1560 X143.606 Y76.189
N1561 X143.523 Y75.997
N1562 X143.425 Y75.812
N1563 X143.313 Y75.634
N1564 X143.189 Y75.466
N1565 X143.053 Y75.307
N1566 X142.904 Y75.159
N1567 X142.746 Y75.022
N1568 X142.577 Y74.898
N1569 X142.4 Y74.787
N1570 X142.215 Y74.689
N1571 X142.023 Y74.605
N1572 X141.825 Y74.536
N1573 X141.623 Y74.482
N1574 X141.417 Y74.443
N1575 X141.209 Y74.419
N1576 X141 Y74.411
N1577 X140.862 Y74.404
N1578 X140.727 Y74.38
N1579 X140.594 Y74.341
N1580 X140.468 Y74.287
N1581 X140.348 Y74.219
N1582 X140.237 Y74.137
N1583 X140.135 Y74.044
N1584 X140.046 Y73.939
N1585 X139.969 Y73.825
N1586 X139.905 Y73.702
N1587 X139.856 Y73.574
N1588 X139.822 Y73.44
N1589 X139.804 Y73.303
N1590 X139.801 Y73.166
N1591 X139.814 Y73.028
N1592 X139.843 Y72.894
N1593 X139.887 Y72.763
N1594 X139.946 Y72.638
N1595 X140.018 Y72.521
N1596 X140.104 Y72.413
N1597 X140.202 Y72.316
N1598 X140.31 Y72.23
N1599 X140.427 Y72.157
N1600 X140.551 Y72.099
N1601 X140.682 Y72.054
N1602 X140.817 Y72.026
N1603 X140.954 Y72.012
N1604 X141.092 Y72.015
N1605 X141.228 Y72.033
N1606 X141.362 Y72.067
N1607 X141.491 Y72.117
N1608 X141.613 Y72.18
N1609 X141.727 Y72.257
N1610 X141.832 Y72.347
N1611 X141.926 Y72.448
N1612 X142.007 Y72.559
N1613 X142.075 Y72.679
N1614 X142.129 Y72.806
N1615 X142.168 Y72.938
N1616 X142.192 Y73.074
N1617 X142.2 Y73.212
N1618 X142.208 Y73.421
N1619 X142.231 Y73.629
N1620 X142.27 Y73.835
N1621 X142.324 Y74.037
N1622 X142.394 Y74.234
N1623 X142.477 Y74.426
N1624 X142.575 Y74.612
N1625 X142.687 Y74.789
N1626 X142.811 Y74.957
N1627 X142.947 Y75.116
N1628 X143.096 Y75.264
N1629 X143.254 Y75.401
N1630 X143.423 Y75.525
N1631 X143.6 Y75.636
N1632 X143.785 Y75.734
N1633 X143.977 Y75.818
N1634 X144.175 Y75.887
N1635 X144.377 Y75.941
N1636 X144.583 Y75.98
N1637 X144.791 Y76.004
N1638 X145 Y76.011
N1639 X155
N1640 X155.209 Y76.004
N1641 X155.417 Y75.98
N1642 X155.623 Y75.941
N1643 X155.825 Y75.887
N1644 X156.023 Y75.818
N1645 X156.215 Y75.734
N1646 X156.4 Y75.636
N1647 X156.577 Y75.525
N1648 X156.746 Y75.401
N1649 X156.904 Y75.264
N1650 X157.053 Y75.116
N1651 X157.189 Y74.957
N1652 X157.313 Y74.789
N1653 X157.425 Y74.612
N1654 X157.523 Y74.426
N1655 X157.606 Y74.234
N1656 X157.676 Y74.037
N1657 X157.73 Y73.835
N1658 X157.769 Y73.629
N1659 X157.792 Y73.421
N1660 X157.8 Y73.212
N1661 X157.808 Y73.074
N1662 X157.832 Y72.938
N1663 X157.871 Y72.806
N1664 X157.925 Y72.679
N1665 X157.993 Y72.559
N1666 X158.074 Y72.448
N1667 X158.168 Y72.347
N1668 X158.273 Y72.257
N1669 X158.387 Y72.18
N1670 X158.509 Y72.117
N1671 X158.638 Y72.067
N1672 X158.772 Y72.033
N1673 X158.908 Y72.015
N1674 X159.046 Y72.012
N1675 X159.183 Y72.026
N1676 X159.318 Y72.054
N1677 X159.449 Y72.099
N1678 X159.573 Y72.157
N1679 X159.69 Y72.23
N1680 X159.798 Y72.316
N1681 X159.896 Y72.413
N1682 X159.982 Y72.521
N1683 X160.054 Y72.638
N1684 X160.113 Y72.763
N1685 X160.157 Y72.894
N1686 X160.186 Y73.028
N1687 X160.199 Y73.166
N1688 X160.196 Y73.303
N1689 X160.178 Y73.44
N1690 X160.144 Y73.574
N1691 X160.095 Y73.702
N1692 X160.031 Y73.825
N1693 X159.954 Y73.939
N1694 X159.865 Y74.044
N1695 X159.763 Y74.137
N1696 X159.652 Y74.219
N1697 X159.532 Y74.287
N1698 X159.406 Y74.341
N1699 X159.273 Y74.38
N1700 X159.138 Y74.404
N1701 X159 Y74.411
N1702 X158.791 Y74.419
N1703 X158.583 Y74.443
N1704 X158.377 Y74.482
N1705 X158.175 Y74.536
N1706 X157.977 Y74.605
N1707 X157.785 Y74.689
N1708 X157.6 Y74.787
N1709 X157.423 Y74.898
N1710 X157.254 Y75.022
N1711 X157.096 Y75.159
N1712 X156.947 Y75.307
N1713 X156.811 Y75.466
N1714 X156.687 Y75.634
N1715 X156.575 Y75.812
N1716 X156.477 Y75.997
N1717 X156.394 Y76.189
N1718 X156.324 Y76.386
N1719 X156.27 Y76.588
N1720 X156.231 Y76.794
N1721 X156.208 Y77.002
N1722 X156.2 Y77.212
N1723 Y92.941
N1724 Y141 Z10.805 F2500
N1725 X156.208 Y141.209 Z10.799
N1726 X156.231 Y141.417 Z10.794
N1727 X156.27 Y141.623 Z10.789
N1728 X156.324 Y141.825 Z10.784
N1729 X156.394 Y142.023 Z10.779
N1730 X156.477 Y142.215 Z10.773
N1731 X156.575 Y142.4 Z10.768
N1732 X156.687 Y142.577 Z10.763
N1733 X156.811 Y142.746 Z10.758
N1734 X156.947 Y142.904 Z10.753
N1735 X157.096 Y143.053 Z10.747
N1736 X157.254 Y143.189 Z10.742
N1737 X157.423 Y143.313 Z10.737
N1738 X157.6 Y143.425 Z10.732
N1739 X157.785 Y143.523 Z10.727
N1740 X157.977 Y143.606 Z10.721
N1741 X158.175 Y143.676 Z10.716
N1742 X158.377 Y143.73 Z10.711
N1743 X158.583 Y143.769 Z10.706
N1744 X158.791 Y143.792 Z10.701
N1745 X159 Y143.8 Z10.695
N1746 X222.789 Z9.109
N1747 X222.997 Y143.792 Z9.104
N1748 X223.204 Y143.769 Z9.098
N1749 X223.409 Y143.731 Z9.093
N1750 X223.61 Y143.677 Z9.088
N1751 X223.806 Y143.609 Z9.083
N1752 X223.997 Y143.526 Z9.078
N1753 X224.182 Y143.429 Z9.073
N1754 X224.358 Y143.319 Z9.067
N1755 X224.526 Y143.196 Z9.062
N1756 X224.685 Y143.061 Z9.057
N1757 X224.833 Y142.914 Z9.052
N1758 X224.969 Y142.757 Z9.047
N1759 X225.094 Y142.59 Z9.041
N1760 X225.205 Y142.415 Z9.036
N1761 X225.304 Y142.231 Z9.031
N1762 X225.388 Y142.041 Z9.026
N1763 X225.459 Y141.845 Z9.021
N1764 X225.514 Y141.644 Z9.016
N1765 X225.554 Y141.44 Z9.01
N1766 X225.579 Y141.233 Z9.005
N1767 X225.589 Y141.025 Z9
N1768 Y141 F2760
N1769 X225.597 Y140.862
N1770 X225.621 Y140.727
N1771 X225.66 Y140.594
N1772 X225.714 Y140.468
N1773 X225.782 Y140.348
N1774 X225.863 Y140.237
N1775 X225.957 Y140.135
N1776 X226.062 Y140.046
N1777 X226.176 Y139.969
N1778 X226.298 Y139.905
N1779 X226.427 Y139.856
N1780 X226.561 Y139.822
N1781 X226.697 Y139.804
N1782 X226.835 Y139.801
N1783 X226.972 Y139.814
N1784 X227.107 Y139.843
N1785 X227.238 Y139.887
N1786 X227.362 Y139.946
N1787 X227.479 Y140.018
N1788 X227.587 Y140.104
N1789 X227.685 Y140.202
N1790 X227.771 Y140.31
N1791 X227.843 Y140.427
N1792 X227.902 Y140.551
N1793 X227.946 Y140.682
N1794 X227.975 Y140.817
N1795 X227.988 Y140.954
N1796 X227.985 Y141.092
N1797 X227.967 Y141.228
N1798 X227.933 Y141.362
N1799 X227.884 Y141.491
N1800 X227.82 Y141.613
N1801 X227.743 Y141.727
N1802 X227.654 Y141.832
N1803 X227.552 Y141.926
N1804 X227.441 Y142.007
N1805 X227.321 Y142.075
N1806 X227.195 Y142.129
N1807 X227.062 Y142.168
N1808 X226.927 Y142.192
N1809 X226.789 Y142.2
N1810 X226.58 Y142.208
N1811 X226.372 Y142.231
N1812 X226.166 Y142.27
N1813 X225.964 Y142.324
N1814 X225.766 Y142.394
N1815 X225.574 Y142.477
N1816 X225.389 Y142.575
N1817 X225.212 Y142.687
N1818 X225.043 Y142.811
N1819 X224.885 Y142.947
N1820 X224.736 Y143.096
N1821 X224.6 Y143.254
N1822 X224.476 Y143.423
N1823 X224.364 Y143.6
N1824 X224.266 Y143.785
N1825 X224.183 Y143.977
N1826 X224.113 Y144.175
N1827 X224.059 Y144.377
N1828 X224.02 Y144.583
N1829 X223.997 Y144.791
N1830 X223.989 Y145
N1831 Y155
N1832 X223.997 Y155.209
N1833 X224.02 Y155.417
N1834 X224.059 Y155.623
N1835 X224.113 Y155.825
N1836 X224.183 Y156.023
N1837 X224.266 Y156.215
N1838 X224.364 Y156.4
N1839 X224.476 Y156.577
N1840 X224.6 Y156.746
N1841 X224.736 Y156.904
N1842 X224.885 Y157.053
N1843 X225.043 Y157.189
N1844 X225.212 Y157.313
N1845 X225.389 Y157.425
N1846 X225.574 Y157.523
N1847 X225.766 Y157.606
N1848 X225.964 Y157.676
N1849 X226.166 Y157.73
N1850 X226.372 Y157.769
N1851 X226.58 Y157.792
N1852 X226.789 Y157.8
N1853 X226.927 Y157.808
N1854 X227.062 Y157.832
N1855 X227.195 Y157.871
N1856 X227.321 Y157.925
N1857 X227.441 Y157.993
N1858 X227.552 Y158.074
N1859 X227.654 Y158.168
N1860 X227.743 Y158.273
N1861 X227.82 Y158.387
N1862 X227.884 Y158.509
N1863 X227.933 Y158.638
N1864 X227.967 Y158.772
N1865 X227.985 Y158.908
N1866 X227.988 Y159.046
N1867 X227.975 Y159.183
N1868 X227.946 Y159.318
N1869 X227.902 Y159.449
N1870 X227.843 Y159.573
N1871 X227.771 Y159.69
N1872 X227.685 Y159.798
N1873 X227.587 Y159.896
N1874 X227.479 Y159.982
N1875 X227.362 Y160.054
N1876 X227.238 Y160.113
N1877 X227.107 Y160.157
N1878 X226.972 Y160.186
N1879 X226.835 Y160.199
N1880 X226.697 Y160.196
N1881 X226.561 Y160.178
N1882 X226.427 Y160.144
N1883 X226.298 Y160.095
N1884 X226.176 Y160.031
N1885 X226.062 Y159.954
N1886 X225.957 Y159.865
N1887 X225.863 Y159.763
N1888 X225.782 Y159.652
N1889 X225.714 Y159.532
N1890 X225.66 Y159.406
N1891 X225.621 Y159.273
N1892 X225.597 Y159.138
N1893 X225.589 Y159
N1894 X225.581 Y158.791
N1895 X225.558 Y158.583
N1896 X225.519 Y158.377
N1897 X225.465 Y158.175
N1898 X225.395 Y157.977
N1899 X225.312 Y157.785
N1900 X225.214 Y157.6
N1901 X225.102 Y157.423
N1902 X224.978 Y157.254
N1903 X224.842 Y157.096
N1904 X224.693 Y156.947
N1905 X224.535 Y156.811
N1906 X224.366 Y156.687
N1907 X224.189 Y156.575
N1908 X224.004 Y156.477
N1909 X223.812 Y156.394
N1910 X223.614 Y156.324
N1911 X223.412 Y156.27
N1912 X223.206 Y156.231
N1913 X222.998 Y156.208
N1914 X222.789 Y156.2
N1915 X159
N1916 X158.791 Y156.208
N1917 X158.583 Y156.231
N1918 X158.377 Y156.27
N1919 X158.175 Y156.324
N1920 X157.977 Y156.394
N1921 X157.785 Y156.477
N1922 X157.6 Y156.575
N1923 X157.423 Y156.687
N1924 X157.254 Y156.811
N1925 X157.096 Y156.947
N1926 X156.947 Y157.096
N1927 X156.811 Y157.254
N1928 X156.687 Y157.423
N1929 X156.575 Y157.6
N1930 X156.477 Y157.785
N1931 X156.394 Y157.977
N1932 X156.324 Y158.175
N1933 X156.27 Y158.377
N1934 X156.231 Y158.583
N1935 X156.208 Y158.791
N1936 X156.2 Y159
N1937 Y222.788
N1938 X156.208 Y222.997
N1939 X156.231 Y223.205
N1940 X156.27 Y223.411
N1941 X156.324 Y223.613
N1942 X156.394 Y223.811
N1943 X156.477 Y224.003
N1944 X156.575 Y224.188
N1945 X156.687 Y224.365
N1946 X156.811 Y224.534
N1947 X156.947 Y224.692
N1948 X157.096 Y224.841
N1949 X157.254 Y224.977
N1950 X157.423 Y225.101
N1951 X157.6 Y225.213
N1952 X157.785 Y225.311
N1953 X157.977 Y225.394
N1954 X158.175 Y225.464
N1955 X158.377 Y225.518
N1956 X158.583 Y225.557
N1957 X158.791 Y225.58
N1958 X159 Y225.588
N1959 X159.138 Y225.596
N1960 X159.273 Y225.62
N1961 X159.406 Y225.659
N1962 X159.532 Y225.713
N1963 X159.652 Y225.781
N1964 X159.763 Y225.862
N1965 X159.865 Y225.956
N1966 X159.954 Y226.061
N1967 X160.031 Y226.175
N1968 X160.095 Y226.297
N1969 X160.144 Y226.426
N1970 X160.178 Y226.56
N1971 X160.196 Y226.696
N1972 X160.199 Y226.834
N1973 X160.186 Y226.971
N1974 X160.157 Y227.106
N1975 X160.113 Y227.237
N1976 X160.054 Y227.361
N1977 X159.982 Y227.478
N1978 X159.896 Y227.586
N1979 X159.798 Y227.684
N1980 X159.69 Y227.77
N1981 X159.573 Y227.842
N1982 X159.449 Y227.901
N1983 X159.318 Y227.945
N1984 X159.183 Y227.974
N1985 X159.046 Y227.987
N1986 X158.908 Y227.984
N1987 X158.772 Y227.966
N1988 X158.638 Y227.932
N1989 X158.509 Y227.883
N1990 X158.387 Y227.819
N1991 X158.273 Y227.742
N1992 X158.168 Y227.653
N1993 X158.074 Y227.551
N1994 X157.993 Y227.44
N1995 X157.925 Y227.32
N1996 X157.871 Y227.194
N1997 X157.832 Y227.061
N1998 X157.808 Y226.926
N1999 X157.8 Y226.788
N2000 X157.792 Y226.579
N2001 X157.769 Y226.371
N2002 X157.73 Y226.165
N2003 X157.676 Y225.963
N2004 X157.606 Y225.765
N2005 X157.523 Y225.573
N2006 X157.425 Y225.388
N2007 X157.313 Y225.211
N2008 X157.189 Y225.042
N2009 X157.053 Y224.884
N2010 X156.904 Y224.735
N2011 X156.746 Y224.599
N2012 X156.577 Y224.475
N2013 X156.4 Y224.363
N2014 X156.215 Y224.265
N2015 X156.023 Y224.182
N2016 X155.825 Y224.112
N2017 X155.623 Y224.058
N2018 X155.417 Y224.019
N2019 X155.209 Y223.996
N2020 X155 Y223.988
N2021 X145
N2022 X144.791 Y223.996
N2023 X144.583 Y224.019
N2024 X144.377 Y224.058
N2025 X144.175 Y224.112
N2026 X143.977 Y224.182
N2027 X143.785 Y224.265
N2028 X143.6 Y224.363
N2029 X143.423 Y224.475
N2030 X143.254 Y224.599
N2031 X143.095 Y224.736
N2032 X142.947 Y224.884
N2033 X142.811 Y225.042
N2034 X142.686 Y225.211
N2035 X142.575 Y225.388
N2036 X142.477 Y225.573
N2037 X142.393 Y225.765
N2038 X142.324 Y225.963
N2039 X142.27 Y226.165
N2040 X142.231 Y226.371
N2041 X142.208 Y226.579
N2042 X142.2 Y226.788
N2043 X142.192 Y226.926
N2044 X142.168 Y227.062
N2045 X142.129 Y227.194
N2046 X142.076 Y227.321
N2047 X142.007 Y227.44
N2048 X141.926 Y227.552
N2049 X141.832 Y227.653
N2050 X141.728 Y227.742
N2051 X141.614 Y227.819
N2052 X141.491 Y227.883
N2053 X141.363 Y227.932
N2054 X141.229 Y227.966
N2055 X141.092 Y227.984
N2056 X140.955 Y227.987
N2057 X140.818 Y227.974
N2058 X140.683 Y227.945
N2059 X140.552 Y227.901
N2060 X140.428 Y227.842
N2061 X140.311 Y227.77
N2062 X140.203 Y227.684
N2063 X140.105 Y227.587
N2064 X140.019 Y227.479
N2065 X139.947 Y227.362
N2066 X139.888 Y227.237
N2067 X139.844 Y227.106
N2068 X139.815 Y226.972
N2069 X139.802 Y226.835
N2070 X139.805 Y226.697
N2071 X139.823 Y226.56
N2072 X139.857 Y226.427
N2073 X139.906 Y226.298
N2074 X139.969 Y226.176
N2075 X140.046 Y226.061
N2076 X140.136 Y225.957
N2077 X140.237 Y225.863
N2078 X140.348 Y225.782
N2079 X140.468 Y225.714
N2080 X140.595 Y225.66
N2081 X140.727 Y225.621
N2082 X140.863 Y225.597
N2083 X141 Y225.589
N2084 X141.21 Y225.581
N2085 X141.418 Y225.558
N2086 X141.623 Y225.519
N2087 X141.826 Y225.465
N2088 X142.023 Y225.395
N2089 X142.215 Y225.312
N2090 X142.4 Y225.214
N2091 X142.577 Y225.102
N2092 X142.746 Y224.978
N2093 X142.905 Y224.841
N2094 X143.053 Y224.693
N2095 X143.189 Y224.535
N2096 X143.314 Y224.366
N2097 X143.425 Y224.189
N2098 X143.523 Y224.004
N2099 X143.606 Y223.812
N2100 X143.676 Y223.614
N2101 X143.73 Y223.412
N2102 X143.769 Y223.206
N2103 X143.792 Y222.998
N2104 X143.8 Y222.789
N2105 Y159
N2106 X143.792 Y158.791
N2107 X143.769 Y158.583
N2108 X143.73 Y158.377
N2109 X143.676 Y158.175
N2110 X143.606 Y157.977
N2111 X143.523 Y157.785
N2112 X143.425 Y157.6
N2113 X143.313 Y157.423
N2114 X143.189 Y157.254
N2115 X143.053 Y157.096
N2116 X142.904 Y156.947
N2117 X142.746 Y156.811
N2118 X142.577 Y156.687
N2119 X142.4 Y156.575
N2120 X142.215 Y156.477
N2121 X142.023 Y156.394
N2122 X141.825 Y156.324
N2123 X141.623 Y156.27
N2124 X141.417 Y156.231
N2125 X141.209 Y156.208
N2126 X141 Y156.2
N2127 X77.211
N2128 X77.002 Y156.208
N2129 X76.794 Y156.231
N2130 X76.588 Y156.27
N2131 X76.386 Y156.324
N2132 X76.188 Y156.394
N2133 X75.997 Y156.477
N2134 X75.811 Y156.575
N2135 X75.634 Y156.687
N2136 X75.466 Y156.811
N2137 X75.307 Y156.947
N2138 X75.159 Y157.096
N2139 X75.022 Y157.254
N2140 X74.898 Y157.423
N2141 X74.787 Y157.6
N2142 X74.689 Y157.785
N2143 X74.605 Y157.977
N2144 X74.536 Y158.175
N2145 X74.482 Y158.377
N2146 X74.443 Y158.583
N2147 X74.419 Y158.791
N2148 X74.411 Y159
N2149 X74.403 Y159.138
N2150 X74.38 Y159.273
N2151 X74.341 Y159.406
N2152 X74.287 Y159.532
N2153 X74.219 Y159.652
N2154 X74.137 Y159.763
N2155 X74.044 Y159.865
N2156 X73.939 Y159.954
N2157 X73.825 Y160.031
N2158 X73.702 Y160.095
N2159 X73.573 Y160.144
N2160 X73.44 Y160.178
N2161 X73.303 Y160.196
N2162 X73.165 Y160.199
N2163 X73.028 Y160.186
N2164 X72.893 Y160.157
N2165 X72.763 Y160.113
N2166 X72.638 Y160.054
N2167 X72.521 Y159.982
N2168 X72.413 Y159.896
N2169 X72.316 Y159.798
N2170 X72.23 Y159.69
N2171 X72.157 Y159.573
N2172 X72.098 Y159.449
N2173 X72.054 Y159.318
N2174 X72.025 Y159.183
N2175 X72.012 Y159.046
N2176 X72.015 Y158.908
N2177 X72.033 Y158.772
N2178 X72.067 Y158.638
N2179 X72.116 Y158.509
N2180 X72.18 Y158.387
N2181 X72.257 Y158.273
N2182 X72.347 Y158.168
N2183 X72.448 Y158.074
N2184 X72.559 Y157.993
N2185 X72.679 Y157.925
N2186 X72.806 Y157.871
N2187 X72.938 Y157.832
N2188 X73.074 Y157.808
N2189 X73.211 Y157.8
N2190 X73.421 Y157.792
N2191 X73.629 Y157.769
N2192 X73.834 Y157.73
N2193 X74.037 Y157.676
N2194 X74.234 Y157.606
N2195 X74.426 Y157.523
N2196 X74.611 Y157.425
N2197 X74.789 Y157.313
N2198 X74.957 Y157.189
N2199 X75.116 Y157.053
N2200 X75.264 Y156.904
N2201 X75.401 Y156.746
N2202 X75.525 Y156.577
N2203 X75.636 Y156.4
N2204 X75.734 Y156.215
N2205 X75.818 Y156.023
N2206 X75.887 Y155.825
N2207 X75.941 Y155.623
N2208 X75.98 Y155.417
N2209 X76.004 Y155.209
N2210 X76.011 Y155
N2211 Y145
N2212 X76.004 Y144.791
N2213 X75.98 Y144.583
N2214 X75.941 Y144.377
N2215 X75.887 Y144.175
N2216 X75.818 Y143.977
N2217 X75.734 Y143.785
N2218 X75.636 Y143.6
N2219 X75.525 Y143.423
N2220 X75.401 Y143.254
N2221 X75.264 Y143.096
N2222 X75.116 Y142.947
N2223 X74.957 Y142.811
N2224 X74.789 Y142.687
N2225 X74.611 Y142.575
N2226 X74.426 Y142.477
N2227 X74.234 Y142.394
N2228 X74.037 Y142.324
N2229 X73.834 Y142.27
N2230 X73.629 Y142.231
N2231 X73.421 Y142.208
N2232 X73.211 Y142.2
N2233 X73.074 Y142.192
N2234 X72.938 Y142.168
N2235 X72.806 Y142.129
N2236 X72.679 Y142.075
N2237 X72.559 Y142.007
N2238 X72.448 Y141.926
N2239 X72.347 Y141.832
N2240 X72.257 Y141.727
N2241 X72.18 Y141.613
N2242 X72.116 Y141.491
N2243 X72.067 Y141.362
N2244 X72.033 Y141.228
N2245 X72.015 Y141.092
N2246 X72.012 Y140.954
N2247 X72.025 Y140.817
N2248 X72.054 Y140.682
N2249 X72.098 Y140.551
N2250 X72.157 Y140.427
N2251 X72.23 Y140.31
N2252 X72.316 Y140.202
N2253 X72.413 Y140.104
N2254 X72.521 Y140.018
N2255 X72.638 Y139.946
N2256 X72.763 Y139.887
N2257 X72.893 Y139.843
N2258 X73.028 Y139.814
N2259 X73.165 Y139.801
N2260 X73.303 Y139.804
N2261 X73.44 Y139.822
N2262 X73.573 Y139.856
N2263 X73.702 Y139.905
N2264 X73.825 Y139.969
N2265 X73.939 Y140.046
N2266 X74.044 Y140.135
N2267 X74.137 Y140.237
N2268 X74.219 Y140.348
N2269 X74.287 Y140.468
N2270 X74.341 Y140.594
N2271 X74.38 Y140.727
N2272 X74.403 Y140.862
N2273 X74.411 Y141
N2274 X74.419 Y141.209
N2275 X74.443 Y141.417
N2276 X74.482 Y141.623
N2277 X74.536 Y141.825
N2278 X74.605 Y142.023
N2279 X74.689 Y142.215
N2280 X74.787 Y142.4
N2281 X74.898 Y142.577
N2282 X75.022 Y142.746
N2283 X75.159 Y142.904
N2284 X75.307 Y143.053
N2285 X75.466 Y143.189
N2286 X75.634 Y143.313
N2287 X75.811 Y143.425
N2288 X75.997 Y143.523
N2289 X76.188 Y143.606
N2290 X76.386 Y143.676
N2291 X76.588 Y143.73
N2292 X76.794 Y143.769
N2293 X77.002 Y143.792
N2294 X77.211 Y143.8
N2295 X141
N2296 X141.209 Y143.792
N2297 X141.417 Y143.769
N2298 X141.623 Y143.73
N2299 X141.825 Y143.676
N2300 X142.023 Y143.606
N2301 X142.215 Y143.523
N2302 X142.4 Y143.425
N2303 X142.577 Y143.313
N2304 X142.746 Y143.189
N2305 X142.904 Y143.053
N2306 X143.053 Y142.904
N2307 X143.189 Y142.746
N2308 X143.313 Y142.577
N2309 X143.425 Y142.4
N2310 X143.523 Y142.215
N2311 X143.606 Y142.023
N2312 X143.676 Y141.825
N2313 X143.73 Y141.623
N2314 X143.769 Y141.417
N2315 X143.792 Y141.209
N2316 X143.8 Y141
N2317 Y77.212
N2318 X143.792 Y77.002
N2319 X143.769 Y76.794
N2320 X143.73 Y76.588
N2321 X143.676 Y76.386
N2322 X143.606 Y76.189
N2323 X143.523 Y75.997
N2324 X143.425 Y75.812
N2325 X143.313 Y75.634
N2326 X143.189 Y75.466
N2327 X143.053 Y75.307
N2328 X142.904 Y75.159
N2329 X142.746 Y75.022
N2330 X142.577 Y74.898
N2331 X142.4 Y74.787
N2332 X142.215 Y74.689
N2333 X142.023 Y74.605
N2334 X141.825 Y74.536
N2335 X141.623 Y74.482
N2336 X141.417 Y74.443
N2337 X141.209 Y74.419
N2338 X141 Y74.411
N2339 X140.862 Y74.404
N2340 X140.727 Y74.38
N2341 X140.594 Y74.341
N2342 X140.468 Y74.287
N2343 X140.348 Y74.219
N2344 X140.237 Y74.137
N2345 X140.135 Y74.044
N2346 X140.046 Y73.939
N2347 X139.969 Y73.825
N2348 X139.905 Y73.702
N2349 X139.856 Y73.574
N2350 X139.822 Y73.44
N2351 X139.804 Y73.303
N2352 X139.801 Y73.166
N2353 X139.814 Y73.028
N2354 X139.843 Y72.894
N2355 X139.887 Y72.763
N2356 X139.946 Y72.638
N2357 X140.018 Y72.521
N2358 X140.104 Y72.413
N2359 X140.202 Y72.316
N2360 X140.31 Y72.23
N2361 X140.427 Y72.157
N2362 X140.551 Y72.099
N2363 X140.682 Y72.054
N2364 X140.817 Y72.026
N2365 X140.954 Y72.012
N2366 X141.092 Y72.015
N2367 X141.228 Y72.033
N2368 X141.362 Y72.067
N2369 X141.491 Y72.117
N2370 X141.613 Y72.18
N2371 X141.727 Y72.257
N2372 X141.832 Y72.347
N2373 X141.926 Y72.448
N2374 X142.007 Y72.559
N2375 X142.075 Y72.679
N2376 X142.129 Y72.806
N2377 X142.168 Y72.938
N2378 X142.192 Y73.074
N2379 X142.2 Y73.212
N2380 X142.208 Y73.421
N2381 X142.231 Y73.629
N2382 X142.27 Y73.835
N2383 X142.324 Y74.037
N2384 X142.394 Y74.234
N2385 X142.477 Y74.426
N2386 X142.575 Y74.612
N2387 X142.687 Y74.789
N2388 X142.811 Y74.957
N2389 X142.947 Y75.116
N2390 X143.096 Y75.264
N2391 X143.254 Y75.401
N2392 X143.423 Y75.525
N2393 X143.6 Y75.636
N2394 X143.785 Y75.734
N2395 X143.977 Y75.818
N2396 X144.175 Y75.887
N2397 X144.377 Y75.941
N2398 X144.583 Y75.98
N2399 X144.791 Y76.004
N2400 X145 Y76.011
N2401 X155
N2402 X155.209 Y76.004
N2403 X155.417 Y75.98
N2404 X155.623 Y75.941
N2405 X155.825 Y75.887
N2406 X156.023 Y75.818
N2407 X156.215 Y75.734
N2408 X156.4 Y75.636
N2409 X156.577 Y75.525
N2410 X156.746 Y75.401
N2411 X156.904 Y75.264
N2412 X157.053 Y75.116
N2413 X157.189 Y74.957
N2414 X157.313 Y74.789
N2415 X157.425 Y74.612
N2416 X157.523 Y74.426
N2417 X157.606 Y74.234
N2418 X157.676 Y74.037
N2419 X157.73 Y73.835
N2420 X157.769 Y73.629
N2421 X157.792 Y73.421
N2422 X157.8 Y73.212
N2423 X157.808 Y73.074
N2424 X157.832 Y72.938
N2425 X157.871 Y72.806
N2426 X157.925 Y72.679
N2427 X157.993 Y72.559
N2428 X158.074 Y72.448
N2429 X158.168 Y72.347
N2430 X158.273 Y72.257
N2431 X158.387 Y72.18
N2432 X158.509 Y72.117
N2433 X158.638 Y72.067
N2434 X158.772 Y72.033
N2435 X158.908 Y72.015
N2436 X159.046 Y72.012
N2437 X159.183 Y72.026
N2438 X159.318 Y72.054
N2439 X159.449 Y72.099
N2440 X159.573 Y72.157
N2441 X159.69 Y72.23
N2442 X159.798 Y72.316
N2443 X159.896 Y72.413
N2444 X159.982 Y72.521
N2445 X160.054 Y72.638
N2446 X160.113 Y72.763
N2447 X160.157 Y72.894
N2448 X160.186 Y73.028
N2449 X160.199 Y73.166
N2450 X160.196 Y73.303
N2451 X160.178 Y73.44
N2452 X160.144 Y73.574
N2453 X160.095 Y73.702
N2454 X160.031 Y73.825
N2455 X159.954 Y73.939
N2456 X159.865 Y74.044
N2457 X159.763 Y74.137
N2458 X159.652 Y74.219
N2459 X159.532 Y74.287
N2460 X159.406 Y74.341
N2461 X159.273 Y74.38
N2462 X159.138 Y74.404
N2463 X159 Y74.411
N2464 X158.791 Y74.419
N2465 X158.583 Y74.443
N2466 X158.377 Y74.482
N2467 X158.175 Y74.536
N2468 X157.977 Y74.605
N2469 X157.785 Y74.689
N2470 X157.6 Y74.787
N2471 X157.423 Y74.898
N2472 X157.254 Y75.022
N2473 X157.096 Y75.159
N2474 X156.947 Y75.307
N2475 X156.811 Y75.466
N2476 X156.687 Y75.634
N2477 X156.575 Y75.812
N2478 X156.477 Y75.997
N2479 X156.394 Y76.189
N2480 X156.324 Y76.386
N2481 X156.27 Y76.588
N2482 X156.231 Y76.794
N2483 X156.208 Y77.002
N2484 X156.2 Y77.212
N2485 Y141
N2486 X156.208 Y141.209
N2487 X156.231 Y141.417
N2488 X156.27 Y141.623
N2489 X156.324 Y141.825
N2490 X156.394 Y142.023
N2491 X156.477 Y142.215
N2492 X156.575 Y142.4
N2493 X156.687 Y142.577
N2494 X156.811 Y142.746
N2495 X156.947 Y142.904
N2496 X157.096 Y143.053
N2497 X157.254 Y143.189
N2498 X157.423 Y143.313
N2499 X157.6 Y143.425
N2500 X157.785 Y143.523
N2501 X157.977 Y143.606
N2502 X158.175 Y143.676
N2503 X158.377 Y143.73
N2504 X158.583 Y143.769
N2505 X158.791 Y143.792
N2506 X159 Y143.8
N2507 X222.789
N2508 X222.997 Y143.792
N2509 X223.204 Y143.769
N2510 X223.409 Y143.731
N2511 X223.61 Y143.677
N2512 X223.806 Y143.609
N2513 X223.997 Y143.526
N2514 X224.182 Y143.429
N2515 X224.358 Y143.319
N2516 X224.526 Y143.196
N2517 X224.685 Y143.061
N2518 X224.833 Y142.914
N2519 X224.969 Y142.757
N2520 X225.094 Y142.59
N2521 X225.205 Y142.415
N2522 X225.304 Y142.231
N2523 X225.388 Y142.041
N2524 X225.459 Y141.845
N2525 X225.514 Y141.644
N2526 X225.554 Y141.44
N2527 X225.579 Y141.233
N2528 X225.589 Y141.025
N2529 Y141 Z8.999 F2500
N2530 X225.597 Y140.862 Z8.996
N2531 X225.621 Y140.727 Z8.993
N2532 X225.66 Y140.594 Z8.989
N2533 X225.714 Y140.468 Z8.986
N2534 X225.782 Y140.348 Z8.982
N2535 X225.863 Y140.237 Z8.979
N2536 X225.957 Y140.135 Z8.975
N2537 X226.062 Y140.046 Z8.972
N2538 X226.176 Y139.969 Z8.968
N2539 X226.298 Y139.905 Z8.965
N2540 X226.427 Y139.856 Z8.962
N2541 X226.561 Y139.822 Z8.958
N2542 X226.697 Y139.804 Z8.955
N2543 X226.835 Y139.801 Z8.951
N2544 X226.972 Y139.814 Z8.948
N2545 X227.107 Y139.843 Z8.944
N2546 X227.238 Y139.887 Z8.941
N2547 X227.362 Y139.946 Z8.938
N2548 X227.479 Y140.018 Z8.934
N2549 X227.587 Y140.104 Z8.931
N2550 X227.685 Y140.202 Z8.927
N2551 X227.771 Y140.31 Z8.924
N2552 X227.843 Y140.427 Z8.92
N2553 X227.902 Y140.551 Z8.917
N2554 X227.946 Y140.682 Z8.914
N2555 X227.975 Y140.817 Z8.91
N2556 X227.988 Y140.954 Z8.907
N2557 X227.985 Y141.092 Z8.903
N2558 X227.967 Y141.228 Z8.9
N2559 X227.933 Y141.362 Z8.896
N2560 X227.884 Y141.491 Z8.893
N2561 X227.82 Y141.613 Z8.89
N2562 X227.743 Y141.727 Z8.886
N2563 X227.654 Y141.832 Z8.883
N2564 X227.552 Y141.926 Z8.879
N2565 X227.441 Y142.007 Z8.876
N2566 X227.321 Y142.075 Z8.872
N2567 X227.195 Y142.129 Z8.869
N2568 X227.062 Y142.168 Z8.866
N2569 X226.927 Y142.192 Z8.862
N2570 X226.789 Y142.2 Z8.859
N2571 X226.58 Y142.208 Z8.854
N2572 X226.372 Y142.231 Z8.848
N2573 X226.166 Y142.27 Z8.843
N2574 X225.964 Y142.324 Z8.838
N2575 X225.766 Y142.394 Z8.833
N2576 X225.574 Y142.477 Z8.827
N2577 X225.389 Y142.575 Z8.822
N2578 X225.212 Y142.687 Z8.817
N2579 X225.043 Y142.811 Z8.812
N2580 X224.885 Y142.947 Z8.807
N2581 X224.736 Y143.096 Z8.801
N2582 X224.6 Y143.254 Z8.796
N2583 X224.476 Y143.423 Z8.791
N2584 X224.364 Y143.6 Z8.786
N2585 X224.266 Y143.785 Z8.781
N2586 X224.183 Y143.977 Z8.775
N2587 X224.113 Y144.175 Z8.77
N2588 X224.059 Y144.377 Z8.765
N2589 X224.02 Y144.583 Z8.76
N2590 X223.997 Y144.791 Z8.755
N2591 X223.989 Y145 Z8.749
N2592 Y155 Z8.501
N2593 X223.997 Y155.209 Z8.495
N2594 X224.02 Y155.417 Z8.49
N2595 X224.059 Y155.623 Z8.485
N2596 X224.113 Y155.825 Z8.48
N2597 X224.183 Y156.023 Z8.475
N2598 X224.266 Y156.215 Z8.469
N2599 X224.364 Y156.4 Z8.464
N2600 X224.476 Y156.577 Z8.459
N2601 X224.6 Y156.746 Z8.454
N2602 X224.736 Y156.904 Z8.449
N2603 X224.885 Y157.053 Z8.443
N2604 X225.043 Y157.189 Z8.438
N2605 X225.212 Y157.313 Z8.433
N2606 X225.389 Y157.425 Z8.428
N2607 X225.574 Y157.523 Z8.422
N2608 X225.766 Y157.606 Z8.417
N2609 X225.964 Y157.676 Z8.412
N2610 X226.166 Y157.73 Z8.407
N2611 X226.372 Y157.769 Z8.402
N2612 X226.58 Y157.792 Z8.396
N2613 X226.789 Y157.8 Z8.391
N2614 X226.927 Y157.808 Z8.388
N2615 X227.062 Y157.832 Z8.384
N2616 X227.195 Y157.871 Z8.381
N2617 X227.321 Y157.925 Z8.378
N2618 X227.441 Y157.993 Z8.374
N2619 X227.552 Y158.074 Z8.371
N2620 X227.654 Y158.168 Z8.367
N2621 X227.743 Y158.273 Z8.364
N2622 X227.82 Y158.387 Z8.36
N2623 X227.884 Y158.509 Z8.357
N2624 X227.933 Y158.638 Z8.353
N2625 X227.967 Y158.772 Z8.35
N2626 X227.985 Y158.908 Z8.347
N2627 X227.988 Y159.046 Z8.343
N2628 X227.975 Y159.183 Z8.34
N2629 X227.946 Y159.318 Z8.336
N2630 X227.902 Y159.449 Z8.333
N2631 X227.843 Y159.573 Z8.329
N2632 X227.771 Y159.69 Z8.326
N2633 X227.685 Y159.798 Z8.323
N2634 X227.587 Y159.896 Z8.319
N2635 X227.479 Y159.982 Z8.316
N2636 X227.362 Y160.054 Z8.312
N2637 X227.238 Y160.113 Z8.309
N2638 X227.107 Y160.157 Z8.305
N2639 X226.972 Y160.186 Z8.302
N2640 X226.835 Y160.199 Z8.299
N2641 X226.697 Y160.196 Z8.295
N2642 X226.561 Y160.178 Z8.292
N2643 X226.427 Y160.144 Z8.288
N2644 X226.298 Y160.095 Z8.285
N2645 X226.176 Y160.031 Z8.281
N2646 X226.062 Y159.954 Z8.278
N2647 X225.957 Y159.865 Z8.275
N2648 X225.863 Y159.763 Z8.271
N2649 X225.782 Y159.652 Z8.268
N2650 X225.714 Y159.532 Z8.264
N2651 X225.66 Y159.406 Z8.261
N2652 X225.621 Y159.273 Z8.257
N2653 X225.597 Y159.138 Z8.254
N2654 X225.589 Y159 Z8.251
N2655 X225.581 Y158.791 Z8.245
N2656 X225.558 Y158.583 Z8.24
N2657 X225.519 Y158.377 Z8.235
N2658 X225.465 Y158.175 Z8.23
N2659 X225.395 Y157.977 Z8.225
N2660 X225.312 Y157.785 Z8.219
N2661 X225.214 Y157.6 Z8.214
N2662 X225.102 Y157.423 Z8.209
N2663 X224.978 Y157.254 Z8.204
N2664 X224.842 Y157.096 Z8.198
N2665 X224.693 Y156.947 Z8.193
N2666 X224.535 Y156.811 Z8.188
N2667 X224.366 Y156.687 Z8.183
N2668 X224.189 Y156.575 Z8.178
N2669 X224.004 Y156.477 Z8.172
N2670 X223.812 Y156.394 Z8.167
N2671 X223.614 Y156.324 Z8.162
N2672 X223.412 Y156.27 Z8.157
N2673 X223.206 Y156.231 Z8.152
N2674 X222.998 Y156.208 Z8.146
N2675 X222.789 Y156.2 Z8.141
N2676 X159 Z6.555
N2677 X158.791 Y156.208 Z6.549
N2678 X158.583 Y156.231 Z6.544
N2679 X158.377 Y156.27 Z6.539
N2680 X158.175 Y156.324 Z6.534
N2681 X157.977 Y156.394 Z6.529
N2682 X157.785 Y156.477 Z6.523
N2683 X157.6 Y156.575 Z6.518
N2684 X157.423 Y156.687 Z6.513
N2685 X157.254 Y156.811 Z6.508
N2686 X157.096 Y156.947 Z6.503
N2687 X156.947 Y157.096 Z6.497
N2688 X156.811 Y157.254 Z6.492
N2689 X156.687 Y157.423 Z6.487
N2690 X156.575 Y157.6 Z6.482
N2691 X156.477 Y157.785 Z6.477
N2692 X156.394 Y157.977 Z6.471
N2693 X156.324 Y158.175 Z6.466
N2694 X156.27 Y158.377 Z6.461
N2695 X156.231 Y158.583 Z6.456
N2696 X156.208 Y158.791 Z6.45
N2697 X156.2 Y159 Z6.445
N2698 Y176.903 Z6
N2699 Y222.788 F2760
N2700 X156.208 Y222.997
N2701 X156.231 Y223.205
N2702 X156.27 Y223.411
N2703 X156.324 Y223.613
N2704 X156.394 Y223.811
N2705 X156.477 Y224.003
N2706 X156.575 Y224.188
N2707 X156.687 Y224.365
N2708 X156.811 Y224.534
N2709 X156.947 Y224.692
N2710 X157.096 Y224.841
N2711 X157.254 Y224.977
N2712 X157.423 Y225.101
N2713 X157.6 Y225.213
N2714 X157.785 Y225.311
N2715 X157.977 Y225.394
N2716 X158.175 Y225.464
N2717 X158.377 Y225.518
N2718 X158.583 Y225.557
N2719 X158.791 Y225.58
N2720 X159 Y225.588
N2721 X159.138 Y225.596
N2722 X159.273 Y225.62
N2723 X159.406 Y225.659
N2724 X159.532 Y225.713
N2725 X159.652 Y225.781
N2726 X159.763 Y225.862
N2727 X159.865 Y225.956
N2728 X159.954 Y226.061
N2729 X160.031 Y226.175
N2730 X160.095 Y226.297
N2731 X160.144 Y226.426
N2732 X160.178 Y226.56
N2733 X160.196 Y226.696
N2734 X160.199 Y226.834
N2735 X160.186 Y226.971
N2736 X160.157 Y227.106
N2737 X160.113 Y227.237
N2738 X160.054 Y227.361
N2739 X159.982 Y227.478
N2740 X159.896 Y227.586
N2741 X159.798 Y227.684
N2742 X159.69 Y227.77
N2743 X159.573 Y227.842
N2744 X159.449 Y227.901
N2745 X159.318 Y227.945
N2746 X159.183 Y227.974
N2747 X159.046 Y227.987
N2748 X158.908 Y227.984
N2749 X158.772 Y227.966
N2750 X158.638 Y227.932
N2751 X158.509 Y227.883
N2752 X158.387 Y227.819
N2753 X158.273 Y227.742
N2754 X158.168 Y227.653
N2755 X158.074 Y227.551
N2756 X157.993 Y227.44
N2757 X157.925 Y227.32
N2758 X157.871 Y227.194
N2759 X157.832 Y227.061
N2760 X157.808 Y226.926
N2761 X157.8 Y226.788
N2762 X157.792 Y226.579
N2763 X157.769 Y226.371
N2764 X157.73 Y226.165
N2765 X157.676 Y225.963
N2766 X157.606 Y225.765
N2767 X157.523 Y225.573
N2768 X157.425 Y225.388
N2769 X157.313 Y225.211
N2770 X157.189 Y225.042
N2771 X157.053 Y224.884
N2772 X156.904 Y224.735
N2773 X156.746 Y224.599
N2774 X156.577 Y224.475
N2775 X156.4 Y224.363
N2776 X156.215 Y224.265
N2777 X156.023 Y224.182
N2778 X155.825 Y224.112
N2779 X155.623 Y224.058
N2780 X155.417 Y224.019
N2781 X155.209 Y223.996
N2782 X155 Y223.988
N2783 X145
N2784 X144.791 Y223.996
N2785 X144.583 Y224.019
N2786 X144.377 Y224.058
N2787 X144.175 Y224.112
N2788 X143.977 Y224.182
N2789 X143.785 Y224.265
N2790 X143.6 Y224.363
N2791 X143.423 Y224.475
N2792 X143.254 Y224.599
N2793 X143.095 Y224.736
N2794 X142.947 Y224.884
N2795 X142.811 Y225.042
N2796 X142.686 Y225.211
N2797 X142.575 Y225.388
N2798 X142.477 Y225.573
N2799 X142.393 Y225.765
N2800 X142.324 Y225.963
N2801 X142.27 Y226.165
N2802 X142.231 Y226.371
N2803 X142.208 Y226.579
N2804 X142.2 Y226.788
N2805 X142.192 Y226.926
N2806 X142.168 Y227.062
N2807 X142.129 Y227.194
N2808 X142.076 Y227.321
N2809 X142.007 Y227.44
N2810 X141.926 Y227.552
N2811 X141.832 Y227.653
N2812 X141.728 Y227.742
N2813 X141.614 Y227.819
N2814 X141.491 Y227.883
N2815 X141.363 Y227.932
N2816 X141.229 Y227.966
N2817 X141.092 Y227.984
N2818 X140.955 Y227.987
N2819 X140.818 Y227.974
N2820 X140.683 Y227.945
N2821 X140.552 Y227.901
N2822 X140.428 Y227.842
N2823 X140.311 Y227.77
N2824 X140.203 Y227.684
N2825 X140.105 Y227.587
N2826 X140.019 Y227.479
N2827 X139.947 Y227.362
N2828 X139.888 Y227.237
N2829 X139.844 Y227.106
N2830 X139.815 Y226.972
N2831 X139.802 Y226.835
N2832 X139.805 Y226.697
N2833 X139.823 Y226.56
N2834 X139.857 Y226.427
N2835 X139.906 Y226.298
N2836 X139.969 Y226.176
N2837 X140.046 Y226.061
N2838 X140.136 Y225.957
N2839 X140.237 Y225.863
N2840 X140.348 Y225.782
N2841 X140.468 Y225.714
N2842 X140.595 Y225.66
N2843 X140.727 Y225.621
N2844 X140.863 Y225.597
N2845 X141 Y225.589
N2846 X141.21 Y225.581
N2847 X141.418 Y225.558
N2848 X141.623 Y225.519
N2849 X141.826 Y225.465
N2850 X142.023 Y225.395
N2851 X142.215 Y225.312
N2852 X142.4 Y225.214
N2853 X142.577 Y225.102
N2854 X142.746 Y224.978
N2855 X142.905 Y224.841
N2856 X143.053 Y224.693
N2857 X143.189 Y224.535
N2858 X143.314 Y224.366
N2859 X143.425 Y224.189
N2860 X143.523 Y224.004
N2861 X143.606 Y223.812
N2862 X143.676 Y223.614
N2863 X143.73 Y223.412
N2864 X143.769 Y223.206
N2865 X143.792 Y222.998
N2866 X143.8 Y222.789
N2867 Y159
N2868 X143.792 Y158.791
N2869 X143.769 Y158.583
N2870 X143.73 Y158.377
N2871 X143.676 Y158.175
N2872 X143.606 Y157.977
N2873 X143.523 Y157.785
N2874 X143.425 Y157.6
N2875 X143.313 Y157.423
N2876 X143.189 Y157.254
N2877 X143.053 Y157.096
N2878 X142.904 Y156.947
N2879 X142.746 Y156.811
N2880 X142.577 Y156.687
N2881 X142.4 Y156.575
N2882 X142.215 Y156.477
N2883 X142.023 Y156.394
N2884 X141.825 Y156.324
N2885 X141.623 Y156.27
N2886 X141.417 Y156.231
N2887 X141.209 Y156.208
N2888 X141 Y156.2
N2889 X77.211
N2890 X77.002 Y156.208
N2891 X76.794 Y156.231
N2892 X76.588 Y156.27
N2893 X76.386 Y156.324
N2894 X76.188 Y156.394
N2895 X75.997 Y156.477
N2896 X75.811 Y156.575
N2897 X75.634 Y156.687
N2898 X75.466 Y156.811
N2899 X75.307 Y156.947
N2900 X75.159 Y157.096
N2901 X75.022 Y157.254
N2902 X74.898 Y157.423
N2903 X74.787 Y157.6
N2904 X74.689 Y157.785
N2905 X74.605 Y157.977
N2906 X74.536 Y158.175
N2907 X74.482 Y158.377
N2908 X74.443 Y158.583
N2909 X74.419 Y158.791
N2910 X74.411 Y159
N2911 X74.403 Y159.138
N2912 X74.38 Y159.273
N2913 X74.341 Y159.406
N2914 X74.287 Y159.532
N2915 X74.219 Y159.652
N2916 X74.137 Y159.763
N2917 X74.044 Y159.865
N2918 X73.939 Y159.954
N2919 X73.825 Y160.031
N2920 X73.702 Y160.095
N2921 X73.573 Y160.144
N2922 X73.44 Y160.178
N2923 X73.303 Y160.196
N2924 X73.165 Y160.199
N2925 X73.028 Y160.186
N2926 X72.893 Y160.157
N2927 X72.763 Y160.113
N2928 X72.638 Y160.054
N2929 X72.521 Y159.982
N2930 X72.413 Y159.896
N2931 X72.316 Y159.798
N2932 X72.23 Y159.69
N2933 X72.157 Y159.573
N2934 X72.098 Y159.449
N2935 X72.054 Y159.318
N2936 X72.025 Y159.183
N2937 X72.012 Y159.046
N2938 X72.015 Y158.908
N2939 X72.033 Y158.772
N2940 X72.067 Y158.638
N2941 X72.116 Y158.509
N2942 X72.18 Y158.387
N2943 X72.257 Y158.273
N2944 X72.347 Y158.168
N2945 X72.448 Y158.074
N2946 X72.559 Y157.993
N2947 X72.679 Y157.925
N2948 X72.806 Y157.871
N2949 X72.938 Y157.832
N2950 X73.074 Y157.808
N2951 X73.211 Y157.8
N2952 X73.421 Y157.792
N2953 X73.629 Y157.769
N2954 X73.834 Y157.73
N2955 X74.037 Y157.676
N2956 X74.234 Y157.606
N2957 X74.426 Y157.523
N2958 X74.611 Y157.425
N2959 X74.789 Y157.313
N2960 X74.957 Y157.189
N2961 X75.116 Y157.053
N2962 X75.264 Y156.904
N2963 X75.401 Y156.746
N2964 X75.525 Y156.577
N2965 X75.636 Y156.4
N2966 X75.734 Y156.215
N2967 X75.818 Y156.023
N2968 X75.887 Y155.825
N2969 X75.941 Y155.623
N2970 X75.98 Y155.417
N2971 X76.004 Y155.209
N2972 X76.011 Y155
N2973 Y145
N2974 X76.004 Y144.791
N2975 X75.98 Y144.583
N2976 X75.941 Y144.377
N2977 X75.887 Y144.175
N2978 X75.818 Y143.977
N2979 X75.734 Y143.785
N2980 X75.636 Y143.6
N2981 X75.525 Y143.423
N2982 X75.401 Y143.254
N2983 X75.264 Y143.096
N2984 X75.116 Y142.947
N2985 X74.957 Y142.811
N2986 X74.789 Y142.687
N2987 X74.611 Y142.575
N2988 X74.426 Y142.477
N2989 X74.234 Y142.394
N2990 X74.037 Y142.324
N2991 X73.834 Y142.27
N2992 X73.629 Y142.231
N2993 X73.421 Y142.208
N2994 X73.211 Y142.2
N2995 X73.074 Y142.192
N2996 X72.938 Y142.168
N2997 X72.806 Y142.129
N2998 X72.679 Y142.075
N2999 X72.559 Y142.007
N3000 X72.448 Y141.926
N3001 X72.347 Y141.832
N3002 X72.257 Y141.727
N3003 X72.18 Y141.613
N3004 X72.116 Y141.491
N3005 X72.067 Y141.362
N3006 X72.033 Y141.228
N3007 X72.015 Y141.092
N3008 X72.012 Y140.954
N3009 X72.025 Y140.817
N3010 X72.054 Y140.682
N3011 X72.098 Y140.551
N3012 X72.157 Y140.427
N3013 X72.23 Y140.31
N3014 X72.316 Y140.202
N3015 X72.413 Y140.104
N3016 X72.521 Y140.018
N3017 X72.638 Y139.946
N3018 X72.763 Y139.887
N3019 X72.893 Y139.843
N3020 X73.028 Y139.814
N3021 X73.165 Y139.801
N3022 X73.303 Y139.804
N3023 X73.44 Y139.822
N3024 X73.573 Y139.856
N3025 X73.702 Y139.905
N3026 X73.825 Y139.969
N3027 X73.939 Y140.046
N3028 X74.044 Y140.135
N3029 X74.137 Y140.237
N3030 X74.219 Y140.348
N3031 X74.287 Y140.468
N3032 X74.341 Y140.594
N3033 X74.38 Y140.727
N3034 X74.403 Y140.862
N3035 X74.411 Y141
N3036 X74.419 Y141.209
N3037 X74.443 Y141.417
N3038 X74.482 Y141.623
N3039 X74.536 Y141.825
N3040 X74.605 Y142.023
N3041 X74.689 Y142.215
N3042 X74.787 Y142.4
N3043 X74.898 Y142.577
N3044 X75.022 Y142.746
N3045 X75.159 Y142.904
N3046 X75.307 Y143.053
N3047 X75.466 Y143.189
N3048 X75.634 Y143.313
N3049 X75.811 Y143.425
N3050 X75.997 Y143.523
N3051 X76.188 Y143.606
N3052 X76.386 Y143.676
N3053 X76.588 Y143.73
N3054 X76.794 Y143.769
N3055 X77.002 Y143.792
N3056 X77.211 Y143.8
N3057 X141
N3058 X141.209 Y143.792
N3059 X141.417 Y143.769
N3060 X141.623 Y143.73
N3061 X141.825 Y143.676
N3062 X142.023 Y143.606
N3063 X142.215 Y143.523
N3064 X142.4 Y143.425
N3065 X142.577 Y143.313
N3066 X142.746 Y143.189
N3067 X142.904 Y143.053
N3068 X143.053 Y142.904
N3069 X143.189 Y142.746
N3070 X143.313 Y142.577
N3071 X143.425 Y142.4
N3072 X143.523 Y142.215
N3073 X143.606 Y142.023
N3074 X143.676 Y141.825
N3075 X143.73 Y141.623
N3076 X143.769 Y141.417
N3077 X143.792 Y141.209
N3078 X143.8 Y141
N3079 Y77.212
N3080 X143.792 Y77.002
N3081 X143.769 Y76.794
N3082 X143.73 Y76.588
N3083 X143.676 Y76.386
N3084 X143.606 Y76.189
N3085 X143.523 Y75.997
N3086 X143.425 Y75.812
N3087 X143.313 Y75.634
N3088 X143.189 Y75.466
N3089 X143.053 Y75.307
N3090 X142.904 Y75.159
N3091 X142.746 Y75.022
N3092 X142.577 Y74.898
N3093 X142.4 Y74.787
N3094 X142.215 Y74.689
N3095 X142.023 Y74.605
N3096 X141.825 Y74.536
N3097 X141.623 Y74.482
N3098 X141.417 Y74.443
N3099 X141.209 Y74.419
N3100 X141 Y74.411
N3101 X140.862 Y74.404
N3102 X140.727 Y74.38
N3103 X140.594 Y74.341
N3104 X140.468 Y74.287
N3105 X140.348 Y74.219
N3106 X140.237 Y74.137
N3107 X140.135 Y74.044
N3108 X140.046 Y73.939
N3109 X139.969 Y73.825
N3110 X139.905 Y73.702
N3111 X139.856 Y73.574
N3112 X139.822 Y73.44
N3113 X139.804 Y73.303
N3114 X139.801 Y73.166
N3115 X139.814 Y73.028
N3116 X139.843 Y72.894
N3117 X139.887 Y72.763
N3118 X139.946 Y72.638
N3119 X140.018 Y72.521
N3120 X140.104 Y72.413
N3121 X140.202 Y72.316
N3122 X140.31 Y72.23
N3123 X140.427 Y72.157
N3124 X140.551 Y72.099
N3125 X140.682 Y72.054
N3126 X140.817 Y72.026
N3127 X140.954 Y72.012
N3128 X141.092 Y72.015
N3129 X141.228 Y72.033
N3130 X141.362 Y72.067
N3131 X141.491 Y72.117
N3132 X141.613 Y72.18
N3133 X141.727 Y72.257
N3134 X141.832 Y72.347
N3135 X141.926 Y72.448
N3136 X142.007 Y72.559
N3137 X142.075 Y72.679
N3138 X142.129 Y72.806
N3139 X142.168 Y72.938
N3140 X142.192 Y73.074
N3141 X142.2 Y73.212
N3142 X142.208 Y73.421
N3143 X142.231 Y73.629
N3144 X142.27 Y73.835
N3145 X142.324 Y74.037
N3146 X142.394 Y74.234
N3147 X142.477 Y74.426
N3148 X142.575 Y74.612
N3149 X142.687 Y74.789
N3150 X142.811 Y74.957
N3151 X142.947 Y75.116
N3152 X143.096 Y75.264
N3153 X143.254 Y75.401
N3154 X143.423 Y75.525
N3155 X143.6 Y75.636
N3156 X143.785 Y75.734
N3157 X143.977 Y75.818
N3158 X144.175 Y75.887
N3159 X144.377 Y75.941
N3160 X144.583 Y75.98
N3161 X144.791 Y76.004
N3162 X145 Y76.011
N3163 X155
N3164 X155.209 Y76.004
N3165 X155.417 Y75.98
N3166 X155.623 Y75.941
N3167 X155.825 Y75.887
N3168 X156.023 Y75.818
N3169 X156.215 Y75.734
N3170 X156.4 Y75.636
N3171 X156.577 Y75.525
N3172 X156.746 Y75.401
N3173 X156.904 Y75.264
N3174 X157.053 Y75.116
N3175 X157.189 Y74.957
N3176 X157.313 Y74.789
N3177 X157.425 Y74.612
N3178 X157.523 Y74.426
N3179 X157.606 Y74.234
N3180 X157.676 Y74.037
N3181 X157.73 Y73.835
N3182 X157.769 Y73.629
N3183 X157.792 Y73.421
N3184 X157.8 Y73.212
N3185 X157.808 Y73.074
N3186 X157.832 Y72.938
N3187 X157.871 Y72.806
N3188 X157.925 Y72.679
N3189 X157.993 Y72.559
N3190 X158.074 Y72.448
N3191 X158.168 Y72.347
N3192 X158.273 Y72.257
N3193 X158.387 Y72.18
N3194 X158.509 Y72.117
N3195 X158.638 Y72.067
N3196 X158.772 Y72.033
N3197 X158.908 Y72.015
N3198 X159.046 Y72.012
N3199 X159.183 Y72.026
N3200 X159.318 Y72.054
N3201 X159.449 Y72.099
N3202 X159.573 Y72.157
N3203 X159.69 Y72.23
N3204 X159.798 Y72.316
N3205 X159.896 Y72.413
N3206 X159.982 Y72.521
N3207 X160.054 Y72.638
N3208 X160.113 Y72.763
N3209 X160.157 Y72.894
N3210 X160.186 Y73.028
N3211 X160.199 Y73.166
N3212 X160.196 Y73.303
N3213 X160.178 Y73.44
N3214 X160.144 Y73.574
N3215 X160.095 Y73.702
N3216 X160.031 Y73.825
N3217 X159.954 Y73.939
N3218 X159.865 Y74.044
N3219 X159.763 Y74.137
N3220 X159.652 Y74.219
N3221 X159.532 Y74.287
N3222 X159.406 Y74.341
N3223 X159.273 Y74.38
N3224 X159.138 Y74.404
N3225 X159 Y74.411
N3226 X158.791 Y74.419
N3227 X158.583 Y74.443
N3228 X158.377 Y74.482
N3229 X158.175 Y74.536
N3230 X157.977 Y74.605
N3231 X157.785 Y74.689
N3232 X157.6 Y74.787
N3233 X157.423 Y74.898
N3234 X157.254 Y75.022
N3235 X157.096 Y75.159
N3236 X156.947 Y75.307
N3237 X156.811 Y75.466
N3238 X156.687 Y75.634
N3239 X156.575 Y75.812
N3240 X156.477 Y75.997
N3241 X156.394 Y76.189
N3242 X156.324 Y76.386
N3243 X156.27 Y76.588
N3244 X156.231 Y76.794
N3245 X156.208 Y77.002
N3246 X156.2 Y77.212
N3247 Y141
N3248 X156.208 Y141.209
N3249 X156.231 Y141.417
N3250 X156.27 Y141.623
N3251 X156.324 Y141.825
N3252 X156.394 Y142.023
N3253 X156.477 Y142.215
N3254 X156.575 Y142.4
N3255 X156.687 Y142.577
N3256 X156.811 Y142.746
N3257 X156.947 Y142.904
N3258 X157.096 Y143.053
N3259 X157.254 Y143.189
N3260 X157.423 Y143.313
N3261 X157.6 Y143.425
N3262 X157.785 Y143.523
N3263 X157.977 Y143.606
N3264 X158.175 Y143.676
N3265 X158.377 Y143.73
N3266 X158.583 Y143.769
N3267 X158.791 Y143.792
N3268 X159 Y143.8
N3269 X222.789
N3270 X222.998 Y143.792
N3271 X223.206 Y143.769
N3272 X223.412 Y143.73
N3273 X223.614 Y143.676
N3274 X223.812 Y143.606
N3275 X224.004 Y143.523
N3276 X224.189 Y143.425
N3277 X224.366 Y143.313
N3278 X224.535 Y143.189
N3279 X224.693 Y143.053
N3280 X224.842 Y142.904
N3281 X224.978 Y142.746
N3282 X225.102 Y142.577
N3283 X225.214 Y142.4
N3284 X225.312 Y142.215
N3285 X225.395 Y142.023
N3286 X225.465 Y141.825
N3287 X225.519 Y141.623
N3288 X225.558 Y141.417
N3289 X225.581 Y141.209
N3290 X225.589 Y141
N3291 X225.597 Y140.862
N3292 X225.621 Y140.727
N3293 X225.66 Y140.594
N3294 X225.714 Y140.468
N3295 X225.782 Y140.348
N3296 X225.863 Y140.237
N3297 X225.957 Y140.135
N3298 X226.062 Y140.046
N3299 X226.176 Y139.969
N3300 X226.298 Y139.905
N3301 X226.427 Y139.856
N3302 X226.561 Y139.822
N3303 X226.697 Y139.804
N3304 X226.835 Y139.801
N3305 X226.972 Y139.814
N3306 X227.107 Y139.843
N3307 X227.238 Y139.887
N3308 X227.362 Y139.946
N3309 X227.479 Y140.018
N3310 X227.587 Y140.104
N3311 X227.685 Y140.202
N3312 X227.771 Y140.31
N3313 X227.843 Y140.427
N3314 X227.902 Y140.551
N3315 X227.946 Y140.682
N3316 X227.975 Y140.817
N3317 X227.988 Y140.954
N3318 X227.985 Y141.092
N3319 X227.967 Y141.228
N3320 X227.933 Y141.362
N3321 X227.884 Y141.491
N3322 X227.82 Y141.613
N3323 X227.743 Y141.727
N3324 X227.654 Y141.832
N3325 X227.552 Y141.926
N3326 X227.441 Y142.007
N3327 X227.321 Y142.075
N3328 X227.195 Y142.129
N3329 X227.062 Y142.168
N3330 X226.927 Y142.192
N3331 X226.789 Y142.2
N3332 X226.58 Y142.208
N3333 X226.372 Y142.231
N3334 X226.166 Y142.27
N3335 X225.964 Y142.324
N3336 X225.766 Y142.394
N3337 X225.574 Y142.477
N3338 X225.389 Y142.575
N3339 X225.212 Y142.687
N3340 X225.043 Y142.811
N3341 X224.885 Y142.947
N3342 X224.736 Y143.096
N3343 X224.6 Y143.254
N3344 X224.476 Y143.423
N3345 X224.364 Y143.6
N3346 X224.266 Y143.785
N3347 X224.183 Y143.977
N3348 X224.113 Y144.175
N3349 X224.059 Y144.377
N3350 X224.02 Y144.583
N3351 X223.997 Y144.791
N3352 X223.989 Y145
N3353 Y155
N3354 X223.997 Y155.209
N3355 X224.02 Y155.417
N3356 X224.059 Y155.623
N3357 X224.113 Y155.825
N3358 X224.183 Y156.023
N3359 X224.266 Y156.215
N3360 X224.364 Y156.4
N3361 X224.476 Y156.577
N3362 X224.6 Y156.746
N3363 X224.736 Y156.904
N3364 X224.885 Y157.053
N3365 X225.043 Y157.189
N3366 X225.212 Y157.313
N3367 X225.389 Y157.425
N3368 X225.574 Y157.523
N3369 X225.766 Y157.606
N3370 X225.964 Y157.676
N3371 X226.166 Y157.73
N3372 X226.372 Y157.769
N3373 X226.58 Y157.792
N3374 X226.789 Y157.8
N3375 X226.927 Y157.808
N3376 X227.062 Y157.832
N3377 X227.195 Y157.871
N3378 X227.321 Y157.925
N3379 X227.441 Y157.993
N3380 X227.552 Y158.074
N3381 X227.654 Y158.168
N3382 X227.743 Y158.273
N3383 X227.82 Y158.387
N3384 X227.884 Y158.509
N3385 X227.933 Y158.638
N3386 X227.967 Y158.772
N3387 X227.985 Y158.908
N3388 X227.988 Y159.046
N3389 X227.975 Y159.183
N3390 X227.946 Y159.318
N3391 X227.902 Y159.449
N3392 X227.843 Y159.573
N3393 X227.771 Y159.69
N3394 X227.685 Y159.798
N3395 X227.587 Y159.896
N3396 X227.479 Y159.982
N3397 X227.362 Y160.054
N3398 X227.238 Y160.113
N3399 X227.107 Y160.157
N3400 X226.972 Y160.186
N3401 X226.835 Y160.199
N3402 X226.697 Y160.196
N3403 X226.561 Y160.178
N3404 X226.427 Y160.144
N3405 X226.298 Y160.095
N3406 X226.176 Y160.031
N3407 X226.062 Y159.954
N3408 X225.957 Y159.865
N3409 X225.863 Y159.763
N3410 X225.782 Y159.652
N3411 X225.714 Y159.532
N3412 X225.66 Y159.406
N3413 X225.621 Y159.273
N3414 X225.597 Y159.138
N3415 X225.589 Y159
N3416 X225.581 Y158.791
N3417 X225.558 Y158.583
N3418 X225.519 Y158.377
N3419 X225.465 Y158.175
N3420 X225.395 Y157.977
N3421 X225.312 Y157.785
N3422 X225.214 Y157.6
N3423 X225.102 Y157.423
N3424 X224.978 Y157.254
N3425 X224.842 Y157.096
N3426 X224.693 Y156.947
N3427 X224.535 Y156.811
N3428 X224.366 Y156.687
N3429 X224.189 Y156.575
N3430 X224.004 Y156.477
N3431 X223.812 Y156.394
N3432 X223.614 Y156.324
N3433 X223.412 Y156.27
N3434 X223.206 Y156.231
N3435 X222.998 Y156.208
N3436 X222.789 Y156.2
N3437 X159
N3438 X158.791 Y156.208
N3439 X158.583 Y156.231
N3440 X158.377 Y156.27
N3441 X158.175 Y156.324
N3442 X157.977 Y156.394
N3443 X157.785 Y156.477
N3444 X157.6 Y156.575
N3445 X157.423 Y156.687
N3446 X157.254 Y156.811
N3447 X157.096 Y156.947
N3448 X156.947 Y157.096
N3449 X156.811 Y157.254
N3450 X156.687 Y157.423
N3451 X156.575 Y157.6
N3452 X156.477 Y157.785
N3453 X156.394 Y157.977
N3454 X156.324 Y158.175
N3455 X156.27 Y158.377
N3456 X156.231 Y158.583
N3457 X156.208 Y158.791
N3458 X156.2 Y159
N3459 Y176.903
N3460 Y222.788 Z4.859 F2500
N3461 X156.208 Y222.997 Z4.854
N3462 X156.231 Y223.205 Z4.848
N3463 X156.27 Y223.411 Z4.843
N3464 X156.324 Y223.613 Z4.838
N3465 X156.394 Y223.811 Z4.833
N3466 X156.477 Y224.003 Z4.828
N3467 X156.575 Y224.188 Z4.822
N3468 X156.687 Y224.365 Z4.817
N3469 X156.811 Y224.534 Z4.812
N3470 X156.947 Y224.692 Z4.807
N3471 X157.096 Y224.841 Z4.801
N3472 X157.254 Y224.977 Z4.796
N3473 X157.423 Y225.101 Z4.791
N3474 X157.6 Y225.213 Z4.786
N3475 X157.785 Y225.311 Z4.781
N3476 X157.977 Y225.394 Z4.775
N3477 X158.175 Y225.464 Z4.77
N3478 X158.377 Y225.518 Z4.765
N3479 X158.583 Y225.557 Z4.76
N3480 X158.791 Y225.58 Z4.755
N3481 X159 Y225.588 Z4.749
N3482 X159.138 Y225.596 Z4.746
N3483 X159.273 Y225.62 Z4.743
N3484 X159.406 Y225.659 Z4.739
N3485 X159.532 Y225.713 Z4.736
N3486 X159.652 Y225.781 Z4.732
N3487 X159.763 Y225.862 Z4.729
N3488 X159.865 Y225.956 Z4.725
N3489 X159.954 Y226.061 Z4.722
N3490 X160.031 Y226.175 Z4.718
N3491 X160.095 Y226.297 Z4.715
N3492 X160.144 Y226.426 Z4.712
N3493 X160.178 Y226.56 Z4.708
N3494 X160.196 Y226.696 Z4.705
N3495 X160.199 Y226.834 Z4.701
N3496 X160.186 Y226.971 Z4.698
N3497 X160.157 Y227.106 Z4.694
N3498 X160.113 Y227.237 Z4.691
N3499 X160.054 Y227.361 Z4.688
N3500 X159.982 Y227.478 Z4.684
N3501 X159.896 Y227.586 Z4.681
N3502 X159.798 Y227.684 Z4.677
N3503 X159.69 Y227.77 Z4.674
N3504 X159.573 Y227.842 Z4.67
N3505 X159.449 Y227.901 Z4.667
N3506 X159.318 Y227.945 Z4.664
N3507 X159.183 Y227.974 Z4.66
N3508 X159.046 Y227.987 Z4.657
N3509 X158.908 Y227.984 Z4.653
N3510 X158.772 Y227.966 Z4.65
N3511 X158.638 Y227.932 Z4.646
N3512 X158.509 Y227.883 Z4.643
N3513 X158.387 Y227.819 Z4.64
N3514 X158.273 Y227.742 Z4.636
N3515 X158.168 Y227.653 Z4.633
N3516 X158.074 Y227.551 Z4.629
N3517 X157.993 Y227.44 Z4.626
N3518 X157.925 Y227.32 Z4.622
N3519 X157.871 Y227.194 Z4.619
N3520 X157.832 Y227.061 Z4.616
N3521 X157.808 Y226.926 Z4.612
N3522 X157.8 Y226.788 Z4.609
N3523 X157.792 Y226.579 Z4.604
N3524 X157.769 Y226.371 Z4.598
N3525 X157.73 Y226.165 Z4.593
N3526 X157.676 Y225.963 Z4.588
N3527 X157.606 Y225.765 Z4.583
N3528 X157.523 Y225.573 Z4.577
N3529 X157.425 Y225.388 Z4.572
N3530 X157.313 Y225.211 Z4.567
N3531 X157.189 Y225.042 Z4.562
N3532 X157.053 Y224.884 Z4.557
N3533 X156.904 Y224.735 Z4.551
N3534 X156.746 Y224.599 Z4.546
N3535 X156.577 Y224.475 Z4.541
N3536 X156.4 Y224.363 Z4.536
N3537 X156.215 Y224.265 Z4.531
N3538 X156.023 Y224.182 Z4.525
N3539 X155.825 Y224.112 Z4.52
N3540 X155.623 Y224.058 Z4.515
N3541 X155.417 Y224.019 Z4.51
N3542 X155.209 Y223.996 Z4.505
N3543 X155 Y223.988 Z4.499
N3544 X145 Z4.251
N3545 X144.791 Y223.996 Z4.245
N3546 X144.583 Y224.019 Z4.24
N3547 X144.377 Y224.058 Z4.235
N3548 X144.175 Y224.112 Z4.23
N3549 X143.977 Y224.182 Z4.225
N3550 X143.785 Y224.265 Z4.219
N3551 X143.6 Y224.363 Z4.214
N3552 X143.423 Y224.475 Z4.209
N3553 X143.254 Y224.599 Z4.204
N3554 X143.095 Y224.736 Z4.199
N3555 X142.947 Y224.884 Z4.193
N3556 X142.811 Y225.042 Z4.188
N3557 X142.686 Y225.211 Z4.183
N3558 X142.575 Y225.388 Z4.178
N3559 X142.477 Y225.573 Z4.172
N3560 X142.393 Y225.765 Z4.167
N3561 X142.324 Y225.963 Z4.162
N3562 X142.27 Y226.165 Z4.157
N3563 X142.231 Y226.371 Z4.152
N3564 X142.208 Y226.579 Z4.146
N3565 X142.2 Y226.788 Z4.141
N3566 X142.192 Y226.926 Z4.138
N3567 X142.168 Y227.062 Z4.134
N3568 X142.129 Y227.194 Z4.131
N3569 X142.076 Y227.321 Z4.127
N3570 X142.007 Y227.44 Z4.124
N3571 X141.926 Y227.552 Z4.121
N3572 X141.832 Y227.653 Z4.117
N3573 X141.728 Y227.742 Z4.114
N3574 X141.614 Y227.819 Z4.11
N3575 X141.491 Y227.883 Z4.107
N3576 X141.363 Y227.932 Z4.103
N3577 X141.229 Y227.966 Z4.1
N3578 X141.092 Y227.984 Z4.097
N3579 X140.955 Y227.987 Z4.093
N3580 X140.818 Y227.974 Z4.09
N3581 X140.683 Y227.945 Z4.086
N3582 X140.552 Y227.901 Z4.083
N3583 X140.428 Y227.842 Z4.079
N3584 X140.311 Y227.77 Z4.076
N3585 X140.203 Y227.684 Z4.073
N3586 X140.105 Y227.587 Z4.069
N3587 X140.019 Y227.479 Z4.066
N3588 X139.947 Y227.362 Z4.062
N3589 X139.888 Y227.237 Z4.059
N3590 X139.844 Y227.106 Z4.055
N3591 X139.815 Y226.972 Z4.052
N3592 X139.802 Y226.835 Z4.049
N3593 X139.805 Y226.697 Z4.045
N3594 X139.823 Y226.56 Z4.042
N3595 X139.857 Y226.427 Z4.038
N3596 X139.906 Y226.298 Z4.035
N3597 X139.969 Y226.176 Z4.031
N3598 X140.046 Y226.061 Z4.028
N3599 X140.136 Y225.957 Z4.025
N3600 X140.237 Y225.863 Z4.021
N3601 X140.348 Y225.782 Z4.018
N3602 X140.468 Y225.714 Z4.014
N3603 X140.595 Y225.66 Z4.011
N3604 X140.727 Y225.621 Z4.007
N3605 X140.863 Y225.597 Z4.004
N3606 X141 Y225.589 Z4.001
N3607 X141.21 Y225.581 Z3.995
N3608 X141.418 Y225.558 Z3.99
N3609 X141.623 Y225.519 Z3.985
N3610 X141.826 Y225.465 Z3.98
N3611 X142.023 Y225.395 Z3.975
N3612 X142.215 Y225.312 Z3.969
N3613 X142.4 Y225.214 Z3.964
N3614 X142.577 Y225.102 Z3.959
N3615 X142.746 Y224.978 Z3.954
N3616 X142.905 Y224.841 Z3.949
N3617 X143.053 Y224.693 Z3.943
N3618 X143.189 Y224.535 Z3.938
N3619 X143.314 Y224.366 Z3.933
N3620 X143.425 Y224.189 Z3.928
N3621 X143.523 Y224.004 Z3.922
N3622 X143.606 Y223.812 Z3.917
N3623 X143.676 Y223.614 Z3.912
N3624 X143.73 Y223.412 Z3.907
N3625 X143.769 Y223.206 Z3.902
N3626 X143.792 Y222.998 Z3.896
N3627 X143.8 Y222.789 Z3.891
N3628 Y186.955 Z3
N3629 Y159 F2760
N3630 X143.792 Y158.791
N3631 X143.769 Y158.583
N3632 X143.73 Y158.377
N3633 X143.676 Y158.175
N3634 X143.606 Y157.977
N3635 X143.523 Y157.785
N3636 X143.425 Y157.6
N3637 X143.313 Y157.423
N3638 X143.189 Y157.254
N3639 X143.053 Y157.096
N3640 X142.904 Y156.947
N3641 X142.746 Y156.811
N3642 X142.577 Y156.687
N3643 X142.4 Y156.575
N3644 X142.215 Y156.477
N3645 X142.023 Y156.394
N3646 X141.825 Y156.324
N3647 X141.623 Y156.27
N3648 X141.417 Y156.231
N3649 X141.209 Y156.208
N3650 X141 Y156.2
N3651 X77.211
N3652 X77.002 Y156.208
N3653 X76.794 Y156.231
N3654 X76.588 Y156.27
N3655 X76.386 Y156.324
N3656 X76.188 Y156.394
N3657 X75.997 Y156.477
N3658 X75.811 Y156.575
N3659 X75.634 Y156.687
N3660 X75.466 Y156.811
N3661 X75.307 Y156.947
N3662 X75.159 Y157.096
N3663 X75.022 Y157.254
N3664 X74.898 Y157.423
N3665 X74.787 Y157.6
N3666 X74.689 Y157.785
N3667 X74.605 Y157.977
N3668 X74.536 Y158.175
N3669 X74.482 Y158.377
N3670 X74.443 Y158.583
N3671 X74.419 Y158.791
N3672 X74.411 Y159
N3673 X74.403 Y159.138
N3674 X74.38 Y159.273
N3675 X74.341 Y159.406
N3676 X74.287 Y159.532
N3677 X74.219 Y159.652
N3678 X74.137 Y159.763
N3679 X74.044 Y159.865
N3680 X73.939 Y159.954
N3681 X73.825 Y160.031
N3682 X73.702 Y160.095
N3683 X73.573 Y160.144
N3684 X73.44 Y160.178
N3685 X73.303 Y160.196
N3686 X73.165 Y160.199
N3687 X73.028 Y160.186
N3688 X72.893 Y160.157
N3689 X72.763 Y160.113
N3690 X72.638 Y160.054
N3691 X72.521 Y159.982
N3692 X72.413 Y159.896
N3693 X72.316 Y159.798
N3694 X72.23 Y159.69
N3695 X72.157 Y159.573
N3696 X72.098 Y159.449
N3697 X72.054 Y159.318
N3698 X72.025 Y159.183
N3699 X72.012 Y159.046
N3700 X72.015 Y158.908
N3701 X72.033 Y158.772
N3702 X72.067 Y158.638
N3703 X72.116 Y158.509
N3704 X72.18 Y158.387
N3705 X72.257 Y158.273
N3706 X72.347 Y158.168
N3707 X72.448 Y158.074
N3708 X72.559 Y157.993
N3709 X72.679 Y157.925
N3710 X72.806 Y157.871
N3711 X72.938 Y157.832
N3712 X73.074 Y157.808
N3713 X73.211 Y157.8
N3714 X73.421 Y157.792
N3715 X73.629 Y157.769
N3716 X73.834 Y157.73
N3717 X74.037 Y157.676
N3718 X74.234 Y157.606
N3719 X74.426 Y157.523
N3720 X74.611 Y157.425
N3721 X74.789 Y157.313
N3722 X74.957 Y157.189
N3723 X75.116 Y157.053
N3724 X75.264 Y156.904
N3725 X75.401 Y156.746
N3726 X75.525 Y156.577
N3727 X75.636 Y156.4
N3728 X75.734 Y156.215
N3729 X75.818 Y156.023
N3730 X75.887 Y155.825
N3731 X75.941 Y155.623
N3732 X75.98 Y155.417
N3733 X76.004 Y155.209
N3734 X76.011 Y155
N3735 Y145
N3736 X76.004 Y144.791
N3737 X75.98 Y144.583
N3738 X75.941 Y144.377
N3739 X75.887 Y144.175
N3740 X75.818 Y143.977
N3741 X75.734 Y143.785
N3742 X75.636 Y143.6
N3743 X75.525 Y143.423
N3744 X75.401 Y143.254
N3745 X75.264 Y143.096
N3746 X75.116 Y142.947
N3747 X74.957 Y142.811
N3748 X74.789 Y142.687
N3749 X74.611 Y142.575
N3750 X74.426 Y142.477
N3751 X74.234 Y142.394
N3752 X74.037 Y142.324
N3753 X73.834 Y142.27
N3754 X73.629 Y142.231
N3755 X73.421 Y142.208
N3756 X73.211 Y142.2
N3757 X73.074 Y142.192
N3758 X72.938 Y142.168
N3759 X72.806 Y142.129
N3760 X72.679 Y142.075
N3761 X72.559 Y142.007
N3762 X72.448 Y141.926
N3763 X72.347 Y141.832
N3764 X72.257 Y141.727
N3765 X72.18 Y141.613
N3766 X72.116 Y141.491
N3767 X72.067 Y141.362
N3768 X72.033 Y141.228
N3769 X72.015 Y141.092
N3770 X72.012 Y140.954
N3771 X72.025 Y140.817
N3772 X72.054 Y140.682
N3773 X72.098 Y140.551
N3774 X72.157 Y140.427
N3775 X72.23 Y140.31
N3776 X72.316 Y140.202
N3777 X72.413 Y140.104
N3778 X72.521 Y140.018
N3779 X72.638 Y139.946
N3780 X72.763 Y139.887
N3781 X72.893 Y139.843
N3782 X73.028 Y139.814
N3783 X73.165 Y139.801
N3784 X73.303 Y139.804
N3785 X73.44 Y139.822
N3786 X73.573 Y139.856
N3787 X73.702 Y139.905
N3788 X73.825 Y139.969
N3789 X73.939 Y140.046
N3790 X74.044 Y140.135
N3791 X74.137 Y140.237
N3792 X74.219 Y140.348
N3793 X74.287 Y140.468
N3794 X74.341 Y140.594
N3795 X74.38 Y140.727
N3796 X74.403 Y140.862
N3797 X74.411 Y141
N3798 X74.419 Y141.209
N3799 X74.443 Y141.417
N3800 X74.482 Y141.623
N3801 X74.536 Y141.825
N3802 X74.605 Y142.023
N3803 X74.689 Y142.215
N3804 X74.787 Y142.4
N3805 X74.898 Y142.577
N3806 X75.022 Y142.746
N3807 X75.159 Y142.904
N3808 X75.307 Y143.053
N3809 X75.466 Y143.189
N3810 X75.634 Y143.313
N3811 X75.811 Y143.425
N3812 X75.997 Y143.523
N3813 X76.188 Y143.606
N3814 X76.386 Y143.676
N3815 X76.588 Y143.73
N3816 X76.794 Y143.769
N3817 X77.002 Y143.792
N3818 X77.211 Y143.8
N3819 X141
N3820 X141.209 Y143.792
N3821 X141.417 Y143.769
N3822 X141.623 Y143.73
N3823 X141.825 Y143.676
N3824 X142.023 Y143.606
N3825 X142.215 Y143.523
N3826 X142.4 Y143.425
N3827 X142.577 Y143.313
N3828 X142.746 Y143.189
N3829 X142.904 Y143.053
N3830 X143.053 Y142.904
N3831 X143.189 Y142.746
N3832 X143.313 Y142.577
N3833 X143.425 Y142.4
N3834 X143.523 Y142.215
N3835 X143.606 Y142.023
N3836 X143.676 Y141.825
N3837 X143.73 Y141.623
N3838 X143.769 Y141.417
N3839 X143.792 Y141.209
N3840 X143.8 Y141
N3841 Y77.212
N3842 X143.792 Y77.002
N3843 X143.769 Y76.794
N3844 X143.73 Y76.588
N3845 X143.676 Y76.386
N3846 X143.606 Y76.189
N3847 X143.523 Y75.997
N3848 X143.425 Y75.812
N3849 X143.313 Y75.634
N3850 X143.189 Y75.466
N3851 X143.053 Y75.307
N3852 X142.904 Y75.159
N3853 X142.746 Y75.022
N3854 X142.577 Y74.898
N3855 X142.4 Y74.787
N3856 X142.215 Y74.689
N3857 X142.023 Y74.605
N3858 X141.825 Y74.536
N3859 X141.623 Y74.482
N3860 X141.417 Y74.443
N3861 X141.209 Y74.419
N3862 X141 Y74.411
N3863 X140.862 Y74.404
N3864 X140.727 Y74.38
N3865 X140.594 Y74.341
N3866 X140.468 Y74.287
N3867 X140.348 Y74.219
N3868 X140.237 Y74.137
N3869 X140.135 Y74.044
N3870 X140.046 Y73.939
N3871 X139.969 Y73.825
N3872 X139.905 Y73.702
N3873 X139.856 Y73.574
N3874 X139.822 Y73.44
N3875 X139.804 Y73.303
N3876 X139.801 Y73.166
N3877 X139.814 Y73.028
N3878 X139.843 Y72.894
N3879 X139.887 Y72.763
N3880 X139.946 Y72.638
N3881 X140.018 Y72.521
N3882 X140.104 Y72.413
N3883 X140.202 Y72.316
N3884 X140.31 Y72.23
N3885 X140.427 Y72.157
N3886 X140.551 Y72.099
N3887 X140.682 Y72.054
N3888 X140.817 Y72.026
N3889 X140.954 Y72.012
N3890 X141.092 Y72.015
N3891 X141.228 Y72.033
N3892 X141.362 Y72.067
N3893 X141.491 Y72.117
N3894 X141.613 Y72.18
N3895 X141.727 Y72.257
N3896 X141.832 Y72.347
N3897 X141.926 Y72.448
N3898 X142.007 Y72.559
N3899 X142.075 Y72.679
N3900 X142.129 Y72.806
N3901 X142.168 Y72.938
N3902 X142.192 Y73.074
N3903 X142.2 Y73.212
N3904 X142.208 Y73.421
N3905 X142.231 Y73.629
N3906 X142.27 Y73.835
N3907 X142.324 Y74.037
N3908 X142.394 Y74.234
N3909 X142.477 Y74.426
N3910 X142.575 Y74.612
N3911 X142.687 Y74.789
N3912 X142.811 Y74.957
N3913 X142.947 Y75.116
N3914 X143.096 Y75.264
N3915 X143.254 Y75.401
N3916 X143.423 Y75.525
N3917 X143.6 Y75.636
N3918 X143.785 Y75.734
N3919 X143.977 Y75.818
N3920 X144.175 Y75.887
N3921 X144.377 Y75.941
N3922 X144.583 Y75.98
N3923 X144.791 Y76.004
N3924 X145 Y76.011
N3925 X155
N3926 X155.209 Y76.004
N3927 X155.417 Y75.98
N3928 X155.623 Y75.941
N3929 X155.825 Y75.887
N3930 X156.023 Y75.818
N3931 X156.215 Y75.734
N3932 X156.4 Y75.636
N3933 X156.577 Y75.525
N3934 X156.746 Y75.401
N3935 X156.904 Y75.264
N3936 X157.053 Y75.116
N3937 X157.189 Y74.957
N3938 X157.313 Y74.789
N3939 X157.425 Y74.612
N3940 X157.523 Y74.426
N3941 X157.606 Y74.234
N3942 X157.676 Y74.037
N3943 X157.73 Y73.835
N3944 X157.769 Y73.629
N3945 X157.792 Y73.421
N3946 X157.8 Y73.212
N3947 X157.808 Y73.074
N3948 X157.832 Y72.938
N3949 X157.871 Y72.806
N3950 X157.925 Y72.679
N3951 X157.993 Y72.559
N3952 X158.074 Y72.448
N3953 X158.168 Y72.347
N3954 X158.273 Y72.257
N3955 X158.387 Y72.18
N3956 X158.509 Y72.117
N3957 X158.638 Y72.067
N3958 X158.772 Y72.033
N3959 X158.908 Y72.015
N3960 X159.046 Y72.012
N3961 X159.183 Y72.026
N3962 X159.318 Y72.054
N3963 X159.449 Y72.099
N3964 X159.573 Y72.157
N3965 X159.69 Y72.23
N3966 X159.798 Y72.316
N3967 X159.896 Y72.413
N3968 X159.982 Y72.521
N3969 X160.054 Y72.638
N3970 X160.113 Y72.763
N3971 X160.157 Y72.894
N3972 X160.186 Y73.028
N3973 X160.199 Y73.166
N3974 X160.196 Y73.303
N3975 X160.178 Y73.44
N3976 X160.144 Y73.574
N3977 X160.095 Y73.702
N3978 X160.031 Y73.825
N3979 X159.954 Y73.939
N3980 X159.865 Y74.044
N3981 X159.763 Y74.137
N3982 X159.652 Y74.219
N3983 X159.532 Y74.287
N3984 X159.406 Y74.341
N3985 X159.273 Y74.38
N3986 X159.138 Y74.404
N3987 X159 Y74.411
N3988 X158.791 Y74.419
N3989 X158.583 Y74.443
N3990 X158.377 Y74.482
N3991 X158.175 Y74.536
N3992 X157.977 Y74.605
N3993 X157.785 Y74.689
N3994 X157.6 Y74.787
N3995 X157.423 Y74.898
N3996 X157.254 Y75.022
N3997 X157.096 Y75.159
N3998 X156.947 Y75.307
N3999 X156.811 Y75.466
N4000 X156.687 Y75.634
N4001 X156.575 Y75.812
N4002 X156.477 Y75.997
N4003 X156.394 Y76.189
N4004 X156.324 Y76.386
N4005 X156.27 Y76.588
N4006 X156.231 Y76.794
N4007 X156.208 Y77.002
N4008 X156.2 Y77.212
N4009 Y141
N4010 X156.208 Y141.209
N4011 X156.231 Y141.417
N4012 X156.27 Y141.623
N4013 X156.324 Y141.825
N4014 X156.394 Y142.023
N4015 X156.477 Y142.215
N4016 X156.575 Y142.4
N4017 X156.687 Y142.577
N4018 X156.811 Y142.746
N4019 X156.947 Y142.904
N4020 X157.096 Y143.053
N4021 X157.254 Y143.189
N4022 X157.423 Y143.313
N4023 X157.6 Y143.425
N4024 X157.785 Y143.523
N4025 X157.977 Y143.606
N4026 X158.175 Y143.676
N4027 X158.377 Y143.73
