%
(Sapin 60-B)
(T2  D=6 CR=0 - ZMIN=0.3 - flat end mill)
N1 G90
N2 G21

(2D Contour2)
N3 T2
N4 S20000 M3
N5 G0 X20.847 Y30.519
N6 Z33
N7 Z23
N8 G1 Z22 F1000
N9 Z20.5
N10 X0 Z16.069 F2500
N11 X-0.209 Y30.527 Z16.024
N12 X-0.417 Y30.55 Z15.98
N13 X-0.623 Y30.589 Z15.935
N14 X-0.826 Y30.643 Z15.891
N15 X-1.023 Y30.713 Z15.846
N16 X-1.215 Y30.796 Z15.802
N17 X-1.4 Y30.894 Z15.757
N18 X-1.578 Y31.006 Z15.713
N19 X-1.746 Y31.13 Z15.668
N20 X-1.905 Y31.267 Z15.623
N21 X-2.053 Y31.415 Z15.579
N22 X-2.19 Y31.574 Z15.534
N23 X-2.314 Y31.742 Z15.49
N24 X-2.425 Y31.92 Z15.445
N25 X-2.523 Y32.105 Z15.401
N26 X-2.607 Y32.297 Z15.356
N27 X-2.676 Y32.495 Z15.312
N28 X-2.73 Y32.697 Z15.267
N29 X-2.769 Y32.903 Z15.223
N30 X-2.792 Y33.111 Z15.178
N31 X-2.8 Y33.32 Z15.134
N32 X-2.792 Y33.53 Z15.089
N33 X-2.768 Y33.738 Z15.045
N34 X-2.729 Y33.944 Z15
N35 X-2.683 Y34.119 F2760
N36 X-2.626 Y34.291
N37 X-2.557 Y34.459
N38 X-2.478 Y34.622
N39 X-2.389 Y34.78
N40 X62.431 Y140.788
N41 X30.409
N42 X30.204 Y140.795
N43 X30.001 Y140.818
N44 X29.799 Y140.855
N45 X29.602 Y140.907
N46 X29.408 Y140.973
N47 X29.22 Y141.053
N48 X29.038 Y141.147
N49 X28.863 Y141.253
N50 X28.697 Y141.372
N51 X28.539 Y141.503
N52 X28.392 Y141.645
N53 X28.256 Y141.798
N54 X28.131 Y141.96
N55 X28.018 Y142.13
N56 X27.918 Y142.309
N57 X27.831 Y142.494
N58 X27.758 Y142.685
N59 X27.699 Y142.881
N60 X27.655 Y143.081
N61 X27.625 Y143.283
N62 X27.61 Y143.487
N63 Y143.692
N64 X27.626 Y143.896
N65 X27.655 Y144.099
N66 X27.7 Y144.298
N67 X27.759 Y144.494
N68 X27.832 Y144.685
N69 X27.919 Y144.87
N70 X28.02 Y145.049
N71 X91.762 Y249.294
N72 X58.545
N73 X58.34 Y249.301
N74 X58.137 Y249.324
N75 X57.936 Y249.361
N76 X57.738 Y249.413
N77 X57.544 Y249.479
N78 X57.356 Y249.559
N79 X57.174 Y249.653
N80 X56.999 Y249.759
N81 X56.833 Y249.878
N82 X56.676 Y250.009
N83 X56.528 Y250.151
N84 X56.392 Y250.304
N85 X56.267 Y250.466
N86 X56.154 Y250.636
N87 X56.054 Y250.815
N88 X55.967 Y251
N89 X55.894 Y251.191
N90 X55.835 Y251.387
N91 X55.791 Y251.587
N92 X55.761 Y251.789
N93 X55.747 Y251.993
N94 Y252.198
N95 X55.762 Y252.402
N96 X55.792 Y252.605
N97 X55.836 Y252.804
N98 X55.895 Y253
N99 X55.969 Y253.191
N100 X56.056 Y253.376
N101 X56.156 Y253.555
N102 X122.142 Y361.469
N103 X91.411
N104 X91.207 Y361.476
N105 X91.003 Y361.499
N106 X90.801 Y361.536
N107 X90.603 Y361.588
N108 X90.409 Y361.655
N109 X90.221 Y361.735
N110 X90.038 Y361.829
N111 X89.864 Y361.936
N112 X89.697 Y362.055
N113 X89.54 Y362.186
N114 X89.392 Y362.329
N115 X89.256 Y362.482
N116 X89.131 Y362.644
N117 X89.018 Y362.815
N118 X88.918 Y362.994
N119 X88.832 Y363.18
N120 X88.759 Y363.372
N121 X88.701 Y363.568
N122 X88.657 Y363.768
N123 X88.627 Y363.971
N124 X88.613 Y364.176
N125 X88.614 Y364.38
N126 X88.629 Y364.585
N127 X88.66 Y364.787
N128 X88.705 Y364.987
N129 X88.765 Y365.183
N130 X88.839 Y365.374
N131 X88.927 Y365.56
N132 X143.956 Y471.501
N133 X120.706
N134 X120.501 Y471.509
N135 X120.296 Y471.531
N136 X120.094 Y471.569
N137 X119.896 Y471.621
N138 X119.701 Y471.687
N139 X119.512 Y471.768
N140 X119.33 Y471.863
N141 X119.155 Y471.97
N142 X118.988 Y472.09
N143 X118.83 Y472.222
N144 X118.683 Y472.365
N145 X118.547 Y472.519
N146 X118.422 Y472.682
N147 X118.309 Y472.854
N148 X118.209 Y473.033
N149 X118.123 Y473.22
N150 X118.051 Y473.412
N151 X117.993 Y473.609
N152 X117.949 Y473.81
N153 X117.921 Y474.014
N154 X117.907 Y474.219
N155 X117.909 Y474.424
N156 X117.925 Y474.629
N157 X117.957 Y474.832
N158 X118.003 Y475.032
N159 X118.064 Y475.228
N160 X118.139 Y475.42
N161 X118.228 Y475.605
N162 X118.33 Y475.783
N163 X183.049 Y579.521
N164 X183.167 Y579.695
N165 X183.298 Y579.86
N166 X183.44 Y580.014
N167 X183.594 Y580.157
N168 X183.758 Y580.289
N169 X183.931 Y580.407
N170 X184.113 Y580.512
N171 X184.302 Y580.604
N172 X184.497 Y580.681
N173 X184.698 Y580.743
N174 X184.903 Y580.79
N175 X185.111 Y580.821
N176 X185.32 Y580.837
N177 X185.53
N178 X185.739 Y580.821
N179 X185.947 Y580.79
N180 X186.152 Y580.743
N181 X186.353 Y580.681
N182 X186.548 Y580.604
N183 X186.737 Y580.512
N184 X186.919 Y580.407
N185 X187.092 Y580.288
N186 X187.256 Y580.157
N187 X187.41 Y580.014
N188 X187.552 Y579.86
N189 X187.683 Y579.695
N190 X187.801 Y579.521
N191 X252.521 Y475.783
N192 X252.623 Y475.605
N193 X252.712 Y475.42
N194 X252.787 Y475.228
N195 X252.848 Y475.032
N196 X252.894 Y474.832
N197 X252.926 Y474.629
N198 X252.942 Y474.424
N199 X252.944 Y474.219
N200 X252.93 Y474.014
N201 X252.902 Y473.81
N202 X252.858 Y473.609
N203 X252.8 Y473.412
N204 X252.728 Y473.22
N205 X252.642 Y473.033
N206 X252.542 Y472.854
N207 X252.429 Y472.682
N208 X252.304 Y472.519
N209 X252.168 Y472.365
N210 X252.021 Y472.222
N211 X251.863 Y472.09
N212 X251.696 Y471.97
N213 X251.521 Y471.863
N214 X251.339 Y471.768
N215 X251.15 Y471.687
N216 X250.955 Y471.621
N217 X250.757 Y471.569
N218 X250.555 Y471.531
N219 X250.35 Y471.509
N220 X250.145 Y471.501
N221 X226.895
N222 X281.924 Y365.56
N223 X282.012 Y365.374
N224 X282.086 Y365.183
N225 X282.145 Y364.987
N226 X282.191 Y364.787
N227 X282.221 Y364.585
N228 X282.237 Y364.38
N229 Y364.175
N230 X282.223 Y363.971
N231 X282.194 Y363.768
N232 X282.15 Y363.568
N233 X282.091 Y363.372
N234 X282.019 Y363.18
N235 X281.932 Y362.994
N236 X281.832 Y362.815
N237 X281.719 Y362.644
N238 X281.594 Y362.482
N239 X281.458 Y362.329
N240 X281.311 Y362.186
N241 X281.153 Y362.055
N242 X280.987 Y361.936
N243 X280.812 Y361.829
N244 X280.63 Y361.735
N245 X280.441 Y361.654
N246 X280.247 Y361.588
N247 X280.049 Y361.536
N248 X279.848 Y361.499
N249 X279.644 Y361.476
N250 X279.439 Y361.469
N251 X248.709
N252 X314.695 Y253.555
N253 X314.795 Y253.376
N254 X314.882 Y253.191
N255 X314.955 Y253
N256 X315.014 Y252.804
N257 X315.059 Y252.605
N258 X315.089 Y252.402
N259 X315.104 Y252.198
N260 Y251.993
N261 X315.089 Y251.789
N262 X315.06 Y251.587
N263 X315.015 Y251.387
N264 X314.956 Y251.191
N265 X314.883 Y251
N266 X314.797 Y250.815
N267 X314.697 Y250.636
N268 X314.584 Y250.466
N269 X314.459 Y250.304
N270 X314.322 Y250.151
N271 X314.175 Y250.009
N272 X314.018 Y249.878
N273 X313.851 Y249.759
N274 X313.677 Y249.653
N275 X313.495 Y249.559
N276 X313.307 Y249.479
N277 X313.113 Y249.413
N278 X312.915 Y249.361
N279 X312.714 Y249.324
N280 X312.51 Y249.301
N281 X312.306 Y249.294
N282 X279.089
N283 X342.831 Y145.049
N284 X342.931 Y144.87
N285 X343.018 Y144.685
N286 X343.091 Y144.494
N287 X343.15 Y144.298
N288 X343.195 Y144.099
N289 X343.225 Y143.896
N290 X343.24 Y143.692
N291 Y143.487
N292 X343.225 Y143.283
N293 X343.196 Y143.081
N294 X343.151 Y142.881
N295 X343.092 Y142.685
N296 X343.019 Y142.494
N297 X342.933 Y142.309
N298 X342.833 Y142.13
N299 X342.72 Y141.96
N300 X342.595 Y141.798
N301 X342.458 Y141.645
N302 X342.311 Y141.503
N303 X342.154 Y141.372
N304 X341.987 Y141.253
N305 X341.813 Y141.147
N306 X341.631 Y141.053
N307 X341.443 Y140.973
N308 X341.249 Y140.907
N309 X341.051 Y140.855
N310 X340.85 Y140.818
N311 X340.646 Y140.795
N312 X340.442 Y140.788
N313 X308.419
N314 X373.24 Y34.78
N315 X373.34 Y34.601
N316 X373.427 Y34.416
N317 X373.5 Y34.225
N318 X373.559 Y34.029
N319 X373.604 Y33.829
N320 X373.634 Y33.627
N321 X373.649 Y33.423
N322 Y33.218
N323 X373.634 Y33.014
N324 X373.605 Y32.812
N325 X373.56 Y32.612
N326 X373.501 Y32.416
N327 X373.428 Y32.225
N328 X373.342 Y32.04
N329 X373.242 Y31.861
N330 X373.129 Y31.691
N331 X373.004 Y31.529
N332 X372.867 Y31.376
N333 X372.72 Y31.234
N334 X372.563 Y31.103
N335 X372.397 Y30.984
N336 X372.222 Y30.877
N337 X372.04 Y30.784
N338 X371.852 Y30.704
N339 X371.658 Y30.638
N340 X371.46 Y30.586
N341 X371.259 Y30.549
N342 X371.055 Y30.526
N343 X370.851 Y30.519
N344 X265.014
N345 Y0
N346 X265.006 Y-0.209
N347 X264.983 Y-0.417
N348 X264.944 Y-0.623
N349 X264.89 Y-0.825
N350 X264.82 Y-1.023
N351 X264.737 Y-1.215
N352 X264.639 Y-1.4
N353 X264.527 Y-1.577
N354 X264.403 Y-1.746
N355 X264.267 Y-1.904
N356 X264.118 Y-2.053
N357 X263.96 Y-2.189
N358 X263.791 Y-2.313
N359 X263.614 Y-2.425
N360 X263.429 Y-2.523
N361 X263.237 Y-2.606
N362 X263.039 Y-2.676
N363 X262.837 Y-2.73
N364 X262.631 Y-2.769
N365 X262.423 Y-2.792
N366 X262.214 Y-2.8
N367 X194.425
N368 X194.216 Y-2.792
N369 X194.008 Y-2.769
N370 X193.802 Y-2.73
N371 X193.6 Y-2.676
N372 X193.402 Y-2.606
N373 X193.21 Y-2.523
N374 X193.025 Y-2.425
N375 X192.848 Y-2.313
N376 X192.679 Y-2.189
N377 X192.521 Y-2.053
N378 X192.372 Y-1.904
N379 X192.236 Y-1.746
N380 X192.112 Y-1.577
N381 X192 Y-1.4
N382 X191.902 Y-1.215
N383 X191.819 Y-1.023
N384 X191.749 Y-0.825
N385 X191.695 Y-0.623
N386 X191.656 Y-0.417
N387 X191.633 Y-0.209
N388 X191.625 Y0
N389 Y295.757
N390 X191.632 Y295.957
N391 X191.654 Y296.156
N392 X191.689 Y296.352
N393 X191.739 Y296.546
N394 X191.802 Y296.736
N395 X191.878 Y296.921
N396 X191.968 Y297.099
N397 X192.07 Y297.271
N398 X192.184 Y297.435
N399 X192.309 Y297.591
N400 X192.446 Y297.737
N401 X192.477 Y297.779
N402 X192.497 Y297.827
N403 X192.504 Y297.879
N404 X192.497 Y297.931
N405 X192.477 Y297.979
N406 X192.446 Y298.02
N407 X192.404 Y298.052
N408 X192.356 Y298.072
N409 X192.304 Y298.079
N410 X192.253 Y298.072
N411 X192.204 Y298.052
N412 X192.163 Y298.02
N413 X192.017 Y297.884
N414 X191.861 Y297.759
N415 X191.697 Y297.645
N416 X191.525 Y297.543
N417 X191.346 Y297.453
N418 X191.162 Y297.377
N419 X190.972 Y297.313
N420 X190.778 Y297.264
N421 X190.582 Y297.229
N422 X190.383 Y297.207
N423 X190.183 Y297.2
N424 X180.668
N425 X180.468 Y297.207
N426 X180.27 Y297.228
N427 X180.073 Y297.264
N428 X179.879 Y297.313
N429 X179.69 Y297.376
N430 X179.505 Y297.453
N431 X179.326 Y297.542
N432 X179.155 Y297.644
N433 X178.99 Y297.758
N434 X178.835 Y297.883
N435 X178.689 Y298.02
N436 X178.647 Y298.051
N437 X178.599 Y298.071
N438 X178.547 Y298.078
N439 X178.495 Y298.071
N440 X178.447 Y298.051
N441 X178.405 Y298.02
N442 X178.374 Y297.978
N443 X178.354 Y297.93
N444 X178.347 Y297.878
N445 X178.354 Y297.826
N446 X178.374 Y297.778
N447 X178.405 Y297.736
N448 X178.541 Y297.59
N449 X178.667 Y297.435
N450 X178.781 Y297.27
N451 X178.883 Y297.099
N452 X178.972 Y296.92
N453 X179.049 Y296.735
N454 X179.112 Y296.546
N455 X179.161 Y296.352
N456 X179.197 Y296.155
N457 X179.218 Y295.957
N458 X179.225 Y295.757
N459 Y0
N460 X179.217 Y-0.209
N461 X179.194 Y-0.417
N462 X179.155 Y-0.623
N463 X179.101 Y-0.825
N464 X179.031 Y-1.023
N465 X178.948 Y-1.215
N466 X178.85 Y-1.4
N467 X178.738 Y-1.577
N468 X178.614 Y-1.746
N469 X178.478 Y-1.904
N470 X178.329 Y-2.053
N471 X178.171 Y-2.189
N472 X178.002 Y-2.313
N473 X177.825 Y-2.425
N474 X177.64 Y-2.523
N475 X177.448 Y-2.606
N476 X177.25 Y-2.676
N477 X177.048 Y-2.73
N478 X176.842 Y-2.769
N479 X176.634 Y-2.792
N480 X176.425 Y-2.8
N481 X108.637
N482 X108.428 Y-2.792
N483 X108.22 Y-2.769
N484 X108.014 Y-2.73
N485 X107.812 Y-2.676
N486 X107.614 Y-2.606
N487 X107.422 Y-2.523
N488 X107.237 Y-2.425
N489 X107.06 Y-2.313
N490 X106.891 Y-2.189
N491 X106.733 Y-2.053
N492 X106.584 Y-1.904
N493 X106.448 Y-1.746
N494 X106.324 Y-1.577
N495 X106.212 Y-1.4
N496 X106.114 Y-1.215
N497 X106.031 Y-1.023
N498 X105.961 Y-0.825
N499 X105.907 Y-0.623
N500 X105.868 Y-0.417
N501 X105.845 Y-0.209
N502 X105.837 Y0
N503 Y30.519
N504 X0
N505 X-0.209 Y30.527
N506 X-0.417 Y30.55
N507 X-0.623 Y30.589
N508 X-0.826 Y30.643
N509 X-1.023 Y30.713
N510 X-1.215 Y30.796
N511 X-1.4 Y30.894
N512 X-1.578 Y31.006
N513 X-1.746 Y31.13
N514 X-1.905 Y31.267
N515 X-2.053 Y31.415
N516 X-2.19 Y31.574
N517 X-2.314 Y31.742
N518 X-2.425 Y31.92
N519 X-2.523 Y32.105
N520 X-2.607 Y32.297
N521 X-2.676 Y32.495
N522 X-2.73 Y32.697
N523 X-2.769 Y32.903
N524 X-2.792 Y33.111
N525 X-2.8 Y33.32
N526 X-2.792 Y33.53
N527 X-2.768 Y33.738
N528 X-2.729 Y33.944
N529 X-2.683 Y34.119 Z14.999 F2500
N530 X-2.626 Y34.291 Z14.998
N531 X-2.557 Y34.459 Z14.996
N532 X-2.478 Y34.622 Z14.995
N533 X-2.389 Y34.78 Z14.994
N534 X62.431 Y140.788 Z14.172
N535 X30.409 Z13.96
N536 X30.204 Y140.795 Z13.959
N537 X30.001 Y140.818 Z13.957
N538 X29.799 Y140.855 Z13.956
N539 X29.602 Y140.907 Z13.955
N540 X29.408 Y140.973 Z13.953
N541 X29.22 Y141.053 Z13.952
N542 X29.038 Y141.147 Z13.95
N543 X28.863 Y141.253 Z13.949
N544 X28.697 Y141.372 Z13.948
N545 X28.539 Y141.503 Z13.946
N546 X28.392 Y141.645 Z13.945
N547 X28.256 Y141.798 Z13.944
N548 X28.131 Y141.96 Z13.942
N549 X28.018 Y142.13 Z13.941
N550 X27.918 Y142.309 Z13.94
N551 X27.831 Y142.494 Z13.938
N552 X27.758 Y142.685 Z13.937
N553 X27.699 Y142.881 Z13.936
N554 X27.655 Y143.081 Z13.934
N555 X27.625 Y143.283 Z13.933
N556 X27.61 Y143.487 Z13.932
N557 Y143.692 Z13.93
N558 X27.626 Y143.896 Z13.929
N559 X27.655 Y144.099 Z13.927
N560 X27.7 Y144.298 Z13.926
N561 X27.759 Y144.494 Z13.925
N562 X27.832 Y144.685 Z13.923
N563 X27.919 Y144.87 Z13.922
N564 X28.02 Y145.049 Z13.921
N565 X91.762 Y249.294 Z13.112
N566 X58.545 Z12.892
N567 X58.34 Y249.301 Z12.891
N568 X58.137 Y249.324 Z12.89
N569 X57.936 Y249.361 Z12.888
N570 X57.738 Y249.413 Z12.887
N571 X57.544 Y249.479 Z12.886
N572 X57.356 Y249.559 Z12.884
N573 X57.174 Y249.653 Z12.883
N574 X56.999 Y249.759 Z12.882
N575 X56.833 Y249.878 Z12.88
N576 X56.676 Y250.009 Z12.879
N577 X56.528 Y250.151 Z12.878
N578 X56.392 Y250.304 Z12.876
N579 X56.267 Y250.466 Z12.875
N580 X56.154 Y250.636 Z12.873
N581 X56.054 Y250.815 Z12.872
N582 X55.967 Y251 Z12.871
N583 X55.894 Y251.191 Z12.869
N584 X55.835 Y251.387 Z12.868
N585 X55.791 Y251.587 Z12.867
N586 X55.761 Y251.789 Z12.865
N587 X55.747 Y251.993 Z12.864
N588 Y252.198 Z12.863
N589 X55.762 Y252.402 Z12.861
N590 X55.792 Y252.605 Z12.86
N591 X55.836 Y252.804 Z12.859
N592 X55.895 Y253 Z12.857
N593 X55.969 Y253.191 Z12.856
N594 X56.056 Y253.376 Z12.854
N595 X56.156 Y253.555 Z12.853
N596 X122.142 Y361.469 Z12.016
N597 X119.694 Z12
N598 X91.411 F2760
N599 X91.207 Y361.476
N600 X91.003 Y361.499
N601 X90.801 Y361.536
N602 X90.603 Y361.588
N603 X90.409 Y361.655
N604 X90.221 Y361.735
N605 X90.038 Y361.829
N606 X89.864 Y361.936
N607 X89.697 Y362.055
N608 X89.54 Y362.186
N609 X89.392 Y362.329
N610 X89.256 Y362.482
N611 X89.131 Y362.644
N612 X89.018 Y362.815
N613 X88.918 Y362.994
N614 X88.832 Y363.18
N615 X88.759 Y363.372
N616 X88.701 Y363.568
N617 X88.657 Y363.768
N618 X88.627 Y363.971
N619 X88.613 Y364.176
N620 X88.614 Y364.38
N621 X88.629 Y364.585
N622 X88.66 Y364.787
N623 X88.705 Y364.987
N624 X88.765 Y365.183
N625 X88.839 Y365.374
N626 X88.927 Y365.56
N627 X143.956 Y471.501
N628 X120.706
N629 X120.501 Y471.509
N630 X120.296 Y471.531
N631 X120.094 Y471.569
N632 X119.896 Y471.621
N633 X119.701 Y471.687
N634 X119.512 Y471.768
N635 X119.33 Y471.863
N636 X119.155 Y471.97
N637 X118.988 Y472.09
N638 X118.83 Y472.222
N639 X118.683 Y472.365
N640 X118.547 Y472.519
N641 X118.422 Y472.682
N642 X118.309 Y472.854
N643 X118.209 Y473.033
N644 X118.123 Y473.22
N645 X118.051 Y473.412
N646 X117.993 Y473.609
N647 X117.949 Y473.81
N648 X117.921 Y474.014
N649 X117.907 Y474.219
N650 X117.909 Y474.424
N651 X117.925 Y474.629
N652 X117.957 Y474.832
N653 X118.003 Y475.032
N654 X118.064 Y475.228
N655 X118.139 Y475.42
N656 X118.228 Y475.605
N657 X118.33 Y475.783
N658 X183.049 Y579.521
N659 X183.167 Y579.695
N660 X183.298 Y579.86
N661 X183.44 Y580.014
N662 X183.594 Y580.157
N663 X183.758 Y580.289
N664 X183.931 Y580.407
N665 X184.113 Y580.512
N666 X184.302 Y580.604
N667 X184.497 Y580.681
N668 X184.698 Y580.743
N669 X184.903 Y580.79
N670 X185.111 Y580.821
N671 X185.32 Y580.837
N672 X185.53
N673 X185.739 Y580.821
N674 X185.947 Y580.79
N675 X186.152 Y580.743
N676 X186.353 Y580.681
N677 X186.548 Y580.604
N678 X186.737 Y580.512
N679 X186.919 Y580.407
N680 X187.092 Y580.288
N681 X187.256 Y580.157
N682 X187.41 Y580.014
N683 X187.552 Y579.86
N684 X187.683 Y579.695
N685 X187.801 Y579.521
N686 X252.521 Y475.783
N687 X252.623 Y475.605
N688 X252.712 Y475.42
N689 X252.787 Y475.228
N690 X252.848 Y475.032
N691 X252.894 Y474.832
N692 X252.926 Y474.629
N693 X252.942 Y474.424
N694 X252.944 Y474.219
N695 X252.93 Y474.014
N696 X252.902 Y473.81
N697 X252.858 Y473.609
N698 X252.8 Y473.412
N699 X252.728 Y473.22
N700 X252.642 Y473.033
N701 X252.542 Y472.854
N702 X252.429 Y472.682
N703 X252.304 Y472.519
N704 X252.168 Y472.365
N705 X252.021 Y472.222
N706 X251.863 Y472.09
N707 X251.696 Y471.97
N708 X251.521 Y471.863
N709 X251.339 Y471.768
N710 X251.15 Y471.687
N711 X250.955 Y471.621
N712 X250.757 Y471.569
N713 X250.555 Y471.531
N714 X250.35 Y471.509
N715 X250.145 Y471.501
N716 X226.895
N717 X281.924 Y365.56
N718 X282.012 Y365.374
N719 X282.086 Y365.183
N720 X282.145 Y364.987
N721 X282.191 Y364.787
N722 X282.221 Y364.585
N723 X282.237 Y364.38
N724 Y364.175
N725 X282.223 Y363.971
N726 X282.194 Y363.768
N727 X282.15 Y363.568
N728 X282.091 Y363.372
N729 X282.019 Y363.18
N730 X281.932 Y362.994
N731 X281.832 Y362.815
N732 X281.719 Y362.644
N733 X281.594 Y362.482
N734 X281.458 Y362.329
N735 X281.311 Y362.186
N736 X281.153 Y362.055
N737 X280.987 Y361.936
N738 X280.812 Y361.829
N739 X280.63 Y361.735
N740 X280.441 Y361.654
N741 X280.247 Y361.588
N742 X280.049 Y361.536
N743 X279.848 Y361.499
N744 X279.644 Y361.476
N745 X279.439 Y361.469
N746 X248.709
N747 X314.695 Y253.555
N748 X314.795 Y253.376
N749 X314.882 Y253.191
N750 X314.955 Y253
N751 X315.014 Y252.804
N752 X315.059 Y252.605
N753 X315.089 Y252.402
N754 X315.104 Y252.198
N755 Y251.993
N756 X315.089 Y251.789
N757 X315.06 Y251.587
N758 X315.015 Y251.387
N759 X314.956 Y251.191
N760 X314.883 Y251
N761 X314.797 Y250.815
N762 X314.697 Y250.636
N763 X314.584 Y250.466
N764 X314.459 Y250.304
N765 X314.322 Y250.151
N766 X314.175 Y250.009
N767 X314.018 Y249.878
N768 X313.851 Y249.759
N769 X313.677 Y249.653
N770 X313.495 Y249.559
N771 X313.307 Y249.479
N772 X313.113 Y249.413
N773 X312.915 Y249.361
N774 X312.714 Y249.324
N775 X312.51 Y249.301
N776 X312.306 Y249.294
N777 X279.089
N778 X342.831 Y145.049
N779 X342.931 Y144.87
N780 X343.018 Y144.685
N781 X343.091 Y144.494
N782 X343.15 Y144.298
N783 X343.195 Y144.099
N784 X343.225 Y143.896
N785 X343.24 Y143.692
N786 Y143.487
N787 X343.225 Y143.283
N788 X343.196 Y143.081
N789 X343.151 Y142.881
N790 X343.092 Y142.685
N791 X343.019 Y142.494
N792 X342.933 Y142.309
N793 X342.833 Y142.13
N794 X342.72 Y141.96
N795 X342.595 Y141.798
N796 X342.458 Y141.645
N797 X342.311 Y141.503
N798 X342.154 Y141.372
N799 X341.987 Y141.253
N800 X341.813 Y141.147
N801 X341.631 Y141.053
N802 X341.443 Y140.973
N803 X341.249 Y140.907
N804 X341.051 Y140.855
N805 X340.85 Y140.818
N806 X340.646 Y140.795
N807 X340.442 Y140.788
N808 X308.419
N809 X373.24 Y34.78
N810 X373.34 Y34.601
N811 X373.427 Y34.416
N812 X373.5 Y34.225
N813 X373.559 Y34.029
N814 X373.604 Y33.829
N815 X373.634 Y33.627
N816 X373.649 Y33.423
N817 Y33.218
N818 X373.634 Y33.014
N819 X373.605 Y32.812
N820 X373.56 Y32.612
N821 X373.501 Y32.416
N822 X373.428 Y32.225
N823 X373.342 Y32.04
N824 X373.242 Y31.861
N825 X373.129 Y31.691
N826 X373.004 Y31.529
N827 X372.867 Y31.376
N828 X372.72 Y31.234
N829 X372.563 Y31.103
N830 X372.397 Y30.984
N831 X372.222 Y30.877
N832 X372.04 Y30.784
N833 X371.852 Y30.704
N834 X371.658 Y30.638
N835 X371.46 Y30.586
N836 X371.259 Y30.549
N837 X371.055 Y30.526
N838 X370.851 Y30.519
N839 X265.014
N840 Y0
N841 X265.006 Y-0.209
N842 X264.983 Y-0.417
N843 X264.944 Y-0.623
N844 X264.89 Y-0.825
N845 X264.82 Y-1.023
N846 X264.737 Y-1.215
N847 X264.639 Y-1.4
N848 X264.527 Y-1.577
N849 X264.403 Y-1.746
N850 X264.267 Y-1.904
N851 X264.118 Y-2.053
N852 X263.96 Y-2.189
N853 X263.791 Y-2.313
N854 X263.614 Y-2.425
N855 X263.429 Y-2.523
N856 X263.237 Y-2.606
N857 X263.039 Y-2.676
N858 X262.837 Y-2.73
N859 X262.631 Y-2.769
N860 X262.423 Y-2.792
N861 X262.214 Y-2.8
N862 X194.425
N863 X194.216 Y-2.792
N864 X194.008 Y-2.769
N865 X193.802 Y-2.73
N866 X193.6 Y-2.676
N867 X193.402 Y-2.606
N868 X193.21 Y-2.523
N869 X193.025 Y-2.425
N870 X192.848 Y-2.313
N871 X192.679 Y-2.189
N872 X192.521 Y-2.053
N873 X192.372 Y-1.904
N874 X192.236 Y-1.746
N875 X192.112 Y-1.577
N876 X192 Y-1.4
N877 X191.902 Y-1.215
N878 X191.819 Y-1.023
N879 X191.749 Y-0.825
N880 X191.695 Y-0.623
N881 X191.656 Y-0.417
N882 X191.633 Y-0.209
N883 X191.625 Y0
N884 Y295.757
N885 X191.632 Y295.957
N886 X191.654 Y296.156
N887 X191.689 Y296.352
N888 X191.739 Y296.546
N889 X191.802 Y296.736
N890 X191.878 Y296.921
N891 X191.968 Y297.099
N892 X192.07 Y297.271
N893 X192.184 Y297.435
N894 X192.309 Y297.591
N895 X192.446 Y297.737
N896 X192.477 Y297.779
N897 X192.497 Y297.827
N898 X192.504 Y297.879
N899 X192.497 Y297.931
N900 X192.477 Y297.979
N901 X192.446 Y298.02
N902 X192.404 Y298.052
N903 X192.356 Y298.072
N904 X192.304 Y298.079
N905 X192.253 Y298.072
N906 X192.204 Y298.052
N907 X192.163 Y298.02
N908 X192.017 Y297.884
N909 X191.861 Y297.759
N910 X191.697 Y297.645
N911 X191.525 Y297.543
N912 X191.346 Y297.453
N913 X191.162 Y297.377
N914 X190.972 Y297.313
N915 X190.778 Y297.264
N916 X190.582 Y297.229
N917 X190.383 Y297.207
N918 X190.183 Y297.2
N919 X180.668
N920 X180.468 Y297.207
N921 X180.27 Y297.228
N922 X180.073 Y297.264
N923 X179.879 Y297.313
N924 X179.69 Y297.376
N925 X179.505 Y297.453
N926 X179.326 Y297.542
N927 X179.155 Y297.644
N928 X178.99 Y297.758
N929 X178.835 Y297.883
N930 X178.689 Y298.02
N931 X178.647 Y298.051
N932 X178.599 Y298.071
N933 X178.547 Y298.078
N934 X178.495 Y298.071
N935 X178.447 Y298.051
N936 X178.405 Y298.02
N937 X178.374 Y297.978
N938 X178.354 Y297.93
N939 X178.347 Y297.878
N940 X178.354 Y297.826
N941 X178.374 Y297.778
N942 X178.405 Y297.736
N943 X178.541 Y297.59
N944 X178.667 Y297.435
N945 X178.781 Y297.27
N946 X178.883 Y297.099
N947 X178.972 Y296.92
N948 X179.049 Y296.735
N949 X179.112 Y296.546
N950 X179.161 Y296.352
N951 X179.197 Y296.155
N952 X179.218 Y295.957
N953 X179.225 Y295.757
N954 Y0
N955 X179.217 Y-0.209
N956 X179.194 Y-0.417
N957 X179.155 Y-0.623
N958 X179.101 Y-0.825
N959 X179.031 Y-1.023
N960 X178.948 Y-1.215
N961 X178.85 Y-1.4
N962 X178.738 Y-1.577
N963 X178.614 Y-1.746
N964 X178.478 Y-1.904
N965 X178.329 Y-2.053
N966 X178.171 Y-2.189
N967 X178.002 Y-2.313
N968 X177.825 Y-2.425
N969 X177.64 Y-2.523
N970 X177.448 Y-2.606
N971 X177.25 Y-2.676
N972 X177.048 Y-2.73
N973 X176.842 Y-2.769
N974 X176.634 Y-2.792
N975 X176.425 Y-2.8
N976 X108.637
N977 X108.428 Y-2.792
N978 X108.22 Y-2.769
N979 X108.014 Y-2.73
N980 X107.812 Y-2.676
N981 X107.614 Y-2.606
N982 X107.422 Y-2.523
N983 X107.237 Y-2.425
N984 X107.06 Y-2.313
N985 X106.891 Y-2.189
N986 X106.733 Y-2.053
N987 X106.584 Y-1.904
N988 X106.448 Y-1.746
N989 X106.324 Y-1.577
N990 X106.212 Y-1.4
N991 X106.114 Y-1.215
N992 X106.031 Y-1.023
N993 X105.961 Y-0.825
N994 X105.907 Y-0.623
N995 X105.868 Y-0.417
N996 X105.845 Y-0.209
N997 X105.837 Y0
N998 Y30.519
N999 X0
N1000 X-0.204 Y30.526
N1001 X-0.408 Y30.549
N1002 X-0.609 Y30.586
N1003 X-0.807 Y30.638
N1004 X-1.001 Y30.704
N1005 X-1.189 Y30.784
N1006 X-1.371 Y30.877
N1007 X-1.545 Y30.984
N1008 X-1.712 Y31.103
N1009 X-1.869 Y31.234
N1010 X-2.016 Y31.376
N1011 X-2.153 Y31.529
N1012 X-2.278 Y31.691
N1013 X-2.391 Y31.861
N1014 X-2.491 Y32.04
N1015 X-2.577 Y32.225
N1016 X-2.65 Y32.416
N1017 X-2.709 Y32.612
N1018 X-2.754 Y32.812
N1019 X-2.783 Y33.014
N1020 X-2.798 Y33.218
N1021 Y33.423
N1022 X-2.783 Y33.627
N1023 X-2.753 Y33.829
N1024 X-2.708 Y34.029
N1025 X-2.649 Y34.225
N1026 X-2.576 Y34.416
N1027 X-2.489 Y34.601
N1028 X-2.389 Y34.78
N1029 X62.431 Y140.788
N1030 X30.409
N1031 X30.204 Y140.795
N1032 X30.001 Y140.818
N1033 X29.799 Y140.855
N1034 X29.602 Y140.907
N1035 X29.408 Y140.973
N1036 X29.22 Y141.053
N1037 X29.038 Y141.147
N1038 X28.863 Y141.253
N1039 X28.697 Y141.372
N1040 X28.539 Y141.503
N1041 X28.392 Y141.645
N1042 X28.256 Y141.798
N1043 X28.131 Y141.96
N1044 X28.018 Y142.13
N1045 X27.918 Y142.309
N1046 X27.831 Y142.494
N1047 X27.758 Y142.685
N1048 X27.699 Y142.881
N1049 X27.655 Y143.081
N1050 X27.625 Y143.283
N1051 X27.61 Y143.487
N1052 Y143.692
N1053 X27.626 Y143.896
N1054 X27.655 Y144.099
N1055 X27.7 Y144.298
N1056 X27.759 Y144.494
N1057 X27.832 Y144.685
N1058 X27.919 Y144.87
N1059 X28.02 Y145.049
N1060 X91.762 Y249.294
N1061 X58.545
N1062 X58.34 Y249.301
N1063 X58.137 Y249.324
N1064 X57.936 Y249.361
N1065 X57.738 Y249.413
N1066 X57.544 Y249.479
N1067 X57.356 Y249.559
N1068 X57.174 Y249.653
N1069 X56.999 Y249.759
N1070 X56.833 Y249.878
N1071 X56.676 Y250.009
N1072 X56.528 Y250.151
N1073 X56.392 Y250.304
N1074 X56.267 Y250.466
N1075 X56.154 Y250.636
N1076 X56.054 Y250.815
N1077 X55.967 Y251
N1078 X55.894 Y251.191
N1079 X55.835 Y251.387
N1080 X55.791 Y251.587
N1081 X55.761 Y251.789
N1082 X55.747 Y251.993
N1083 Y252.198
N1084 X55.762 Y252.402
N1085 X55.792 Y252.605
N1086 X55.836 Y252.804
N1087 X55.895 Y253
N1088 X55.969 Y253.191
N1089 X56.056 Y253.376
N1090 X56.156 Y253.555
N1091 X122.142 Y361.469
N1092 X119.694
N1093 X91.411 Z11.813 F2500
N1094 X91.207 Y361.476 Z11.812
N1095 X91.003 Y361.499 Z11.81
N1096 X90.801 Y361.536 Z11.809
N1097 X90.603 Y361.588 Z11.807
N1098 X90.409 Y361.655 Z11.806
N1099 X90.221 Y361.735 Z11.805
N1100 X90.038 Y361.829 Z11.803
N1101 X89.864 Y361.936 Z11.802
N1102 X89.697 Y362.055 Z11.801
N1103 X89.54 Y362.186 Z11.799
N1104 X89.392 Y362.329 Z11.798
N1105 X89.256 Y362.482 Z11.797
N1106 X89.131 Y362.644 Z11.795
N1107 X89.018 Y362.815 Z11.794
N1108 X88.918 Y362.994 Z11.793
N1109 X88.832 Y363.18 Z11.791
N1110 X88.759 Y363.372 Z11.79
N1111 X88.701 Y363.568 Z11.788
N1112 X88.657 Y363.768 Z11.787
N1113 X88.627 Y363.971 Z11.786
N1114 X88.613 Y364.176 Z11.784
N1115 X88.614 Y364.38 Z11.783
N1116 X88.629 Y364.585 Z11.782
N1117 X88.66 Y364.787 Z11.78
N1118 X88.705 Y364.987 Z11.779
N1119 X88.765 Y365.183 Z11.778
N1120 X88.839 Y365.374 Z11.776
N1121 X88.927 Y365.56 Z11.775
N1122 X143.956 Y471.501 Z10.985
N1123 X120.706 Z10.831
N1124 X120.501 Y471.509 Z10.83
N1125 X120.296 Y471.531 Z10.828
N1126 X120.094 Y471.569 Z10.827
N1127 X119.896 Y471.621 Z10.826
N1128 X119.701 Y471.687 Z10.824
N1129 X119.512 Y471.768 Z10.823
N1130 X119.33 Y471.863 Z10.822
N1131 X119.155 Y471.97 Z10.82
N1132 X118.988 Y472.09 Z10.819
N1133 X118.83 Y472.222 Z10.818
N1134 X118.683 Y472.365 Z10.816
N1135 X118.547 Y472.519 Z10.815
N1136 X118.422 Y472.682 Z10.813
N1137 X118.309 Y472.854 Z10.812
N1138 X118.209 Y473.033 Z10.811
N1139 X118.123 Y473.22 Z10.809
N1140 X118.051 Y473.412 Z10.808
N1141 X117.993 Y473.609 Z10.807
N1142 X117.949 Y473.81 Z10.805
N1143 X117.921 Y474.014 Z10.804
N1144 X117.907 Y474.219 Z10.803
N1145 X117.909 Y474.424 Z10.801
N1146 X117.925 Y474.629 Z10.8
N1147 X117.957 Y474.832 Z10.798
N1148 X118.003 Y475.032 Z10.797
N1149 X118.064 Y475.228 Z10.796
N1150 X118.139 Y475.42 Z10.794
N1151 X118.228 Y475.605 Z10.793
N1152 X118.33 Y475.783 Z10.792
N1153 X183.049 Y579.521 Z9.983
N1154 X183.167 Y579.695 Z9.981
N1155 X183.298 Y579.86 Z9.98
N1156 X183.44 Y580.014 Z9.979
N1157 X183.594 Y580.157 Z9.977
N1158 X183.758 Y580.289 Z9.976
N1159 X183.931 Y580.407 Z9.974
N1160 X184.113 Y580.512 Z9.973
N1161 X184.302 Y580.604 Z9.972
N1162 X184.497 Y580.681 Z9.97
N1163 X184.698 Y580.743 Z9.969
N1164 X184.903 Y580.79 Z9.967
N1165 X185.111 Y580.821 Z9.966
N1166 X185.32 Y580.837 Z9.965
N1167 X185.53 Z9.963
N1168 X185.739 Y580.821 Z9.962
N1169 X185.947 Y580.79 Z9.96
N1170 X186.152 Y580.743 Z9.959
N1171 X186.353 Y580.681 Z9.958
N1172 X186.548 Y580.604 Z9.956
N1173 X186.737 Y580.512 Z9.955
N1174 X186.919 Y580.407 Z9.953
N1175 X187.092 Y580.288 Z9.952
N1176 X187.256 Y580.157 Z9.951
N1177 X187.41 Y580.014 Z9.949
N1178 X187.552 Y579.86 Z9.948
N1179 X187.683 Y579.695 Z9.947
N1180 X187.801 Y579.521 Z9.945
N1181 X252.521 Y475.783 Z9.136
N1182 X252.623 Y475.605 Z9.135
N1183 X252.712 Y475.42 Z9.133
N1184 X252.787 Y475.228 Z9.132
N1185 X252.848 Y475.032 Z9.131
N1186 X252.894 Y474.832 Z9.129
N1187 X252.926 Y474.629 Z9.128
N1188 X252.942 Y474.424 Z9.127
N1189 X252.944 Y474.219 Z9.125
N1190 X252.93 Y474.014 Z9.124
N1191 X252.902 Y473.81 Z9.123
N1192 X252.858 Y473.609 Z9.121
N1193 X252.8 Y473.412 Z9.12
N1194 X252.728 Y473.22 Z9.118
N1195 X252.642 Y473.033 Z9.117
N1196 X252.542 Y472.854 Z9.116
N1197 X252.429 Y472.682 Z9.114
N1198 X252.304 Y472.519 Z9.113
N1199 X252.168 Y472.365 Z9.112
N1200 X252.021 Y472.222 Z9.11
N1201 X251.863 Y472.09 Z9.109
N1202 X251.696 Y471.97 Z9.108
N1203 X251.521 Y471.863 Z9.106
N1204 X251.339 Y471.768 Z9.105
N1205 X251.15 Y471.687 Z9.103
N1206 X250.955 Y471.621 Z9.102
N1207 X250.757 Y471.569 Z9.101
N1208 X250.555 Y471.531 Z9.099
N1209 X250.35 Y471.509 Z9.098
N1210 X250.145 Y471.501 Z9.097
N1211 X235.535 Z9
N1212 X226.895 F2760
N1213 X281.924 Y365.56
N1214 X282.012 Y365.374
N1215 X282.086 Y365.183
N1216 X282.145 Y364.987
N1217 X282.191 Y364.787
N1218 X282.221 Y364.585
N1219 X282.237 Y364.38
N1220 Y364.175
N1221 X282.223 Y363.971
N1222 X282.194 Y363.768
N1223 X282.15 Y363.568
N1224 X282.091 Y363.372
N1225 X282.019 Y363.18
N1226 X281.932 Y362.994
N1227 X281.832 Y362.815
N1228 X281.719 Y362.644
N1229 X281.594 Y362.482
N1230 X281.458 Y362.329
N1231 X281.311 Y362.186
N1232 X281.153 Y362.055
N1233 X280.987 Y361.936
N1234 X280.812 Y361.829
N1235 X280.63 Y361.735
N1236 X280.441 Y361.654
N1237 X280.247 Y361.588
N1238 X280.049 Y361.536
N1239 X279.848 Y361.499
N1240 X279.644 Y361.476
N1241 X279.439 Y361.469
N1242 X248.709
N1243 X314.695 Y253.555
N1244 X314.795 Y253.376
N1245 X314.882 Y253.191
N1246 X314.955 Y253
N1247 X315.014 Y252.804
N1248 X315.059 Y252.605
N1249 X315.089 Y252.402
N1250 X315.104 Y252.198
N1251 Y251.993
N1252 X315.089 Y251.789
N1253 X315.06 Y251.587
N1254 X315.015 Y251.387
N1255 X314.956 Y251.191
N1256 X314.883 Y251
N1257 X314.797 Y250.815
N1258 X314.697 Y250.636
N1259 X314.584 Y250.466
N1260 X314.459 Y250.304
N1261 X314.322 Y250.151
N1262 X314.175 Y250.009
N1263 X314.018 Y249.878
N1264 X313.851 Y249.759
N1265 X313.677 Y249.653
N1266 X313.495 Y249.559
N1267 X313.307 Y249.479
N1268 X313.113 Y249.413
N1269 X312.915 Y249.361
N1270 X312.714 Y249.324
N1271 X312.51 Y249.301
N1272 X312.306 Y249.294
N1273 X279.089
N1274 X342.831 Y145.049
N1275 X342.931 Y144.87
N1276 X343.018 Y144.685
N1277 X343.091 Y144.494
N1278 X343.15 Y144.298
N1279 X343.195 Y144.099
N1280 X343.225 Y143.896
N1281 X343.24 Y143.692
N1282 Y143.487
N1283 X343.225 Y143.283
N1284 X343.196 Y143.081
N1285 X343.151 Y142.881
N1286 X343.092 Y142.685
N1287 X343.019 Y142.494
N1288 X342.933 Y142.309
N1289 X342.833 Y142.13
N1290 X342.72 Y141.96
N1291 X342.595 Y141.798
N1292 X342.458 Y141.645
N1293 X342.311 Y141.503
N1294 X342.154 Y141.372
N1295 X341.987 Y141.253
N1296 X341.813 Y141.147
N1297 X341.631 Y141.053
N1298 X341.443 Y140.973
N1299 X341.249 Y140.907
N1300 X341.051 Y140.855
N1301 X340.85 Y140.818
N1302 X340.646 Y140.795
N1303 X340.442 Y140.788
N1304 X308.419
N1305 X373.24 Y34.78
N1306 X373.34 Y34.601
N1307 X373.427 Y34.416
N1308 X373.5 Y34.225
N1309 X373.559 Y34.029
N1310 X373.604 Y33.829
N1311 X373.634 Y33.627
N1312 X373.649 Y33.423
N1313 Y33.218
N1314 X373.634 Y33.014
N1315 X373.605 Y32.812
N1316 X373.56 Y32.612
N1317 X373.501 Y32.416
N1318 X373.428 Y32.225
N1319 X373.342 Y32.04
N1320 X373.242 Y31.861
N1321 X373.129 Y31.691
N1322 X373.004 Y31.529
N1323 X372.867 Y31.376
N1324 X372.72 Y31.234
N1325 X372.563 Y31.103
N1326 X372.397 Y30.984
N1327 X372.222 Y30.877
N1328 X372.04 Y30.784
N1329 X371.852 Y30.704
N1330 X371.658 Y30.638
N1331 X371.46 Y30.586
N1332 X371.259 Y30.549
N1333 X371.055 Y30.526
N1334 X370.851 Y30.519
N1335 X265.014
N1336 Y0
N1337 X265.006 Y-0.209
N1338 X264.983 Y-0.417
N1339 X264.944 Y-0.623
N1340 X264.89 Y-0.825
N1341 X264.82 Y-1.023
N1342 X264.737 Y-1.215
N1343 X264.639 Y-1.4
N1344 X264.527 Y-1.577
N1345 X264.403 Y-1.746
N1346 X264.267 Y-1.904
N1347 X264.118 Y-2.053
N1348 X263.96 Y-2.189
N1349 X263.791 Y-2.313
N1350 X263.614 Y-2.425
N1351 X263.429 Y-2.523
N1352 X263.237 Y-2.606
N1353 X263.039 Y-2.676
N1354 X262.837 Y-2.73
N1355 X262.631 Y-2.769
N1356 X262.423 Y-2.792
N1357 X262.214 Y-2.8
N1358 X194.425
N1359 X194.216 Y-2.792
N1360 X194.008 Y-2.769
N1361 X193.802 Y-2.73
N1362 X193.6 Y-2.676
N1363 X193.402 Y-2.606
N1364 X193.21 Y-2.523
N1365 X193.025 Y-2.425
N1366 X192.848 Y-2.313
N1367 X192.679 Y-2.189
N1368 X192.521 Y-2.053
N1369 X192.372 Y-1.904
N1370 X192.236 Y-1.746
N1371 X192.112 Y-1.577
N1372 X192 Y-1.4
N1373 X191.902 Y-1.215
N1374 X191.819 Y-1.023
N1375 X191.749 Y-0.825
N1376 X191.695 Y-0.623
N1377 X191.656 Y-0.417
N1378 X191.633 Y-0.209
N1379 X191.625 Y0
N1380 Y295.757
N1381 X191.632 Y295.957
N1382 X191.654 Y296.156
N1383 X191.689 Y296.352
N1384 X191.739 Y296.546
N1385 X191.802 Y296.736
N1386 X191.878 Y296.921
N1387 X191.968 Y297.099
N1388 X192.07 Y297.271
N1389 X192.184 Y297.435
N1390 X192.309 Y297.591
N1391 X192.446 Y297.737
N1392 X192.477 Y297.779
N1393 X192.497 Y297.827
N1394 X192.504 Y297.879
N1395 X192.497 Y297.931
N1396 X192.477 Y297.979
N1397 X192.446 Y298.02
N1398 X192.404 Y298.052
N1399 X192.356 Y298.072
N1400 X192.304 Y298.079
N1401 X192.253 Y298.072
N1402 X192.204 Y298.052
N1403 X192.163 Y298.02
N1404 X192.017 Y297.884
N1405 X191.861 Y297.759
N1406 X191.697 Y297.645
N1407 X191.525 Y297.543
N1408 X191.346 Y297.453
N1409 X191.162 Y297.377
N1410 X190.972 Y297.313
N1411 X190.778 Y297.264
N1412 X190.582 Y297.229
N1413 X190.383 Y297.207
N1414 X190.183 Y297.2
N1415 X180.668
N1416 X180.468 Y297.207
N1417 X180.27 Y297.228
N1418 X180.073 Y297.264
N1419 X179.879 Y297.313
N1420 X179.69 Y297.376
N1421 X179.505 Y297.453
N1422 X179.326 Y297.542
N1423 X179.155 Y297.644
N1424 X178.99 Y297.758
N1425 X178.835 Y297.883
N1426 X178.689 Y298.02
N1427 X178.647 Y298.051
N1428 X178.599 Y298.071
N1429 X178.547 Y298.078
N1430 X178.495 Y298.071
N1431 X178.447 Y298.051
N1432 X178.405 Y298.02
N1433 X178.374 Y297.978
N1434 X178.354 Y297.93
N1435 X178.347 Y297.878
N1436 X178.354 Y297.826
N1437 X178.374 Y297.778
N1438 X178.405 Y297.736
N1439 X178.541 Y297.59
N1440 X178.667 Y297.435
N1441 X178.781 Y297.27
N1442 X178.883 Y297.099
N1443 X178.972 Y296.92
N1444 X179.049 Y296.735
N1445 X179.112 Y296.546
N1446 X179.161 Y296.352
N1447 X179.197 Y296.155
N1448 X179.218 Y295.957
N1449 X179.225 Y295.757
N1450 Y0
N1451 X179.217 Y-0.209
N1452 X179.194 Y-0.417
N1453 X179.155 Y-0.623
N1454 X179.101 Y-0.825
N1455 X179.031 Y-1.023
N1456 X178.948 Y-1.215
N1457 X178.85 Y-1.4
N1458 X178.738 Y-1.577
N1459 X178.614 Y-1.746
N1460 X178.478 Y-1.904
N1461 X178.329 Y-2.053
N1462 X178.171 Y-2.189
N1463 X178.002 Y-2.313
N1464 X177.825 Y-2.425
N1465 X177.64 Y-2.523
N1466 X177.448 Y-2.606
N1467 X177.25 Y-2.676
N1468 X177.048 Y-2.73
N1469 X176.842 Y-2.769
N1470 X176.634 Y-2.792
N1471 X176.425 Y-2.8
N1472 X108.637
N1473 X108.428 Y-2.792
N1474 X108.22 Y-2.769
N1475 X108.014 Y-2.73
N1476 X107.812 Y-2.676
N1477 X107.614 Y-2.606
N1478 X107.422 Y-2.523
N1479 X107.237 Y-2.425
N1480 X107.06 Y-2.313
N1481 X106.891 Y-2.189
N1482 X106.733 Y-2.053
N1483 X106.584 Y-1.904
N1484 X106.448 Y-1.746
N1485 X106.324 Y-1.577
N1486 X106.212 Y-1.4
N1487 X106.114 Y-1.215
N1488 X106.031 Y-1.023
N1489 X105.961 Y-0.825
N1490 X105.907 Y-0.623
N1491 X105.868 Y-0.417
N1492 X105.845 Y-0.209
N1493 X105.837 Y0
N1494 Y30.519
N1495 X0
N1496 X-0.204 Y30.526
N1497 X-0.408 Y30.549
N1498 X-0.609 Y30.586
N1499 X-0.807 Y30.638
N1500 X-1.001 Y30.704
N1501 X-1.189 Y30.784
N1502 X-1.371 Y30.877
N1503 X-1.545 Y30.984
N1504 X-1.712 Y31.103
N1505 X-1.869 Y31.234
N1506 X-2.016 Y31.376
N1507 X-2.153 Y31.529
N1508 X-2.278 Y31.691
N1509 X-2.391 Y31.861
N1510 X-2.491 Y32.04
N1511 X-2.577 Y32.225
N1512 X-2.65 Y32.416
N1513 X-2.709 Y32.612
N1514 X-2.754 Y32.812
N1515 X-2.783 Y33.014
N1516 X-2.798 Y33.218
N1517 Y33.423
N1518 X-2.783 Y33.627
N1519 X-2.753 Y33.829
N1520 X-2.708 Y34.029
N1521 X-2.649 Y34.225
N1522 X-2.576 Y34.416
N1523 X-2.489 Y34.601
N1524 X-2.389 Y34.78
N1525 X62.431 Y140.788
N1526 X30.409
N1527 X30.204 Y140.795
N1528 X30.001 Y140.818
N1529 X29.799 Y140.855
N1530 X29.602 Y140.907
N1531 X29.408 Y140.973
N1532 X29.22 Y141.053
N1533 X29.038 Y141.147
N1534 X28.863 Y141.253
N1535 X28.697 Y141.372
N1536 X28.539 Y141.503
N1537 X28.392 Y141.645
N1538 X28.256 Y141.798
N1539 X28.131 Y141.96
N1540 X28.018 Y142.13
N1541 X27.918 Y142.309
N1542 X27.831 Y142.494
N1543 X27.758 Y142.685
N1544 X27.699 Y142.881
N1545 X27.655 Y143.081
N1546 X27.625 Y143.283
N1547 X27.61 Y143.487
N1548 Y143.692
N1549 X27.626 Y143.896
N1550 X27.655 Y144.099
N1551 X27.7 Y144.298
N1552 X27.759 Y144.494
N1553 X27.832 Y144.685
N1554 X27.919 Y144.87
N1555 X28.02 Y145.049
N1556 X91.762 Y249.294
N1557 X58.545
N1558 X58.34 Y249.301
N1559 X58.137 Y249.324
N1560 X57.936 Y249.361
N1561 X57.738 Y249.413
N1562 X57.544 Y249.479
N1563 X57.356 Y249.559
N1564 X57.174 Y249.653
N1565 X56.999 Y249.759
N1566 X56.833 Y249.878
N1567 X56.676 Y250.009
N1568 X56.528 Y250.151
N1569 X56.392 Y250.304
N1570 X56.267 Y250.466
N1571 X56.154 Y250.636
N1572 X56.054 Y250.815
N1573 X55.967 Y251
N1574 X55.894 Y251.191
N1575 X55.835 Y251.387
N1576 X55.791 Y251.587
N1577 X55.761 Y251.789
N1578 X55.747 Y251.993
N1579 Y252.198
N1580 X55.762 Y252.402
N1581 X55.792 Y252.605
N1582 X55.836 Y252.804
N1583 X55.895 Y253
N1584 X55.969 Y253.191
N1585 X56.056 Y253.376
N1586 X56.156 Y253.555
N1587 X122.142 Y361.469
N1588 X91.411
N1589 X91.207 Y361.476
N1590 X91.003 Y361.499
N1591 X90.801 Y361.536
N1592 X90.603 Y361.588
N1593 X90.409 Y361.655
N1594 X90.221 Y361.735
N1595 X90.038 Y361.829
N1596 X89.864 Y361.936
N1597 X89.697 Y362.055
N1598 X89.54 Y362.186
N1599 X89.392 Y362.329
N1600 X89.256 Y362.482
N1601 X89.131 Y362.644
N1602 X89.018 Y362.815
N1603 X88.918 Y362.994
N1604 X88.832 Y363.18
N1605 X88.759 Y363.372
N1606 X88.701 Y363.568
N1607 X88.657 Y363.768
N1608 X88.627 Y363.971
N1609 X88.613 Y364.176
N1610 X88.614 Y364.38
N1611 X88.629 Y364.585
N1612 X88.66 Y364.787
N1613 X88.705 Y364.987
N1614 X88.765 Y365.183
N1615 X88.839 Y365.374
N1616 X88.927 Y365.56
N1617 X143.956 Y471.501
N1618 X120.706
N1619 X120.501 Y471.509
N1620 X120.296 Y471.531
N1621 X120.094 Y471.569
N1622 X119.896 Y471.621
N1623 X119.701 Y471.687
N1624 X119.512 Y471.768
N1625 X119.33 Y471.863
N1626 X119.155 Y471.97
N1627 X118.988 Y472.09
N1628 X118.83 Y472.222
N1629 X118.683 Y472.365
N1630 X118.547 Y472.519
N1631 X118.422 Y472.682
N1632 X118.309 Y472.854
N1633 X118.209 Y473.033
N1634 X118.123 Y473.22
N1635 X118.051 Y473.412
N1636 X117.993 Y473.609
N1637 X117.949 Y473.81
N1638 X117.921 Y474.014
N1639 X117.907 Y474.219
N1640 X117.909 Y474.424
N1641 X117.925 Y474.629
N1642 X117.957 Y474.832
N1643 X118.003 Y475.032
N1644 X118.064 Y475.228
N1645 X118.139 Y475.42
N1646 X118.228 Y475.605
N1647 X118.33 Y475.783
N1648 X183.049 Y579.521
N1649 X183.167 Y579.695
N1650 X183.298 Y579.86
N1651 X183.44 Y580.014
N1652 X183.594 Y580.157
N1653 X183.758 Y580.289
N1654 X183.931 Y580.407
N1655 X184.113 Y580.512
N1656 X184.302 Y580.604
N1657 X184.497 Y580.681
N1658 X184.698 Y580.743
N1659 X184.903 Y580.79
N1660 X185.111 Y580.821
N1661 X185.32 Y580.837
N1662 X185.53
N1663 X185.739 Y580.821
N1664 X185.947 Y580.79
N1665 X186.152 Y580.743
N1666 X186.353 Y580.681
N1667 X186.548 Y580.604
N1668 X186.737 Y580.512
N1669 X186.919 Y580.407
N1670 X187.092 Y580.288
N1671 X187.256 Y580.157
N1672 X187.41 Y580.014
N1673 X187.552 Y579.86
N1674 X187.683 Y579.695
N1675 X187.801 Y579.521
N1676 X252.521 Y475.783
N1677 X252.623 Y475.605
N1678 X252.712 Y475.42
N1679 X252.787 Y475.228
N1680 X252.848 Y475.032
N1681 X252.894 Y474.832
N1682 X252.926 Y474.629
N1683 X252.942 Y474.424
N1684 X252.944 Y474.219
N1685 X252.93 Y474.014
N1686 X252.902 Y473.81
N1687 X252.858 Y473.609
N1688 X252.8 Y473.412
N1689 X252.728 Y473.22
N1690 X252.642 Y473.033
N1691 X252.542 Y472.854
N1692 X252.429 Y472.682
N1693 X252.304 Y472.519
N1694 X252.168 Y472.365
N1695 X252.021 Y472.222
N1696 X251.863 Y472.09
N1697 X251.696 Y471.97
N1698 X251.521 Y471.863
N1699 X251.339 Y471.768
N1700 X251.15 Y471.687
N1701 X250.955 Y471.621
N1702 X250.757 Y471.569
N1703 X250.555 Y471.531
N1704 X250.35 Y471.509
N1705 X250.145 Y471.501
N1706 X235.535
N1707 X226.895 Z8.943 F2500
N1708 X281.924 Y365.56 Z8.153
N1709 X282.012 Y365.374 Z8.152
N1710 X282.086 Y365.183 Z8.15
N1711 X282.145 Y364.987 Z8.149
N1712 X282.191 Y364.787 Z8.147
N1713 X282.221 Y364.585 Z8.146
N1714 X282.237 Y364.38 Z8.145
N1715 Y364.175 Z8.143
N1716 X282.223 Y363.971 Z8.142
N1717 X282.194 Y363.768 Z8.141
N1718 X282.15 Y363.568 Z8.139
N1719 X282.091 Y363.372 Z8.138
N1720 X282.019 Y363.18 Z8.137
N1721 X281.932 Y362.994 Z8.135
N1722 X281.832 Y362.815 Z8.134
N1723 X281.719 Y362.644 Z8.133
N1724 X281.594 Y362.482 Z8.131
N1725 X281.458 Y362.329 Z8.13
N1726 X281.311 Y362.186 Z8.129
N1727 X281.153 Y362.055 Z8.127
N1728 X280.987 Y361.936 Z8.126
N1729 X280.812 Y361.829 Z8.124
N1730 X280.63 Y361.735 Z8.123
N1731 X280.441 Y361.654 Z8.122
N1732 X280.247 Y361.588 Z8.12
N1733 X280.049 Y361.536 Z8.119
N1734 X279.848 Y361.499 Z8.118
N1735 X279.644 Y361.476 Z8.116
N1736 X279.439 Y361.469 Z8.115
N1737 X248.709 Z7.912
N1738 X314.695 Y253.555 Z7.075
N1739 X314.795 Y253.376 Z7.073
N1740 X314.882 Y253.191 Z7.072
N1741 X314.955 Y253 Z7.071
N1742 X315.014 Y252.804 Z7.069
N1743 X315.059 Y252.605 Z7.068
N1744 X315.089 Y252.402 Z7.067
N1745 X315.104 Y252.198 Z7.065
N1746 Y251.993 Z7.064
N1747 X315.089 Y251.789 Z7.062
N1748 X315.06 Y251.587 Z7.061
N1749 X315.015 Y251.387 Z7.06
N1750 X314.956 Y251.191 Z7.058
N1751 X314.883 Y251 Z7.057
N1752 X314.797 Y250.815 Z7.056
N1753 X314.697 Y250.636 Z7.054
N1754 X314.584 Y250.466 Z7.053
N1755 X314.459 Y250.304 Z7.052
N1756 X314.322 Y250.151 Z7.05
N1757 X314.175 Y250.009 Z7.049
N1758 X314.018 Y249.878 Z7.048
N1759 X313.851 Y249.759 Z7.046
N1760 X313.677 Y249.653 Z7.045
N1761 X313.495 Y249.559 Z7.044
N1762 X313.307 Y249.479 Z7.042
N1763 X313.113 Y249.413 Z7.041
N1764 X312.915 Y249.361 Z7.039
N1765 X312.714 Y249.324 Z7.038
N1766 X312.51 Y249.301 Z7.037
N1767 X312.306 Y249.294 Z7.035
N1768 X279.089 Z6.816
N1769 X342.831 Y145.049 Z6.007
N1770 X342.92 Y144.893 Z6.006
N1771 X342.998 Y144.731 Z6.005
N1772 X343.066 Y144.565 Z6.004
N1773 X343.123 Y144.395 Z6.002
N1774 X343.169 Y144.221 Z6.001
N1775 X343.204 Y144.045 Z6
N1776 X343.231 Y143.836 F2760
N1777 X343.242 Y143.625
N1778 X343.237 Y143.414
N1779 X343.215 Y143.204
N1780 X343.179 Y142.996
N1781 X343.126 Y142.791
N1782 X343.059 Y142.591
N1783 X342.976 Y142.397
N1784 X342.879 Y142.209
N1785 X342.768 Y142.03
N1786 X342.644 Y141.859
N1787 X342.508 Y141.698
N1788 X342.359 Y141.547
N1789 X342.2 Y141.409
N1790 X342.031 Y141.282
N1791 X341.853 Y141.169
N1792 X341.666 Y141.07
N1793 X341.473 Y140.985
N1794 X341.274 Y140.914
N1795 X341.07 Y140.859
N1796 X340.863 Y140.82
N1797 X340.653 Y140.796
N1798 X340.442 Y140.788
N1799 X308.419
N1800 X373.24 Y34.78
N1801 X373.34 Y34.601
N1802 X373.427 Y34.416
N1803 X373.5 Y34.225
N1804 X373.559 Y34.029
N1805 X373.604 Y33.829
N1806 X373.634 Y33.627
N1807 X373.649 Y33.423
N1808 Y33.218
N1809 X373.634 Y33.014
N1810 X373.605 Y32.812
N1811 X373.56 Y32.612
N1812 X373.501 Y32.416
N1813 X373.428 Y32.225
N1814 X373.342 Y32.04
N1815 X373.242 Y31.861
N1816 X373.129 Y31.691
N1817 X373.004 Y31.529
N1818 X372.867 Y31.376
N1819 X372.72 Y31.234
N1820 X372.563 Y31.103
N1821 X372.397 Y30.984
N1822 X372.222 Y30.877
N1823 X372.04 Y30.784
N1824 X371.852 Y30.704
N1825 X371.658 Y30.638
N1826 X371.46 Y30.586
N1827 X371.259 Y30.549
N1828 X371.055 Y30.526
N1829 X370.851 Y30.519
N1830 X265.014
N1831 Y0
N1832 X265.006 Y-0.209
N1833 X264.983 Y-0.417
N1834 X264.944 Y-0.623
N1835 X264.89 Y-0.825
N1836 X264.82 Y-1.023
N1837 X264.737 Y-1.215
N1838 X264.639 Y-1.4
N1839 X264.527 Y-1.577
N1840 X264.403 Y-1.746
N1841 X264.267 Y-1.904
N1842 X264.118 Y-2.053
N1843 X263.96 Y-2.189
N1844 X263.791 Y-2.313
N1845 X263.614 Y-2.425
N1846 X263.429 Y-2.523
N1847 X263.237 Y-2.606
N1848 X263.039 Y-2.676
N1849 X262.837 Y-2.73
N1850 X262.631 Y-2.769
N1851 X262.423 Y-2.792
N1852 X262.214 Y-2.8
N1853 X194.425
N1854 X194.216 Y-2.792
N1855 X194.008 Y-2.769
N1856 X193.802 Y-2.73
N1857 X193.6 Y-2.676
N1858 X193.402 Y-2.606
N1859 X193.21 Y-2.523
N1860 X193.025 Y-2.425
N1861 X192.848 Y-2.313
N1862 X192.679 Y-2.189
N1863 X192.521 Y-2.053
N1864 X192.372 Y-1.904
N1865 X192.236 Y-1.746
N1866 X192.112 Y-1.577
N1867 X192 Y-1.4
N1868 X191.902 Y-1.215
N1869 X191.819 Y-1.023
N1870 X191.749 Y-0.825
N1871 X191.695 Y-0.623
N1872 X191.656 Y-0.417
N1873 X191.633 Y-0.209
N1874 X191.625 Y0
N1875 Y295.757
N1876 X191.632 Y295.957
N1877 X191.654 Y296.156
N1878 X191.689 Y296.352
N1879 X191.739 Y296.546
N1880 X191.802 Y296.736
N1881 X191.878 Y296.921
N1882 X191.968 Y297.099
N1883 X192.07 Y297.271
N1884 X192.184 Y297.435
N1885 X192.309 Y297.591
N1886 X192.446 Y297.737
N1887 X192.477 Y297.779
N1888 X192.497 Y297.827
N1889 X192.504 Y297.879
N1890 X192.497 Y297.931
N1891 X192.477 Y297.979
N1892 X192.446 Y298.02
N1893 X192.404 Y298.052
N1894 X192.356 Y298.072
N1895 X192.304 Y298.079
N1896 X192.253 Y298.072
N1897 X192.204 Y298.052
N1898 X192.163 Y298.02
N1899 X192.017 Y297.884
N1900 X191.861 Y297.759
N1901 X191.697 Y297.645
N1902 X191.525 Y297.543
N1903 X191.346 Y297.453
N1904 X191.162 Y297.377
N1905 X190.972 Y297.313
N1906 X190.778 Y297.264
N1907 X190.582 Y297.229
N1908 X190.383 Y297.207
N1909 X190.183 Y297.2
N1910 X180.668
N1911 X180.468 Y297.207
N1912 X180.27 Y297.228
N1913 X180.073 Y297.264
N1914 X179.879 Y297.313
N1915 X179.69 Y297.376
N1916 X179.505 Y297.453
N1917 X179.326 Y297.542
N1918 X179.155 Y297.644
N1919 X178.99 Y297.758
N1920 X178.835 Y297.883
N1921 X178.689 Y298.02
N1922 X178.647 Y298.051
N1923 X178.599 Y298.071
N1924 X178.547 Y298.078
N1925 X178.495 Y298.071
N1926 X178.447 Y298.051
N1927 X178.405 Y298.02
N1928 X178.374 Y297.978
N1929 X178.354 Y297.93
N1930 X178.347 Y297.878
N1931 X178.354 Y297.826
N1932 X178.374 Y297.778
N1933 X178.405 Y297.736
N1934 X178.541 Y297.59
N1935 X178.667 Y297.435
N1936 X178.781 Y297.27
N1937 X178.883 Y297.099
N1938 X178.972 Y296.92
N1939 X179.049 Y296.735
N1940 X179.112 Y296.546
N1941 X179.161 Y296.352
N1942 X179.197 Y296.155
N1943 X179.218 Y295.957
N1944 X179.225 Y295.757
N1945 Y0
N1946 X179.217 Y-0.209
N1947 X179.194 Y-0.417
N1948 X179.155 Y-0.623
N1949 X179.101 Y-0.825
N1950 X179.031 Y-1.023
N1951 X178.948 Y-1.215
N1952 X178.85 Y-1.4
N1953 X178.738 Y-1.577
N1954 X178.614 Y-1.746
N1955 X178.478 Y-1.904
N1956 X178.329 Y-2.053
N1957 X178.171 Y-2.189
N1958 X178.002 Y-2.313
N1959 X177.825 Y-2.425
N1960 X177.64 Y-2.523
N1961 X177.448 Y-2.606
N1962 X177.25 Y-2.676
N1963 X177.048 Y-2.73
N1964 X176.842 Y-2.769
N1965 X176.634 Y-2.792
N1966 X176.425 Y-2.8
N1967 X108.637
N1968 X108.428 Y-2.792
N1969 X108.22 Y-2.769
N1970 X108.014 Y-2.73
N1971 X107.812 Y-2.676
N1972 X107.614 Y-2.606
N1973 X107.422 Y-2.523
N1974 X107.237 Y-2.425
N1975 X107.06 Y-2.313
N1976 X106.891 Y-2.189
N1977 X106.733 Y-2.053
N1978 X106.584 Y-1.904
N1979 X106.448 Y-1.746
N1980 X106.324 Y-1.577
N1981 X106.212 Y-1.4
N1982 X106.114 Y-1.215
N1983 X106.031 Y-1.023
N1984 X105.961 Y-0.825
N1985 X105.907 Y-0.623
N1986 X105.868 Y-0.417
N1987 X105.845 Y-0.209
N1988 X105.837 Y0
N1989 Y30.519
N1990 X0
N1991 X-0.204 Y30.526
N1992 X-0.408 Y30.549
N1993 X-0.609 Y30.586
N1994 X-0.807 Y30.638
N1995 X-1.001 Y30.704
N1996 X-1.189 Y30.784
N1997 X-1.371 Y30.877
N1998 X-1.545 Y30.984
N1999 X-1.712 Y31.103
N2000 X-1.869 Y31.234
N2001 X-2.016 Y31.376
N2002 X-2.153 Y31.529
N2003 X-2.278 Y31.691
N2004 X-2.391 Y31.861
N2005 X-2.491 Y32.04
N2006 X-2.577 Y32.225
N2007 X-2.65 Y32.416
N2008 X-2.709 Y32.612
N2009 X-2.754 Y32.812
N2010 X-2.783 Y33.014
N2011 X-2.798 Y33.218
N2012 Y33.423
N2013 X-2.783 Y33.627
N2014 X-2.753 Y33.829
N2015 X-2.708 Y34.029
N2016 X-2.649 Y34.225
N2017 X-2.576 Y34.416
N2018 X-2.489 Y34.601
N2019 X-2.389 Y34.78
N2020 X62.431 Y140.788
N2021 X30.409
N2022 X30.204 Y140.795
N2023 X30.001 Y140.818
N2024 X29.799 Y140.855
N2025 X29.602 Y140.907
N2026 X29.408 Y140.973
N2027 X29.22 Y141.053
N2028 X29.038 Y141.147
N2029 X28.863 Y141.253
N2030 X28.697 Y141.372
N2031 X28.539 Y141.503
N2032 X28.392 Y141.645
N2033 X28.256 Y141.798
N2034 X28.131 Y141.96
N2035 X28.018 Y142.13
N2036 X27.918 Y142.309
N2037 X27.831 Y142.494
N2038 X27.758 Y142.685
N2039 X27.699 Y142.881
N2040 X27.655 Y143.081
N2041 X27.625 Y143.283
N2042 X27.61 Y143.487
N2043 Y143.692
N2044 X27.626 Y143.896
N2045 X27.655 Y144.099
N2046 X27.7 Y144.298
N2047 X27.759 Y144.494
N2048 X27.832 Y144.685
N2049 X27.919 Y144.87
N2050 X28.02 Y145.049
N2051 X91.762 Y249.294
N2052 X58.545
N2053 X58.34 Y249.301
N2054 X58.137 Y249.324
N2055 X57.936 Y249.361
N2056 X57.738 Y249.413
N2057 X57.544 Y249.479
N2058 X57.356 Y249.559
N2059 X57.174 Y249.653
N2060 X56.999 Y249.759
N2061 X56.833 Y249.878
N2062 X56.676 Y250.009
N2063 X56.528 Y250.151
N2064 X56.392 Y250.304
N2065 X56.267 Y250.466
N2066 X56.154 Y250.636
N2067 X56.054 Y250.815
N2068 X55.967 Y251
N2069 X55.894 Y251.191
N2070 X55.835 Y251.387
N2071 X55.791 Y251.587
N2072 X55.761 Y251.789
N2073 X55.747 Y251.993
N2074 Y252.198
N2075 X55.762 Y252.402
N2076 X55.792 Y252.605
N2077 X55.836 Y252.804
N2078 X55.895 Y253
N2079 X55.969 Y253.191
N2080 X56.056 Y253.376
N2081 X56.156 Y253.555
N2082 X122.142 Y361.469
N2083 X91.411
N2084 X91.207 Y361.476
N2085 X91.003 Y361.499
N2086 X90.801 Y361.536
N2087 X90.603 Y361.588
N2088 X90.409 Y361.655
N2089 X90.221 Y361.735
N2090 X90.038 Y361.829
N2091 X89.864 Y361.936
N2092 X89.697 Y362.055
N2093 X89.54 Y362.186
N2094 X89.392 Y362.329
N2095 X89.256 Y362.482
N2096 X89.131 Y362.644
N2097 X89.018 Y362.815
N2098 X88.918 Y362.994
N2099 X88.832 Y363.18
N2100 X88.759 Y363.372
N2101 X88.701 Y363.568
N2102 X88.657 Y363.768
N2103 X88.627 Y363.971
N2104 X88.613 Y364.176
N2105 X88.614 Y364.38
N2106 X88.629 Y364.585
N2107 X88.66 Y364.787
N2108 X88.705 Y364.987
N2109 X88.765 Y365.183
N2110 X88.839 Y365.374
N2111 X88.927 Y365.56
N2112 X143.956 Y471.501
N2113 X120.706
N2114 X120.501 Y471.509
N2115 X120.296 Y471.531
N2116 X120.094 Y471.569
N2117 X119.896 Y471.621
N2118 X119.701 Y471.687
N2119 X119.512 Y471.768
N2120 X119.33 Y471.863
N2121 X119.155 Y471.97
N2122 X118.988 Y472.09
N2123 X118.83 Y472.222
N2124 X118.683 Y472.365
N2125 X118.547 Y472.519
N2126 X118.422 Y472.682
N2127 X118.309 Y472.854
N2128 X118.209 Y473.033
N2129 X118.123 Y473.22
N2130 X118.051 Y473.412
N2131 X117.993 Y473.609
N2132 X117.949 Y473.81
N2133 X117.921 Y474.014
N2134 X117.907 Y474.219
N2135 X117.909 Y474.424
N2136 X117.925 Y474.629
N2137 X117.957 Y474.832
N2138 X118.003 Y475.032
N2139 X118.064 Y475.228
N2140 X118.139 Y475.42
N2141 X118.228 Y475.605
N2142 X118.33 Y475.783
N2143 X183.049 Y579.521
N2144 X183.167 Y579.695
N2145 X183.298 Y579.86
N2146 X183.44 Y580.014
N2147 X183.594 Y580.157
N2148 X183.758 Y580.289
N2149 X183.931 Y580.407
N2150 X184.113 Y580.512
N2151 X184.302 Y580.604
N2152 X184.497 Y580.681
N2153 X184.698 Y580.743
N2154 X184.903 Y580.79
N2155 X185.111 Y580.821
N2156 X185.32 Y580.837
N2157 X185.53
N2158 X185.739 Y580.821
N2159 X185.947 Y580.79
N2160 X186.152 Y580.743
N2161 X186.353 Y580.681
N2162 X186.548 Y580.604
N2163 X186.737 Y580.512
N2164 X186.919 Y580.407
N2165 X187.092 Y580.288
N2166 X187.256 Y580.157
N2167 X187.41 Y580.014
N2168 X187.552 Y579.86
N2169 X187.683 Y579.695
N2170 X187.801 Y579.521
N2171 X252.521 Y475.783
N2172 X252.623 Y475.605
N2173 X252.712 Y475.42
N2174 X252.787 Y475.228
N2175 X252.848 Y475.032
N2176 X252.894 Y474.832
N2177 X252.926 Y474.629
N2178 X252.942 Y474.424
N2179 X252.944 Y474.219
N2180 X252.93 Y474.014
N2181 X252.902 Y473.81
N2182 X252.858 Y473.609
N2183 X252.8 Y473.412
N2184 X252.728 Y473.22
N2185 X252.642 Y473.033
N2186 X252.542 Y472.854
N2187 X252.429 Y472.682
N2188 X252.304 Y472.519
N2189 X252.168 Y472.365
N2190 X252.021 Y472.222
N2191 X251.863 Y472.09
N2192 X251.696 Y471.97
N2193 X251.521 Y471.863
N2194 X251.339 Y471.768
N2195 X251.15 Y471.687
N2196 X250.955 Y471.621
N2197 X250.757 Y471.569
N2198 X250.555 Y471.531
N2199 X250.35 Y471.509
N2200 X250.145 Y471.501
N2201 X235.535
N2202 X226.895
N2203 X281.924 Y365.56
N2204 X282.012 Y365.374
N2205 X282.086 Y365.183
N2206 X282.145 Y364.987
N2207 X282.191 Y364.787
N2208 X282.221 Y364.585
N2209 X282.237 Y364.38
N2210 Y364.175
N2211 X282.223 Y363.971
N2212 X282.194 Y363.768
N2213 X282.15 Y363.568
N2214 X282.091 Y363.372
N2215 X282.019 Y363.18
N2216 X281.932 Y362.994
N2217 X281.832 Y362.815
N2218 X281.719 Y362.644
N2219 X281.594 Y362.482
N2220 X281.458 Y362.329
N2221 X281.311 Y362.186
N2222 X281.153 Y362.055
N2223 X280.987 Y361.936
N2224 X280.812 Y361.829
N2225 X280.63 Y361.735
N2226 X280.441 Y361.654
N2227 X280.247 Y361.588
N2228 X280.049 Y361.536
N2229 X279.848 Y361.499
N2230 X279.644 Y361.476
N2231 X279.439 Y361.469
N2232 X248.709
N2233 X314.695 Y253.555
N2234 X314.795 Y253.376
N2235 X314.882 Y253.191
N2236 X314.955 Y253
N2237 X315.014 Y252.804
N2238 X315.059 Y252.605
N2239 X315.089 Y252.402
N2240 X315.104 Y252.198
N2241 Y251.993
N2242 X315.089 Y251.789
N2243 X315.06 Y251.587
N2244 X315.015 Y251.387
N2245 X314.956 Y251.191
N2246 X314.883 Y251
N2247 X314.797 Y250.815
N2248 X314.697 Y250.636
N2249 X314.584 Y250.466
N2250 X314.459 Y250.304
N2251 X314.322 Y250.151
N2252 X314.175 Y250.009
N2253 X314.018 Y249.878
N2254 X313.851 Y249.759
N2255 X313.677 Y249.653
N2256 X313.495 Y249.559
N2257 X313.307 Y249.479
N2258 X313.113 Y249.413
N2259 X312.915 Y249.361
N2260 X312.714 Y249.324
N2261 X312.51 Y249.301
N2262 X312.306 Y249.294
N2263 X279.089
N2264 X342.831 Y145.049
N2265 X342.92 Y144.893
N2266 X342.998 Y144.731
N2267 X343.066 Y144.565
N2268 X343.123 Y144.395
N2269 X343.169 Y144.221
N2270 X343.204 Y144.045
N2271 X343.231 Y143.836 Z5.999 F2500
N2272 X343.242 Y143.625 Z5.997
N2273 X343.237 Y143.414 Z5.996
N2274 X343.215 Y143.204 Z5.994
N2275 X343.179 Y142.996 Z5.993
N2276 X343.126 Y142.791 Z5.992
N2277 X343.059 Y142.591 Z5.99
N2278 X342.976 Y142.397 Z5.989
N2279 X342.879 Y142.209 Z5.987
N2280 X342.768 Y142.03 Z5.986
N2281 X342.644 Y141.859 Z5.985
N2282 X342.508 Y141.698 Z5.983
N2283 X342.359 Y141.547 Z5.982
N2284 X342.2 Y141.409 Z5.98
N2285 X342.031 Y141.282 Z5.979
N2286 X341.853 Y141.169 Z5.978
N2287 X341.666 Y141.07 Z5.976
N2288 X341.473 Y140.985 Z5.975
N2289 X341.274 Y140.914 Z5.973
N2290 X341.07 Y140.859 Z5.972
N2291 X340.863 Y140.82 Z5.971
N2292 X340.653 Y140.796 Z5.969
N2293 X340.442 Y140.788 Z5.968
N2294 X308.419 Z5.756
N2295 X373.24 Y34.78 Z4.934
N2296 X373.34 Y34.601 Z4.932
N2297 X373.427 Y34.416 Z4.931
N2298 X373.5 Y34.225 Z4.93
N2299 X373.559 Y34.029 Z4.928
N2300 X373.604 Y33.829 Z4.927
N2301 X373.634 Y33.627 Z4.926
N2302 X373.649 Y33.423 Z4.924
N2303 Y33.218 Z4.923
N2304 X373.634 Y33.014 Z4.922
N2305 X373.605 Y32.812 Z4.92
N2306 X373.56 Y32.612 Z4.919
N2307 X373.501 Y32.416 Z4.918
N2308 X373.428 Y32.225 Z4.916
N2309 X373.342 Y32.04 Z4.915
N2310 X373.242 Y31.861 Z4.914
N2311 X373.129 Y31.691 Z4.912
N2312 X373.004 Y31.529 Z4.911
N2313 X372.867 Y31.376 Z4.909
N2314 X372.72 Y31.234 Z4.908
N2315 X372.563 Y31.103 Z4.907
N2316 X372.397 Y30.984 Z4.905
N2317 X372.222 Y30.877 Z4.904
N2318 X372.04 Y30.784 Z4.903
N2319 X371.852 Y30.704 Z4.901
N2320 X371.658 Y30.638 Z4.9
N2321 X371.46 Y30.586 Z4.899
N2322 X371.259 Y30.549 Z4.897
N2323 X371.055 Y30.526 Z4.896
N2324 X370.851 Y30.519 Z4.895
N2325 X265.014 Z4.194
N2326 Y0 Z3.992
N2327 X265.006 Y-0.209 Z3.991
N2328 X264.983 Y-0.417 Z3.99
N2329 X264.944 Y-0.623 Z3.988
N2330 X264.89 Y-0.825 Z3.987
N2331 X264.82 Y-1.023 Z3.985
N2332 X264.737 Y-1.215 Z3.984
N2333 X264.639 Y-1.4 Z3.983
N2334 X264.527 Y-1.577 Z3.981
N2335 X264.403 Y-1.746 Z3.98
N2336 X264.267 Y-1.904 Z3.978
N2337 X264.118 Y-2.053 Z3.977
N2338 X263.96 Y-2.189 Z3.976
N2339 X263.791 Y-2.313 Z3.974
N2340 X263.614 Y-2.425 Z3.973
N2341 X263.429 Y-2.523 Z3.972
N2342 X263.237 Y-2.606 Z3.97
N2343 X263.039 Y-2.676 Z3.969
N2344 X262.837 Y-2.73 Z3.967
N2345 X262.631 Y-2.769 Z3.966
N2346 X262.423 Y-2.792 Z3.965
N2347 X262.214 Y-2.8 Z3.963
N2348 X194.425 Z3.515
N2349 X194.216 Y-2.792 Z3.513
N2350 X194.008 Y-2.769 Z3.512
N2351 X193.802 Y-2.73 Z3.511
N2352 X193.6 Y-2.676 Z3.509
N2353 X193.402 Y-2.606 Z3.508
N2354 X193.21 Y-2.523 Z3.506
N2355 X193.025 Y-2.425 Z3.505
N2356 X192.848 Y-2.313 Z3.504
N2357 X192.679 Y-2.189 Z3.502
N2358 X192.521 Y-2.053 Z3.501
N2359 X192.372 Y-1.904 Z3.499
N2360 X192.236 Y-1.746 Z3.498
N2361 X192.112 Y-1.577 Z3.497
N2362 X192 Y-1.4 Z3.495
N2363 X191.902 Y-1.215 Z3.494
N2364 X191.819 Y-1.023 Z3.493
N2365 X191.749 Y-0.825 Z3.491
N2366 X191.695 Y-0.623 Z3.49
N2367 X191.656 Y-0.417 Z3.488
N2368 X191.633 Y-0.209 Z3.487
N2369 X191.625 Y0 Z3.486
N2370 Y73.386 Z3
N2371 Y295.757 F2760
N2372 X191.632 Y295.957
N2373 X191.654 Y296.156
N2374 X191.689 Y296.352
N2375 X191.739 Y296.546
N2376 X191.802 Y296.736
N2377 X191.878 Y296.921
N2378 X191.968 Y297.099
N2379 X192.07 Y297.271
N2380 X192.184 Y297.435
N2381 X192.309 Y297.591
N2382 X192.446 Y297.737
N2383 X192.477 Y297.779
N2384 X192.497 Y297.827
N2385 X192.504 Y297.879
N2386 X192.497 Y297.931
N2387 X192.477 Y297.979
N2388 X192.446 Y298.02
N2389 X192.404 Y298.052
N2390 X192.356 Y298.072
N2391 X192.304 Y298.079
N2392 X192.253 Y298.072
N2393 X192.204 Y298.052
N2394 X192.163 Y298.02
N2395 X192.017 Y297.884
N2396 X191.861 Y297.759
N2397 X191.697 Y297.645
N2398 X191.525 Y297.543
N2399 X191.346 Y297.453
N2400 X191.162 Y297.377
N2401 X190.972 Y297.313
N2402 X190.778 Y297.264
N2403 X190.582 Y297.229
N2404 X190.383 Y297.207
N2405 X190.183 Y297.2
N2406 X180.668
N2407 X180.468 Y297.207
N2408 X180.27 Y297.228
N2409 X180.073 Y297.264
N2410 X179.879 Y297.313
N2411 X179.69 Y297.376
N2412 X179.505 Y297.453
N2413 X179.326 Y297.542
N2414 X179.155 Y297.644
N2415 X178.99 Y297.758
N2416 X178.835 Y297.883
N2417 X178.689 Y298.02
N2418 X178.647 Y298.051
N2419 X178.599 Y298.071
N2420 X178.547 Y298.078
N2421 X178.495 Y298.071
N2422 X178.447 Y298.051
N2423 X178.405 Y298.02
N2424 X178.374 Y297.978
N2425 X178.354 Y297.93
N2426 X178.347 Y297.878
N2427 X178.354 Y297.826
N2428 X178.374 Y297.778
N2429 X178.405 Y297.736
N2430 X178.541 Y297.59
N2431 X178.667 Y297.435
N2432 X178.781 Y297.27
N2433 X178.883 Y297.099
N2434 X178.972 Y296.92
N2435 X179.049 Y296.735
N2436 X179.112 Y296.546
N2437 X179.161 Y296.352
N2438 X179.197 Y296.155
N2439 X179.218 Y295.957
N2440 X179.225 Y295.757
N2441 Y0
N2442 X179.217 Y-0.209
N2443 X179.194 Y-0.417
N2444 X179.155 Y-0.623
N2445 X179.101 Y-0.825
N2446 X179.031 Y-1.023
N2447 X178.948 Y-1.215
N2448 X178.85 Y-1.4
N2449 X178.738 Y-1.577
N2450 X178.614 Y-1.746
N2451 X178.478 Y-1.904
N2452 X178.329 Y-2.053
N2453 X178.171 Y-2.189
N2454 X178.002 Y-2.313
N2455 X177.825 Y-2.425
N2456 X177.64 Y-2.523
N2457 X177.448 Y-2.606
N2458 X177.25 Y-2.676
N2459 X177.048 Y-2.73
N2460 X176.842 Y-2.769
N2461 X176.634 Y-2.792
N2462 X176.425 Y-2.8
N2463 X108.637
N2464 X108.428 Y-2.792
N2465 X108.22 Y-2.769
N2466 X108.014 Y-2.73
N2467 X107.812 Y-2.676
N2468 X107.614 Y-2.606
N2469 X107.422 Y-2.523
N2470 X107.237 Y-2.425
N2471 X107.06 Y-2.313
N2472 X106.891 Y-2.189
N2473 X106.733 Y-2.053
N2474 X106.584 Y-1.904
N2475 X106.448 Y-1.746
N2476 X106.324 Y-1.577
N2477 X106.212 Y-1.4
N2478 X106.114 Y-1.215
N2479 X106.031 Y-1.023
N2480 X105.961 Y-0.825
N2481 X105.907 Y-0.623
N2482 X105.868 Y-0.417
N2483 X105.845 Y-0.209
N2484 X105.837 Y0
N2485 Y30.519
N2486 X0
N2487 X-0.204 Y30.526
N2488 X-0.408 Y30.549
N2489 X-0.609 Y30.586
N2490 X-0.807 Y30.638
N2491 X-1.001 Y30.704
N2492 X-1.189 Y30.784
N2493 X-1.371 Y30.877
N2494 X-1.545 Y30.984
N2495 X-1.712 Y31.103
N2496 X-1.869 Y31.234
N2497 X-2.016 Y31.376
N2498 X-2.153 Y31.529
N2499 X-2.278 Y31.691
N2500 X-2.391 Y31.861
N2501 X-2.491 Y32.04
N2502 X-2.577 Y32.225
N2503 X-2.65 Y32.416
N2504 X-2.709 Y32.612
N2505 X-2.754 Y32.812
N2506 X-2.783 Y33.014
N2507 X-2.798 Y33.218
N2508 Y33.423
N2509 X-2.783 Y33.627
N2510 X-2.753 Y33.829
N2511 X-2.708 Y34.029
N2512 X-2.649 Y34.225
N2513 X-2.576 Y34.416
N2514 X-2.489 Y34.601
N2515 X-2.389 Y34.78
N2516 X62.431 Y140.788
N2517 X30.409
N2518 X30.204 Y140.795
N2519 X30.001 Y140.818
N2520 X29.799 Y140.855
N2521 X29.602 Y140.907
N2522 X29.408 Y140.973
N2523 X29.22 Y141.053
N2524 X29.038 Y141.147
N2525 X28.863 Y141.253
N2526 X28.697 Y141.372
N2527 X28.539 Y141.503
N2528 X28.392 Y141.645
N2529 X28.256 Y141.798
N2530 X28.131 Y141.96
N2531 X28.018 Y142.13
N2532 X27.918 Y142.309
N2533 X27.831 Y142.494
N2534 X27.758 Y142.685
N2535 X27.699 Y142.881
N2536 X27.655 Y143.081
N2537 X27.625 Y143.283
N2538 X27.61 Y143.487
N2539 Y143.692
N2540 X27.626 Y143.896
N2541 X27.655 Y144.099
N2542 X27.7 Y144.298
N2543 X27.759 Y144.494
N2544 X27.832 Y144.685
N2545 X27.919 Y144.87
N2546 X28.02 Y145.049
N2547 X91.762 Y249.294
N2548 X58.545
N2549 X58.34 Y249.301
N2550 X58.137 Y249.324
N2551 X57.936 Y249.361
N2552 X57.738 Y249.413
N2553 X57.544 Y249.479
N2554 X57.356 Y249.559
N2555 X57.174 Y249.653
N2556 X56.999 Y249.759
N2557 X56.833 Y249.878
N2558 X56.676 Y250.009
N2559 X56.528 Y250.151
N2560 X56.392 Y250.304
N2561 X56.267 Y250.466
N2562 X56.154 Y250.636
N2563 X56.054 Y250.815
N2564 X55.967 Y251
N2565 X55.894 Y251.191
N2566 X55.835 Y251.387
N2567 X55.791 Y251.587
N2568 X55.761 Y251.789
N2569 X55.747 Y251.993
N2570 Y252.198
N2571 X55.762 Y252.402
N2572 X55.792 Y252.605
N2573 X55.836 Y252.804
N2574 X55.895 Y253
N2575 X55.969 Y253.191
N2576 X56.056 Y253.376
N2577 X56.156 Y253.555
N2578 X122.142 Y361.469
N2579 X91.411
N2580 X91.207 Y361.476
N2581 X91.003 Y361.499
N2582 X90.801 Y361.536
N2583 X90.603 Y361.588
N2584 X90.409 Y361.655
N2585 X90.221 Y361.735
N2586 X90.038 Y361.829
N2587 X89.864 Y361.936
N2588 X89.697 Y362.055
N2589 X89.54 Y362.186
N2590 X89.392 Y362.329
N2591 X89.256 Y362.482
N2592 X89.131 Y362.644
N2593 X89.018 Y362.815
N2594 X88.918 Y362.994
N2595 X88.832 Y363.18
N2596 X88.759 Y363.372
N2597 X88.701 Y363.568
N2598 X88.657 Y363.768
N2599 X88.627 Y363.971
N2600 X88.613 Y364.176
N2601 X88.614 Y364.38
N2602 X88.629 Y364.585
N2603 X88.66 Y364.787
N2604 X88.705 Y364.987
N2605 X88.765 Y365.183
N2606 X88.839 Y365.374
N2607 X88.927 Y365.56
N2608 X143.956 Y471.501
N2609 X120.706
N2610 X120.501 Y471.509
N2611 X120.296 Y471.531
N2612 X120.094 Y471.569
N2613 X119.896 Y471.621
N2614 X119.701 Y471.687
N2615 X119.512 Y471.768
N2616 X119.33 Y471.863
N2617 X119.155 Y471.97
N2618 X118.988 Y472.09
N2619 X118.83 Y472.222
N2620 X118.683 Y472.365
N2621 X118.547 Y472.519
N2622 X118.422 Y472.682
N2623 X118.309 Y472.854
N2624 X118.209 Y473.033
N2625 X118.123 Y473.22
N2626 X118.051 Y473.412
N2627 X117.993 Y473.609
N2628 X117.949 Y473.81
N2629 X117.921 Y474.014
N2630 X117.907 Y474.219
N2631 X117.909 Y474.424
N2632 X117.925 Y474.629
N2633 X117.957 Y474.832
N2634 X118.003 Y475.032
N2635 X118.064 Y475.228
N2636 X118.139 Y475.42
N2637 X118.228 Y475.605
N2638 X118.33 Y475.783
N2639 X183.049 Y579.521
N2640 X183.167 Y579.695
N2641 X183.298 Y579.86
N2642 X183.44 Y580.014
N2643 X183.594 Y580.157
N2644 X183.758 Y580.289
N2645 X183.931 Y580.407
N2646 X184.113 Y580.512
N2647 X184.302 Y580.604
N2648 X184.497 Y580.681
N2649 X184.698 Y580.743
N2650 X184.903 Y580.79
N2651 X185.111 Y580.821
N2652 X185.32 Y580.837
N2653 X185.53
N2654 X185.739 Y580.821
N2655 X185.947 Y580.79
N2656 X186.152 Y580.743
N2657 X186.353 Y580.681
N2658 X186.548 Y580.604
N2659 X186.737 Y580.512
N2660 X186.919 Y580.407
N2661 X187.092 Y580.288
N2662 X187.256 Y580.157
N2663 X187.41 Y580.014
N2664 X187.552 Y579.86
N2665 X187.683 Y579.695
N2666 X187.801 Y579.521
N2667 X252.521 Y475.783
N2668 X252.623 Y475.605
N2669 X252.712 Y475.42
N2670 X252.787 Y475.228
N2671 X252.848 Y475.032
N2672 X252.894 Y474.832
N2673 X252.926 Y474.629
N2674 X252.942 Y474.424
N2675 X252.944 Y474.219
N2676 X252.93 Y474.014
N2677 X252.902 Y473.81
N2678 X252.858 Y473.609
N2679 X252.8 Y473.412
N2680 X252.728 Y473.22
N2681 X252.642 Y473.033
N2682 X252.542 Y472.854
N2683 X252.429 Y472.682
N2684 X252.304 Y472.519
N2685 X252.168 Y472.365
N2686 X252.021 Y472.222
N2687 X251.863 Y472.09
N2688 X251.696 Y471.97
N2689 X251.521 Y471.863
N2690 X251.339 Y471.768
N2691 X251.15 Y471.687
N2692 X250.955 Y471.621
N2693 X250.757 Y471.569
N2694 X250.555 Y471.531
N2695 X250.35 Y471.509
N2696 X250.145 Y471.501
N2697 X226.895
N2698 X281.924 Y365.56
N2699 X282.012 Y365.374
N2700 X282.086 Y365.183
N2701 X282.145 Y364.987
N2702 X282.191 Y364.787
N2703 X282.221 Y364.585
N2704 X282.237 Y364.38
N2705 Y364.175
N2706 X282.223 Y363.971
N2707 X282.194 Y363.768
N2708 X282.15 Y363.568
N2709 X282.091 Y363.372
N2710 X282.019 Y363.18
N2711 X281.932 Y362.994
N2712 X281.832 Y362.815
N2713 X281.719 Y362.644
N2714 X281.594 Y362.482
N2715 X281.458 Y362.329
N2716 X281.311 Y362.186
N2717 X281.153 Y362.055
N2718 X280.987 Y361.936
N2719 X280.812 Y361.829
N2720 X280.63 Y361.735
N2721 X280.441 Y361.654
N2722 X280.247 Y361.588
N2723 X280.049 Y361.536
N2724 X279.848 Y361.499
N2725 X279.644 Y361.476
N2726 X279.439 Y361.469
N2727 X248.709
N2728 X314.695 Y253.555
N2729 X314.795 Y253.376
N2730 X314.882 Y253.191
N2731 X314.955 Y253
N2732 X315.014 Y252.804
N2733 X315.059 Y252.605
N2734 X315.089 Y252.402
N2735 X315.104 Y252.198
N2736 Y251.993
N2737 X315.089 Y251.789
N2738 X315.06 Y251.587
N2739 X315.015 Y251.387
N2740 X314.956 Y251.191
N2741 X314.883 Y251
N2742 X314.797 Y250.815
N2743 X314.697 Y250.636
N2744 X314.584 Y250.466
N2745 X314.459 Y250.304
N2746 X314.322 Y250.151
N2747 X314.175 Y250.009
N2748 X314.018 Y249.878
N2749 X313.851 Y249.759
N2750 X313.677 Y249.653
N2751 X313.495 Y249.559
N2752 X313.307 Y249.479
N2753 X313.113 Y249.413
N2754 X312.915 Y249.361
N2755 X312.714 Y249.324
N2756 X312.51 Y249.301
N2757 X312.306 Y249.294
N2758 X279.089
N2759 X342.831 Y145.049
N2760 X342.931 Y144.87
N2761 X343.018 Y144.685
N2762 X343.091 Y144.494
N2763 X343.15 Y144.298
N2764 X343.195 Y144.099
N2765 X343.225 Y143.896
N2766 X343.24 Y143.692
N2767 Y143.487
N2768 X343.225 Y143.283
N2769 X343.196 Y143.081
N2770 X343.151 Y142.881
N2771 X343.092 Y142.685
N2772 X343.019 Y142.494
N2773 X342.933 Y142.309
N2774 X342.833 Y142.13
N2775 X342.72 Y141.96
N2776 X342.595 Y141.798
N2777 X342.458 Y141.645
N2778 X342.311 Y141.503
N2779 X342.154 Y141.372
N2780 X341.987 Y141.253
N2781 X341.813 Y141.147
N2782 X341.631 Y141.053
N2783 X341.443 Y140.973
N2784 X341.249 Y140.907
N2785 X341.051 Y140.855
N2786 X340.85 Y140.818
N2787 X340.646 Y140.795
N2788 X340.442 Y140.788
N2789 X308.419
N2790 X373.24 Y34.78
N2791 X373.34 Y34.601
N2792 X373.427 Y34.416
N2793 X373.5 Y34.225
N2794 X373.559 Y34.029
N2795 X373.604 Y33.829
N2796 X373.634 Y33.627
N2797 X373.649 Y33.423
N2798 Y33.218
N2799 X373.634 Y33.014
N2800 X373.605 Y32.812
N2801 X373.56 Y32.612
N2802 X373.501 Y32.416
N2803 X373.428 Y32.225
N2804 X373.342 Y32.04
N2805 X373.242 Y31.861
N2806 X373.129 Y31.691
N2807 X373.004 Y31.529
N2808 X372.867 Y31.376
N2809 X372.72 Y31.234
N2810 X372.563 Y31.103
N2811 X372.397 Y30.984
N2812 X372.222 Y30.877
N2813 X372.04 Y30.784
N2814 X371.852 Y30.704
N2815 X371.658 Y30.638
N2816 X371.46 Y30.586
N2817 X371.259 Y30.549
N2818 X371.055 Y30.526
N2819 X370.851 Y30.519
N2820 X265.014
N2821 Y0
N2822 X265.006 Y-0.209
N2823 X264.983 Y-0.417
N2824 X264.944 Y-0.623
N2825 X264.89 Y-0.825
N2826 X264.82 Y-1.023
N2827 X264.737 Y-1.215
N2828 X264.639 Y-1.4
N2829 X264.527 Y-1.577
N2830 X264.403 Y-1.746
N2831 X264.267 Y-1.904
N2832 X264.118 Y-2.053
N2833 X263.96 Y-2.189
N2834 X263.791 Y-2.313
N2835 X263.614 Y-2.425
N2836 X263.429 Y-2.523
N2837 X263.237 Y-2.606
N2838 X263.039 Y-2.676
N2839 X262.837 Y-2.73
N2840 X262.631 Y-2.769
N2841 X262.423 Y-2.792
N2842 X262.214 Y-2.8
N2843 X194.425
N2844 X194.216 Y-2.792
N2845 X194.008 Y-2.769
N2846 X193.802 Y-2.73
N2847 X193.6 Y-2.676
N2848 X193.402 Y-2.606
N2849 X193.21 Y-2.523
N2850 X193.025 Y-2.425
N2851 X192.848 Y-2.313
N2852 X192.679 Y-2.189
N2853 X192.521 Y-2.053
N2854 X192.372 Y-1.904
N2855 X192.236 Y-1.746
N2856 X192.112 Y-1.577
N2857 X192 Y-1.4
N2858 X191.902 Y-1.215
N2859 X191.819 Y-1.023
N2860 X191.749 Y-0.825
N2861 X191.695 Y-0.623
N2862 X191.656 Y-0.417
N2863 X191.633 Y-0.209
N2864 X191.625 Y0
N2865 Y73.386
N2866 Y295.757 Z1.529 F2500
N2867 X191.632 Y295.957 Z1.527
N2868 X191.654 Y296.156 Z1.526
N2869 X191.689 Y296.352 Z1.525
N2870 X191.739 Y296.546 Z1.523
N2871 X191.802 Y296.736 Z1.522
N2872 X191.878 Y296.921 Z1.521
N2873 X191.968 Y297.099 Z1.519
N2874 X192.07 Y297.271 Z1.518
N2875 X192.184 Y297.435 Z1.517
N2876 X192.309 Y297.591 Z1.515
N2877 X192.446 Y297.737 Z1.514
N2878 X192.477 Y297.779
N2879 X192.497 Y297.827 Z1.513
N2880 X192.504 Y297.879
N2881 X192.497 Y297.931
N2882 X192.477 Y297.979 Z1.512
N2883 X192.446 Y298.02
N2884 X192.404 Y298.052
N2885 X192.356 Y298.072 Z1.511
N2886 X192.304 Y298.079
N2887 X192.253 Y298.072
N2888 X192.204 Y298.052 Z1.51
N2889 X192.163 Y298.02
N2890 X192.017 Y297.884 Z1.509
N2891 X191.861 Y297.759 Z1.507
N2892 X191.697 Y297.645 Z1.506
N2893 X191.525 Y297.543 Z1.505
N2894 X191.346 Y297.453 Z1.503
N2895 X191.162 Y297.377 Z1.502
N2896 X190.972 Y297.313 Z1.501
N2897 X190.778 Y297.264 Z1.499
N2898 X190.582 Y297.229 Z1.498
N2899 X190.383 Y297.207 Z1.497
N2900 X190.183 Y297.2 Z1.495
N2901 X180.668 Z1.432
N2902 X180.468 Y297.207 Z1.431
N2903 X180.27 Y297.228 Z1.43
N2904 X180.073 Y297.264 Z1.428
N2905 X179.879 Y297.313 Z1.427
N2906 X179.69 Y297.376 Z1.426
N2907 X179.505 Y297.453 Z1.424
N2908 X179.326 Y297.542 Z1.423
N2909 X179.155 Y297.644 Z1.422
N2910 X178.99 Y297.758 Z1.421
N2911 X178.835 Y297.883 Z1.419
N2912 X178.689 Y298.02 Z1.418
N2913 X178.647 Y298.051
N2914 X178.599 Y298.071 Z1.417
N2915 X178.547 Y298.078
N2916 X178.495 Y298.071 Z1.416
N2917 X178.447 Y298.051
N2918 X178.405 Y298.02
N2919 X178.374 Y297.978 Z1.415
N2920 X178.354 Y297.93
N2921 X178.347 Y297.878
N2922 X178.354 Y297.826 Z1.414
N2923 X178.374 Y297.778
N2924 X178.405 Y297.736
N2925 X178.541 Y297.59 Z1.412
N2926 X178.667 Y297.435 Z1.411
N2927 X178.781 Y297.27 Z1.41
N2928 X178.883 Y297.099 Z1.408
N2929 X178.972 Y296.92 Z1.407
N2930 X179.049 Y296.735 Z1.406
N2931 X179.112 Y296.546 Z1.404
N2932 X179.161 Y296.352 Z1.403
N2933 X179.197 Y296.155 Z1.402
N2934 X179.218 Y295.957 Z1.4
N2935 X179.225 Y295.757 Z1.399
N2936 Y129.637 Z0.3
N2937 Y0 F2760
N2938 X179.217 Y-0.209
N2939 X179.194 Y-0.417
N2940 X179.155 Y-0.623
N2941 X179.101 Y-0.825
N2942 X179.031 Y-1.023
N2943 X178.948 Y-1.215
N2944 X178.85 Y-1.4
N2945 X178.738 Y-1.577
N2946 X178.614 Y-1.746
N2947 X178.478 Y-1.904
N2948 X178.329 Y-2.053
N2949 X178.171 Y-2.189
N2950 X178.002 Y-2.313
N2951 X177.825 Y-2.425
N2952 X177.64 Y-2.523
N2953 X177.448 Y-2.606
N2954 X177.25 Y-2.676
N2955 X177.048 Y-2.73
N2956 X176.842 Y-2.769
N2957 X176.634 Y-2.792
N2958 X176.425 Y-2.8
N2959 X108.637
N2960 X108.428 Y-2.792
N2961 X108.22 Y-2.769
N2962 X108.014 Y-2.73
N2963 X107.812 Y-2.676
N2964 X107.614 Y-2.606
N2965 X107.422 Y-2.523
N2966 X107.237 Y-2.425
N2967 X107.06 Y-2.313
N2968 X106.891 Y-2.189
N2969 X106.733 Y-2.053
N2970 X106.584 Y-1.904
N2971 X106.448 Y-1.746
N2972 X106.324 Y-1.577
N2973 X106.212 Y-1.4
N2974 X106.114 Y-1.215
N2975 X106.031 Y-1.023
N2976 X105.961 Y-0.825
N2977 X105.907 Y-0.623
N2978 X105.868 Y-0.417
N2979 X105.845 Y-0.209
N2980 X105.837 Y0
N2981 Y30.519
N2982 X0
N2983 X-0.204 Y30.526
N2984 X-0.408 Y30.549
N2985 X-0.609 Y30.586
N2986 X-0.807 Y30.638
N2987 X-1.001 Y30.704
N2988 X-1.189 Y30.784
N2989 X-1.371 Y30.877
N2990 X-1.545 Y30.984
N2991 X-1.712 Y31.103
N2992 X-1.869 Y31.234
N2993 X-2.016 Y31.376
N2994 X-2.153 Y31.529
N2995 X-2.278 Y31.691
N2996 X-2.391 Y31.861
N2997 X-2.491 Y32.04
N2998 X-2.577 Y32.225
N2999 X-2.65 Y32.416
N3000 X-2.709 Y32.612
N3001 X-2.754 Y32.812
N3002 X-2.783 Y33.014
N3003 X-2.798 Y33.218
N3004 Y33.423
N3005 X-2.783 Y33.627
N3006 X-2.753 Y33.829
N3007 X-2.708 Y34.029
N3008 X-2.649 Y34.225
N3009 X-2.576 Y34.416
N3010 X-2.489 Y34.601
N3011 X-2.389 Y34.78
N3012 X62.431 Y140.788
N3013 X30.409
N3014 X30.204 Y140.795
N3015 X30.001 Y140.818
N3016 X29.799 Y140.855
N3017 X29.602 Y140.907
N3018 X29.408 Y140.973
N3019 X29.22 Y141.053
N3020 X29.038 Y141.147
N3021 X28.863 Y141.253
N3022 X28.697 Y141.372
N3023 X28.539 Y141.503
N3024 X28.392 Y141.645
N3025 X28.256 Y141.798
N3026 X28.131 Y141.96
N3027 X28.018 Y142.13
N3028 X27.918 Y142.309
N3029 X27.831 Y142.494
N3030 X27.758 Y142.685
N3031 X27.699 Y142.881
N3032 X27.655 Y143.081
N3033 X27.625 Y143.283
N3034 X27.61 Y143.487
N3035 Y143.692
N3036 X27.626 Y143.896
N3037 X27.655 Y144.099
N3038 X27.7 Y144.298
N3039 X27.759 Y144.494
N3040 X27.832 Y144.685
N3041 X27.919 Y144.87
N3042 X28.02 Y145.049
N3043 X91.762 Y249.294
N3044 X58.545
N3045 X58.34 Y249.301
N3046 X58.137 Y249.324
N3047 X57.936 Y249.361
N3048 X57.738 Y249.413
N3049 X57.544 Y249.479
N3050 X57.356 Y249.559
N3051 X57.174 Y249.653
N3052 X56.999 Y249.759
N3053 X56.833 Y249.878
N3054 X56.676 Y250.009
N3055 X56.528 Y250.151
N3056 X56.392 Y250.304
N3057 X56.267 Y250.466
N3058 X56.154 Y250.636
N3059 X56.054 Y250.815
N3060 X55.967 Y251
N3061 X55.894 Y251.191
N3062 X55.835 Y251.387
N3063 X55.791 Y251.587
N3064 X55.761 Y251.789
N3065 X55.747 Y251.993
N3066 Y252.198
N3067 X55.762 Y252.402
N3068 X55.792 Y252.605
N3069 X55.836 Y252.804
N3070 X55.895 Y253
N3071 X55.969 Y253.191
N3072 X56.056 Y253.376
N3073 X56.156 Y253.555
N3074 X122.142 Y361.469
N3075 X91.411
N3076 X91.207 Y361.476
N3077 X91.003 Y361.499
N3078 X90.801 Y361.536
N3079 X90.603 Y361.588
N3080 X90.409 Y361.655
N3081 X90.221 Y361.735
N3082 X90.038 Y361.829
N3083 X89.864 Y361.936
N3084 X89.697 Y362.055
N3085 X89.54 Y362.186
N3086 X89.392 Y362.329
N3087 X89.256 Y362.482
N3088 X89.131 Y362.644
N3089 X89.018 Y362.815
N3090 X88.918 Y362.994
N3091 X88.832 Y363.18
N3092 X88.759 Y363.372
N3093 X88.701 Y363.568
N3094 X88.657 Y363.768
N3095 X88.627 Y363.971
N3096 X88.613 Y364.176
N3097 X88.614 Y364.38
N3098 X88.629 Y364.585
N3099 X88.66 Y364.787
N3100 X88.705 Y364.987
N3101 X88.765 Y365.183
N3102 X88.839 Y365.374
N3103 X88.927 Y365.56
N3104 X143.956 Y471.501
N3105 X120.706
N3106 X120.501 Y471.509
N3107 X120.296 Y471.531
N3108 X120.094 Y471.569
N3109 X119.896 Y471.621
N3110 X119.701 Y471.687
N3111 X119.512 Y471.768
N3112 X119.33 Y471.863
N3113 X119.155 Y471.97
N3114 X118.988 Y472.09
N3115 X118.83 Y472.222
N3116 X118.683 Y472.365
N3117 X118.547 Y472.519
N3118 X118.422 Y472.682
N3119 X118.309 Y472.854
N3120 X118.209 Y473.033
N3121 X118.123 Y473.22
N3122 X118.051 Y473.412
N3123 X117.993 Y473.609
N3124 X117.949 Y473.81
N3125 X117.921 Y474.014
N3126 X117.907 Y474.219
N3127 X117.909 Y474.424
N3128 X117.925 Y474.629
N3129 X117.957 Y474.832
N3130 X118.003 Y475.032
N3131 X118.064 Y475.228
N3132 X118.139 Y475.42
N3133 X118.228 Y475.605
N3134 X118.33 Y475.783
N3135 X183.049 Y579.521
N3136 X183.167 Y579.695
N3137 X183.298 Y579.86
N3138 X183.44 Y580.014
N3139 X183.594 Y580.157
N3140 X183.758 Y580.289
N3141 X183.931 Y580.407
N3142 X184.113 Y580.512
N3143 X184.302 Y580.604
N3144 X184.497 Y580.681
N3145 X184.698 Y580.743
N3146 X184.903 Y580.79
N3147 X185.111 Y580.821
N3148 X185.32 Y580.837
N3149 X185.53
N3150 X185.739 Y580.821
N3151 X185.947 Y580.79
N3152 X186.152 Y580.743
N3153 X186.353 Y580.681
N3154 X186.548 Y580.604
N3155 X186.737 Y580.512
N3156 X186.919 Y580.407
N3157 X187.092 Y580.288
N3158 X187.256 Y580.157
N3159 X187.41 Y580.014
N3160 X187.552 Y579.86
N3161 X187.683 Y579.695
N3162 X187.801 Y579.521
N3163 X252.521 Y475.783
N3164 X252.623 Y475.605
N3165 X252.712 Y475.42
N3166 X252.787 Y475.228
N3167 X252.848 Y475.032
N3168 X252.894 Y474.832
N3169 X252.926 Y474.629
N3170 X252.942 Y474.424
N3171 X252.944 Y474.219
N3172 X252.93 Y474.014
N3173 X252.902 Y473.81
N3174 X252.858 Y473.609
N3175 X252.8 Y473.412
N3176 X252.728 Y473.22
N3177 X252.642 Y473.033
N3178 X252.542 Y472.854
N3179 X252.429 Y472.682
N3180 X252.304 Y472.519
N3181 X252.168 Y472.365
N3182 X252.021 Y472.222
N3183 X251.863 Y472.09
N3184 X251.696 Y471.97
N3185 X251.521 Y471.863
N3186 X251.339 Y471.768
N3187 X251.15 Y471.687
N3188 X250.955 Y471.621
N3189 X250.757 Y471.569
N3190 X250.555 Y471.531
N3191 X250.35 Y471.509
N3192 X250.145 Y471.501
N3193 X226.895
N3194 X281.924 Y365.56
N3195 X282.012 Y365.374
N3196 X282.086 Y365.183
N3197 X282.145 Y364.987
N3198 X282.191 Y364.787
N3199 X282.221 Y364.585
N3200 X282.237 Y364.38
N3201 Y364.175
N3202 X282.223 Y363.971
N3203 X282.194 Y363.768
N3204 X282.15 Y363.568
N3205 X282.091 Y363.372
N3206 X282.019 Y363.18
N3207 X281.932 Y362.994
N3208 X281.832 Y362.815
N3209 X281.719 Y362.644
N3210 X281.594 Y362.482
N3211 X281.458 Y362.329
N3212 X281.311 Y362.186
N3213 X281.153 Y362.055
N3214 X280.987 Y361.936
N3215 X280.812 Y361.829
N3216 X280.63 Y361.735
N3217 X280.441 Y361.654
N3218 X280.247 Y361.588
N3219 X280.049 Y361.536
N3220 X279.848 Y361.499
N3221 X279.644 Y361.476
N3222 X279.439 Y361.469
N3223 X248.709
N3224 X314.695 Y253.555
N3225 X314.795 Y253.376
N3226 X314.882 Y253.191
N3227 X314.955 Y253
N3228 X315.014 Y252.804
N3229 X315.059 Y252.605
N3230 X315.089 Y252.402
N3231 X315.104 Y252.198
N3232 Y251.993
N3233 X315.089 Y251.789
N3234 X315.06 Y251.587
N3235 X315.015 Y251.387
N3236 X314.956 Y251.191
N3237 X314.883 Y251
N3238 X314.797 Y250.815
N3239 X314.697 Y250.636
N3240 X314.584 Y250.466
N3241 X314.459 Y250.304
N3242 X314.322 Y250.151
N3243 X314.175 Y250.009
N3244 X314.018 Y249.878
N3245 X313.851 Y249.759
N3246 X313.677 Y249.653
N3247 X313.495 Y249.559
N3248 X313.307 Y249.479
N3249 X313.113 Y249.413
N3250 X312.915 Y249.361
N3251 X312.714 Y249.324
N3252 X312.51 Y249.301
N3253 X312.306 Y249.294
N3254 X279.089
N3255 X342.831 Y145.049
N3256 X342.931 Y144.87
N3257 X343.018 Y144.685
N3258 X343.091 Y144.494
N3259 X343.15 Y144.298
N3260 X343.195 Y144.099
N3261 X343.225 Y143.896
N3262 X343.24 Y143.692
N3263 Y143.487
N3264 X343.225 Y143.283
N3265 X343.196 Y143.081
N3266 X343.151 Y142.881
N3267 X343.092 Y142.685
N3268 X343.019 Y142.494
N3269 X342.933 Y142.309
N3270 X342.833 Y142.13
N3271 X342.72 Y141.96
N3272 X342.595 Y141.798
N3273 X342.458 Y141.645
N3274 X342.311 Y141.503
N3275 X342.154 Y141.372
N3276 X341.987 Y141.253
N3277 X341.813 Y141.147
N3278 X341.631 Y141.053
N3279 X341.443 Y140.973
N3280 X341.249 Y140.907
N3281 X341.051 Y140.855
N3282 X340.85 Y140.818
N3283 X340.646 Y140.795
N3284 X340.442 Y140.788
N3285 X308.419
N3286 X373.24 Y34.78
N3287 X373.34 Y34.601
N3288 X373.427 Y34.416
N3289 X373.5 Y34.225
N3290 X373.559 Y34.029
N3291 X373.604 Y33.829
N3292 X373.634 Y33.627
N3293 X373.649 Y33.423
N3294 Y33.218
N3295 X373.634 Y33.014
N3296 X373.605 Y32.812
N3297 X373.56 Y32.612
N3298 X373.501 Y32.416
N3299 X373.428 Y32.225
N3300 X373.342 Y32.04
N3301 X373.242 Y31.861
N3302 X373.129 Y31.691
N3303 X373.004 Y31.529
N3304 X372.867 Y31.376
N3305 X372.72 Y31.234
N3306 X372.563 Y31.103
N3307 X372.397 Y30.984
N3308 X372.222 Y30.877
N3309 X372.04 Y30.784
N3310 X371.852 Y30.704
N3311 X371.658 Y30.638
N3312 X371.46 Y30.586
N3313 X371.259 Y30.549
N3314 X371.055 Y30.526
N3315 X370.851 Y30.519
N3316 X265.014
N3317 Y0
N3318 X265.006 Y-0.209
N3319 X264.983 Y-0.417
N3320 X264.944 Y-0.623
N3321 X264.89 Y-0.825
N3322 X264.82 Y-1.023
N3323 X264.737 Y-1.215
N3324 X264.639 Y-1.4
N3325 X264.527 Y-1.577
N3326 X264.403 Y-1.746
N3327 X264.267 Y-1.904
N3328 X264.118 Y-2.053
N3329 X263.96 Y-2.189
N3330 X263.791 Y-2.313
N3331 X263.614 Y-2.425
N3332 X263.429 Y-2.523
N3333 X263.237 Y-2.606
N3334 X263.039 Y-2.676
N3335 X262.837 Y-2.73
N3336 X262.631 Y-2.769
N3337 X262.423 Y-2.792
N3338 X262.214 Y-2.8
N3339 X194.425
N3340 X194.216 Y-2.792
N3341 X194.008 Y-2.769
N3342 X193.802 Y-2.73
N3343 X193.6 Y-2.676
N3344 X193.402 Y-2.606
N3345 X193.21 Y-2.523
N3346 X193.025 Y-2.425
N3347 X192.848 Y-2.313
N3348 X192.679 Y-2.189
N3349 X192.521 Y-2.053
N3350 X192.372 Y-1.904
N3351 X192.236 Y-1.746
N3352 X192.112 Y-1.577
N3353 X192 Y-1.4
N3354 X191.902 Y-1.215
N3355 X191.819 Y-1.023
N3356 X191.749 Y-0.825
N3357 X191.695 Y-0.623
N3358 X191.656 Y-0.417
N3359 X191.633 Y-0.209
N3360 X191.625 Y0
N3361 Y295.757
N3362 X191.632 Y295.957
N3363 X191.654 Y296.156
N3364 X191.689 Y296.352
N3365 X191.739 Y296.546
N3366 X191.802 Y296.736
N3367 X191.878 Y296.921
N3368 X191.968 Y297.099
N3369 X192.07 Y297.271
N3370 X192.184 Y297.435
N3371 X192.309 Y297.591
N3372 X192.446 Y297.737
N3373 X192.477 Y297.779
N3374 X192.497 Y297.827
N3375 X192.504 Y297.879
N3376 X192.497 Y297.931
N3377 X192.477 Y297.979
N3378 X192.446 Y298.02
N3379 X192.404 Y298.052
N3380 X192.356 Y298.072
N3381 X192.304 Y298.079
N3382 X192.253 Y298.072
N3383 X192.204 Y298.052
N3384 X192.163 Y298.02
N3385 X192.017 Y297.884
N3386 X191.861 Y297.759
N3387 X191.697 Y297.645
N3388 X191.525 Y297.543
N3389 X191.346 Y297.453
N3390 X191.162 Y297.377
N3391 X190.972 Y297.313
N3392 X190.778 Y297.264
N3393 X190.582 Y297.229
N3394 X190.383 Y297.207
N3395 X190.183 Y297.2
N3396 X180.668
N3397 X180.468 Y297.207
N3398 X180.27 Y297.228
N3399 X180.073 Y297.264
N3400 X179.879 Y297.313
N3401 X179.69 Y297.376
N3402 X179.505 Y297.453
N3403 X179.326 Y297.542
N3404 X179.155 Y297.644
N3405 X178.99 Y297.758
N3406 X178.835 Y297.883
N3407 X178.689 Y298.02
N3408 X178.647 Y298.051
N3409 X178.599 Y298.071
N3410 X178.547 Y298.078
N3411 X178.495 Y298.071
N3412 X178.447 Y298.051
N3413 X178.405 Y298.02
N3414 X178.374 Y297.978
N3415 X178.354 Y297.93
N3416 X178.347 Y297.878
N3417 X178.354 Y297.826
N3418 X178.374 Y297.778
N3419 X178.405 Y297.736
N3420 X178.541 Y297.59
N3421 X178.667 Y297.435
N3422 X178.781 Y297.27
N3423 X178.883 Y297.099
N3424 X178.972 Y296.92
N3425 X179.049 Y296.735
N3426 X179.112 Y296.546
N3427 X179.161 Y296.352
N3428 X179.197 Y296.155
N3429 X179.218 Y295.957
N3430 X179.225 Y295.757
N3431 Y129.637
N3432 G0 Z33
N3433 M5
N3434 M0
%
