%
(Cuttting board)
(T2  D=6 CR=0 - ZMIN=0 - flat end mill)
N1 G90
N2 G21

(2D Pocket1)
N3 T2
N4 S25000 M3
N5 G0 X106.317 Y400.786
N6 Z35
N7 Z25
N8 G1 Z21.5 F2500
N9 X106.275 Y400.577 Z21.47 F2000
N10 X106.249 Y400.365 Z21.44
N11 X106.238 Y400.152 Z21.41
N12 X106.244 Y399.938 Z21.38
N13 X106.266 Y399.726 Z21.35
N14 X106.303 Y399.516 Z21.32
N15 X106.356 Y399.309 Z21.29
N16 X106.425 Y399.107 Z21.26
N17 X106.508 Y398.911 Z21.23
N18 X106.606 Y398.721 Z21.2
N19 X106.718 Y398.539 Z21.17
N20 X106.843 Y398.366 Z21.14
N21 X106.981 Y398.203 Z21.11
N22 X107.13 Y398.051 Z21.08
N23 X107.291 Y397.91 Z21.05
N24 X107.461 Y397.782 Z21.02
N25 X107.641 Y397.667 Z20.99
N26 X107.829 Y397.565 Z20.96
N27 X108.023 Y397.478 Z20.93
N28 X108.224 Y397.406 Z20.9
N29 X108.43 Y397.349 Z20.87
N30 X108.639 Y397.307 Z20.84
N31 X108.851 Y397.282 Z20.81
N32 X109.064 Y397.272 Z20.78
N33 X109.278 Y397.278 Z20.75
N34 X109.49 Y397.3 Z20.72
N35 X109.7 Y397.338 Z20.69
N36 X109.906 Y397.392 Z20.66
N37 X110.108 Y397.461 Z20.63
N38 X110.305 Y397.545 Z20.6
N39 X110.494 Y397.643 Z20.57
N40 X110.676 Y397.755 Z20.54
N41 X110.848 Y397.88 Z20.51
N42 X111.011 Y398.018 Z20.48
N43 X111.163 Y398.168 Z20.45
N44 X111.304 Y398.329 Z20.42
N45 X111.432 Y398.5 Z20.39
N46 X111.546 Y398.68 Z20.36
N47 X111.647 Y398.868 Z20.33
N48 X111.734 Y399.063 Z20.3
N49 X111.806 Y399.264 Z20.27
N50 X111.862 Y399.469 Z20.24
N51 X111.904 Y399.679 Z20.21
N52 X111.929 Y399.891 Z20.18
N53 X111.938 Y400.104 Z20.15
N54 X111.932 Y400.317 Z20.12
N55 X111.909 Y400.529 Z20.09
N56 X111.871 Y400.739 Z20.06
N57 X111.817 Y400.946 Z20.03
N58 X111.747 Y401.148 Z20
N59 X111.663 Y401.344 Z19.97
N60 X111.564 Y401.533 Z19.94
N61 X111.452 Y401.714 Z19.91
N62 X111.326 Y401.887 Z19.88
N63 X111.188 Y402.049 Z19.85
N64 X111.038 Y402.201 Z19.82
N65 X110.877 Y402.341 Z19.79
N66 X110.706 Y402.469 Z19.76
N67 X110.525 Y402.583 Z19.73
N68 X110.337 Y402.684 Z19.7
N69 X110.142 Y402.77 Z19.67
N70 X109.941 Y402.841 Z19.64
N71 X109.735 Y402.898 Z19.61
N72 X109.525 Y402.938 Z19.58
N73 X109.314 Y402.963 Z19.55
N74 X109.1 Y402.972 Z19.52
N75 X108.887 Y402.965 Z19.49
N76 X108.675 Y402.942 Z19.46
N77 X108.465 Y402.903 Z19.43
N78 X108.259 Y402.848 Z19.4
N79 X108.057 Y402.779 Z19.37
N80 X107.861 Y402.694 Z19.34
N81 X107.672 Y402.595 Z19.31
N82 X107.491 Y402.482 Z19.28
N83 X107.319 Y402.356 Z19.25
N84 X107.157 Y402.217 Z19.22
N85 X107.005 Y402.067 Z19.19
N86 X106.865 Y401.906 Z19.16
N87 X106.738 Y401.734 Z19.13
N88 X106.624 Y401.554 Z19.1
N89 X106.524 Y401.366 Z19.07
N90 X106.438 Y401.17 Z19.04
N91 X106.367 Y400.969 Z19.01
N92 X106.311 Y400.763 Z18.98
N93 X106.271 Y400.553 Z18.95
N94 X106.247 Y400.341 Z18.92
N95 X106.238 Y400.128 Z18.89
N96 X106.246 Y399.915 Z18.86
N97 X106.269 Y399.703 Z18.83
N98 X106.308 Y399.493 Z18.8
N99 X106.363 Y399.287 Z18.77
N100 X106.433 Y399.085 Z18.74
N101 X106.518 Y398.889 Z18.71
N102 X106.618 Y398.701 Z18.68
N103 X106.731 Y398.52 Z18.65
N104 X106.858 Y398.348 Z18.62
N105 X106.997 Y398.186 Z18.59
N106 X107.147 Y398.035 Z18.56
N107 X107.309 Y397.895 Z18.53
N108 X107.481 Y397.769 Z18.5
N109 X107.661 Y397.655 Z18.47
N110 X107.85 Y397.555 Z18.44
N111 X108.045 Y397.47 Z18.41
N112 X108.247 Y397.399 Z18.38
N113 X108.453 Y397.344 Z18.35
N114 X108.663 Y397.304 Z18.32
N115 X108.875 Y397.28 Z18.29
N116 X109.088 Y397.272 Z18.26
N117 X109.301 Y397.28 Z18.23
N118 X109.513 Y397.304 Z18.2
N119 X109.723 Y397.343 Z18.17
N120 X109.929 Y397.399 Z18.14
N121 X110.13 Y397.469 Z18.11
N122 X110.326 Y397.555 Z18.08
N123 X110.515 Y397.655 Z18.05
N124 X110.695 Y397.768 Z18.02
N125 X110.867 Y397.895 Z17.99
N126 X111.029 Y398.034 Z17.96
N127 X111.179 Y398.185 Z17.93
N128 X111.318 Y398.347 Z17.9
N129 X111.445 Y398.519 Z17.87
N130 X111.558 Y398.7 Z17.84
N131 X111.658 Y398.889 Z17.81
N132 X111.743 Y399.085 Z17.78
N133 X111.813 Y399.286 Z17.75
N134 X111.868 Y399.492 Z17.72
N135 X111.907 Y399.702 Z17.69
N136 X111.931 Y399.914 Z17.66
N137 X111.938 Y400.128 Z17.63
N138 X111.93 Y400.341 Z17.6
N139 X111.905 Y400.553 Z17.57
N140 X111.865 Y400.762 Z17.54
N141 X111.81 Y400.968 Z17.51
N142 X111.739 Y401.17 Z17.48
N143 X111.653 Y401.365 Z17.45
N144 X111.553 Y401.553 Z17.42
N145 X111.439 Y401.734 Z17.39
N146 X111.311 Y401.905 Z17.36
N147 X111.172 Y402.067 Z17.33
N148 X111.02 Y402.217 Z17.3
N149 X110.858 Y402.356 Z17.27
N150 X110.686 Y402.482 Z17.24
N151 X110.505 Y402.595 Z17.21
N152 X110.316 Y402.694 Z17.18
N153 X110.12 Y402.779 Z17.15
N154 X109.918 Y402.848 Z17.12
N155 X109.712 Y402.903 Z17.09
N156 X109.502 Y402.942 Z17.06
N157 X109.29 Y402.965 Z17.03
N158 X109.077 Y402.972 Z17
N159 X107.485 Y402.96 F2500
N160 X105.893 Y402.937
N161 X104.302 Y402.902
N162 X102.836 Y402.86
N163 X101.371 Y402.809
N164 X99.906 Y402.748
N165 X98.442 Y402.677
N166 X96.978 Y402.596
N167 X95.514 Y402.501
N168 X94.052 Y402.393
N169 X92.591 Y402.273
N170 X92.347 Y402.254
N171 X92.102 Y402.24
N172 X91.858 Y402.224
N173 X91.614 Y402.203
N174 X91.577 Y402.192
N175 X91.546 Y402.17
N176 X91.524 Y402.138
N177 X91.514 Y402.101
N178 X91.517 Y402.062
N179 X91.533 Y402.027
N180 X91.56 Y402
N181 X91.595 Y401.983
N182 X92.528 Y401.722
N183 X93.465 Y401.476
N184 X94.406 Y401.245
N185 X95.351 Y401.03
N186 X96.298 Y400.829
N187 X97.249 Y400.644
N188 X98.203 Y400.474
N189 X99.16 Y400.319
N190 X100.119 Y400.18
N191 X101.079 Y400.056
N192 X102.042 Y399.948
N193 X103.007 Y399.855
N194 X103.972 Y399.777
N195 X104.939 Y399.715
N196 X105.907 Y399.669
N197 X106.875 Y399.638
N198 X107.844 Y399.622
N199 X108.813
N200 X109.782 Y399.637
N201 X110.75 Y399.668
N202 X111.718 Y399.714
N203 X112.685 Y399.775
N204 X113.65 Y399.852
N205 X114.615 Y399.944
N206 X115.578 Y400.052
N207 X116.539 Y400.175
N208 X117.498 Y400.313
N209 X118.454 Y400.467
N210 X119.408 Y400.636
N211 X120.359 Y400.82
N212 X121.307 Y401.019
N213 X122.252 Y401.233
N214 X123.194 Y401.463
N215 X124.131 Y401.707
N216 X125.065 Y401.967
N217 X125.994 Y402.241
N218 X126.028 Y402.258
N219 X126.054 Y402.286
N220 X126.07 Y402.321
N221 X126.072 Y402.36
N222 X126.061 Y402.396
N223 X126.039 Y402.427
N224 X126.007 Y402.449
N225 X125.969 Y402.458
N226 X124.481 Y402.556
N227 X122.993 Y402.64
N228 X121.503 Y402.709
N229 X119.268 Y402.795
N230 X117.032 Y402.868
N231 X115.418 Y402.911
N232 X113.803 Y402.943
N233 X112.188 Y402.963
N234 X110.573 Y402.973
N235 X109.077 Y402.972
N236 X108.901 Y402.979
N237 X108.727 Y403.002
N238 X108.556 Y403.041
N239 X108.388 Y403.095
N240 X108.227 Y403.163
N241 X108.072 Y403.246
N242 X107.925 Y403.343
N243 X107.788 Y403.452
N244 X107.661 Y403.574
N245 X107.545 Y403.706
N246 X107.442 Y403.848
N247 X107.352 Y403.999
N248 X107.276 Y404.158
N249 X107.206 Y404.305
N250 X107.124 Y404.446
N251 X107.029 Y404.58
N252 X106.924 Y404.705
N253 X106.809 Y404.82
N254 X106.684 Y404.926
N255 X106.551 Y405.021
N256 X106.41 Y405.103
N257 X106.263 Y405.174
N258 X106.11 Y405.232
N259 X105.953 Y405.277
N260 X105.793 Y405.308
N261 X105.63 Y405.326
N262 X105.467 Y405.329
N263 X104.241 Y405.302
N264 X102.545 Y405.251
N265 X100.849 Y405.187
N266 X99.155 Y405.108
N267 X97.46 Y405.014
N268 X95.767 Y404.907
N269 X94.075 Y404.785
N270 X92.384 Y404.65
N271 X91.042 Y404.527
N272 X89.701 Y404.394
N273 X88.361 Y404.251
N274 X87.022 Y404.096
N275 X85.239 Y403.877
N276 X83.457 Y403.648
N277 X81.676 Y403.407
N278 X81.637 Y403.395
N279 X81.603 Y403.371
N280 X81.579 Y403.337
N281 X81.566 Y403.298
N282 Y403.256
N283 X81.58 Y403.217
N284 X81.605 Y403.184
N285 X81.639 Y403.161
N286 X82.474 Y402.776
N287 X83.315 Y402.404
N288 X84.161 Y402.045
N289 X85.013 Y401.698
N290 X85.869 Y401.364
N291 X86.731 Y401.044
N292 X87.597 Y400.736
N293 X88.545 Y400.414
N294 X89.499 Y400.107
N295 X90.456 Y399.815
N296 X91.419 Y399.538
N297 X92.386 Y399.277
N298 X93.356 Y399.031
N299 X94.331 Y398.8
N300 X95.309 Y398.585
N301 X96.29 Y398.386
N302 X97.274 Y398.202
N303 X98.262 Y398.034
N304 X99.251 Y397.882
N305 X100.243 Y397.745
N306 X101.237 Y397.624
N307 X102.233 Y397.519
N308 X103.23 Y397.429
N309 X104.229 Y397.356
N310 X105.229 Y397.298
N311 X106.229 Y397.256
N312 X107.23 Y397.231
N313 X108.232 Y397.221
N314 X109.233 Y397.227
N315 X110.234 Y397.248
N316 X111.235 Y397.286
N317 X112.235 Y397.34
N318 X113.234 Y397.409
N319 X114.231 Y397.495
N320 X115.228 Y397.596
N321 X116.222 Y397.713
N322 X117.215 Y397.846
N323 X118.205 Y397.994
N324 X119.193 Y398.158
N325 X120.178 Y398.338
N326 X121.16 Y398.534
N327 X122.139 Y398.745
N328 X123.114 Y398.971
N329 X124.086 Y399.213
N330 X125.054 Y399.471
N331 X126.017 Y399.744
N332 X126.976 Y400.032
N333 X127.93 Y400.335
N334 X128.88 Y400.653
N335 X129.824 Y400.987
N336 X130.763 Y401.335
N337 X131.696 Y401.698
N338 X132.623 Y402.076
N339 X133.545 Y402.469
N340 X134.459 Y402.876
N341 X135.368 Y403.298
N342 X136.269 Y403.734
N343 X136.302 Y403.757
N344 X136.326 Y403.79
N345 X136.338 Y403.829
N346 X136.337 Y403.87
N347 X136.324 Y403.908
N348 X136.299 Y403.94
N349 X136.265 Y403.962
N350 X136.226 Y403.972
N351 X134.297 Y404.159
N352 X132.368 Y404.335
N353 X130.437 Y404.502
N354 X128.766 Y404.638
N355 X127.093 Y404.763
N356 X125.42 Y404.876
N357 X123.746 Y404.977
N358 X122.086 Y405.067
N359 X120.426 Y405.145
N360 X118.765 Y405.212
N361 X117.104 Y405.267
N362 X115.473 Y405.31
N363 X113.842 Y405.342
N364 X112.21 Y405.363
N365 X110.579 Y405.373
N366 X108.875 Y405.371
N367 X107.171 Y405.357
N368 X105.467 Y405.329
N369 X105.291 Y405.334
N370 X105.117 Y405.354
N371 X104.945 Y405.39
N372 X104.777 Y405.441
N373 X104.614 Y405.507
N374 X104.458 Y405.588
N375 X104.31 Y405.682
N376 X104.171 Y405.789
N377 X104.042 Y405.909
N378 X103.925 Y406.039
N379 X103.819 Y406.18
N380 X103.727 Y406.329
N381 X103.649 Y406.486
N382 X103.576 Y406.633
N383 X103.491 Y406.772
N384 X103.395 Y406.904
N385 X103.288 Y407.028
N386 X103.171 Y407.141
N387 X103.044 Y407.245
N388 X102.91 Y407.337
N389 X102.768 Y407.418
N390 X102.619 Y407.486
N391 X102.465 Y407.541
N392 X102.308 Y407.584
N393 X102.147 Y407.612
N394 X101.984 Y407.627
N395 X101.821 Y407.628
N396 X100.56 Y407.578
N397 X99.299 Y407.52
N398 X98.039 Y407.456
N399 X96.399 Y407.357
N400 X94.76 Y407.245
N401 X93.123 Y407.117
N402 X91.486 Y406.976
N403 X89.85 Y406.819
N404 X88.217 Y406.648
N405 X86.584 Y406.463
N406 X85.095 Y406.275
N407 X83.608 Y406.073
N408 X82.123 Y405.856
N409 X80.641 Y405.623
N410 X79.161 Y405.376
N411 X77.683 Y405.114
N412 X76.208 Y404.837
N413 X75.793 Y404.758
N414 X75.376 Y404.684
N415 X74.96 Y404.608
N416 X74.546 Y404.523
N417 X74.506 Y404.508
N418 X74.471 Y404.482
N419 X74.447 Y404.446
N420 X74.433 Y404.405
N421 X74.432 Y404.362
N422 X74.444 Y404.32
N423 X74.468 Y404.284
N424 X74.501 Y404.256
N425 X75.345 Y403.753
N426 X76.197 Y403.263
N427 X77.056 Y402.787
N428 X77.922 Y402.323
N429 X78.795 Y401.873
N430 X79.675 Y401.437
N431 X80.562 Y401.014
N432 X81.455 Y400.604
N433 X82.386 Y400.194
N434 X83.322 Y399.797
N435 X84.265 Y399.416
N436 X85.214 Y399.049
N437 X86.168 Y398.696
N438 X87.127 Y398.359
N439 X88.092 Y398.037
N440 X89.061 Y397.729
N441 X90.035 Y397.437
N442 X91.014 Y397.16
N443 X91.997 Y396.898
N444 X92.983 Y396.652
N445 X93.974 Y396.42
N446 X94.968 Y396.205
N447 X95.965 Y396.004
N448 X96.965 Y395.82
N449 X97.968 Y395.65
N450 X98.973 Y395.497
N451 X99.981 Y395.359
N452 X100.991 Y395.236
N453 X102.002 Y395.13
N454 X103.015 Y395.039
N455 X104.029 Y394.964
N456 X105.045 Y394.904
N457 X106.061 Y394.861
N458 X107.077 Y394.833
N459 X108.094 Y394.821
N460 X109.111 Y394.825
N461 X110.128 Y394.844
N462 X111.145 Y394.88
N463 X112.16 Y394.931
N464 X113.175 Y394.998
N465 X114.189 Y395.081
N466 X115.201 Y395.179
N467 X116.212 Y395.293
N468 X117.221 Y395.423
N469 X118.227 Y395.569
N470 X119.231 Y395.73
N471 X120.233 Y395.907
N472 X121.232 Y396.099
N473 X122.227 Y396.307
N474 X123.219 Y396.53
N475 X124.208 Y396.768
N476 X125.193 Y397.022
N477 X126.174 Y397.292
N478 X127.15 Y397.576
N479 X128.122 Y397.875
N480 X129.089 Y398.19
N481 X130.051 Y398.52
N482 X131.008 Y398.864
N483 X131.96 Y399.223
N484 X132.906 Y399.598
N485 X133.845 Y399.986
N486 X134.779 Y400.39
N487 X135.706 Y400.807
N488 X136.627 Y401.239
N489 X137.541 Y401.686
N490 X138.448 Y402.146
N491 X139.347 Y402.621
N492 X140.239 Y403.109
N493 X141.124 Y403.611
N494 X142 Y404.127
N495 X142.869 Y404.657
N496 X143.729 Y405.2
N497 X143.761 Y405.228
N498 X143.783 Y405.264
N499 X143.793 Y405.305
N500 X143.79 Y405.348
N501 X143.774 Y405.387
N502 X143.748 Y405.42
N503 X143.712 Y405.444
N504 X143.671 Y405.456
N505 X141.575 Y405.722
N506 X139.478 Y405.978
N507 X137.38 Y406.224
N508 X135.697 Y406.41
N509 X134.013 Y406.584
N510 X132.327 Y406.745
N511 X130.641 Y406.893
N512 X128.953 Y407.031
N513 X127.264 Y407.157
N514 X125.574 Y407.271
N515 X123.884 Y407.373
N516 X122.207 Y407.464
N517 X120.531 Y407.543
N518 X118.853 Y407.61
N519 X117.176 Y407.666
N520 X115.528 Y407.71
N521 X113.881 Y407.742
N522 X112.233 Y407.764
N523 X110.585 Y407.773
N524 X108.983 Y407.772
N525 X107.382 Y407.759
N526 X105.78 Y407.736
N527 X104.179 Y407.701
N528 X103 Y407.668
N529 X101.821 Y407.628
N530 X101.655 Y407.629
N531 X101.491 Y407.643
N532 X101.328 Y407.672
N533 X101.168 Y407.714
N534 X101.012 Y407.769
N535 X100.861 Y407.837
N536 X100.716 Y407.917
N537 X100.579 Y408.009
N538 X100.45 Y408.113
N539 X100.33 Y408.226
N540 X100.219 Y408.35
N541 X100.12 Y408.482
N542 X100.032 Y408.622
N543 X99.956 Y408.769
N544 X99.88 Y408.916
N545 X99.792 Y409.056
N546 X99.693 Y409.189
N547 X99.583 Y409.312
N548 X99.463 Y409.426
N549 X99.334 Y409.53
N550 X99.196 Y409.622
N551 X99.052 Y409.702
N552 X98.901 Y409.77
N553 X98.745 Y409.825
N554 X98.584 Y409.867
N555 X98.421 Y409.895
N556 X98.256 Y409.909
N557 X98.091 Y409.91
N558 X97.904 Y409.902
N559 X91.963 Y409.482
N560 X86.29 Y408.895
N561 X80.883 Y408.148
N562 X75.736 Y407.242
N563 X70.847 Y406.183
N564 X68.279 Y405.515
N565 X69.119 Y404.91
N566 X69.967 Y404.318
N567 X70.825 Y403.739
N568 X71.692 Y403.173
N569 X72.567 Y402.621
N570 X73.45 Y402.082
N571 X74.341 Y401.557
N572 X75.241 Y401.045
N573 X76.148 Y400.547
N574 X77.062 Y400.062
N575 X77.984 Y399.592
N576 X78.913 Y399.136
N577 X79.849 Y398.694
N578 X80.791 Y398.267
N579 X81.74 Y397.854
N580 X82.695 Y397.455
N581 X83.655 Y397.071
N582 X84.622 Y396.702
N583 X85.594 Y396.347
N584 X86.572 Y396.008
N585 X87.554 Y395.683
N586 X88.542 Y395.373
N587 X89.534 Y395.079
N588 X90.53 Y394.799
N589 X91.53 Y394.535
N590 X92.535 Y394.286
N591 X93.543 Y394.052
N592 X94.554 Y393.834
N593 X95.569 Y393.631
N594 X96.587 Y393.444
N595 X97.607 Y393.273
N596 X98.63 Y393.116
N597 X99.655 Y392.976
N598 X100.683 Y392.851
N599 X101.712 Y392.742
N600 X102.742 Y392.648
N601 X103.774 Y392.571
N602 X104.807 Y392.509
N603 X105.841 Y392.462
N604 X106.875 Y392.432
N605 X107.91 Y392.417
N606 X108.945 Y392.418
N607 X109.979 Y392.435
N608 X111.013 Y392.468
N609 X112.047 Y392.516
N610 X113.08 Y392.58
N611 X114.112 Y392.66
N612 X115.142 Y392.756
N613 X116.171 Y392.867
N614 X117.198 Y392.994
N615 X118.223 Y393.136
N616 X119.245 Y393.295
N617 X120.265 Y393.468
N618 X121.283 Y393.658
N619 X122.297 Y393.862
N620 X123.308 Y394.083
N621 X124.316 Y394.318
N622 X125.32 Y394.569
N623 X126.32 Y394.836
N624 X127.315 Y395.117
N625 X128.307 Y395.414
N626 X129.293 Y395.725
N627 X130.275 Y396.052
N628 X131.252 Y396.394
N629 X132.223 Y396.75
N630 X133.189 Y397.122
N631 X134.149 Y397.508
N632 X135.104 Y397.908
N633 X136.051 Y398.323
N634 X136.993 Y398.753
N635 X137.928 Y399.196
N636 X138.856 Y399.654
N637 X139.776 Y400.126
N638 X140.69 Y400.612
N639 X141.596 Y401.112
N640 X142.494 Y401.626
N641 X143.385 Y402.153
N642 X144.267 Y402.694
N643 X145.141 Y403.248
N644 X146.006 Y403.816
N645 X146.863 Y404.396
N646 X147.71 Y404.99
N647 X148.549 Y405.596
N648 X149.378 Y406.216
N649 X150.197 Y406.847
N650 X144.387 Y407.788
N651 X137.658 Y408.659
N652 X130.849 Y409.335
N653 X124.024 Y409.82
N654 X117.249 Y410.115
N655 X110.591 Y410.224
N656 X104.116 Y410.151
N657 X98.091 Y409.91
N658 X98.01 Y409.913
N659 X97.931 Y409.93
N660 X97.856 Y409.959
N661 X97.787 Y410.001
N662 X97.725 Y410.053
N663 X97.673 Y410.115
N664 X97.632 Y410.184
N665 X97.59 Y410.254
N666 X97.538 Y410.315
N667 X97.476 Y410.367
N668 X97.405 Y410.408
N669 X97.329 Y410.436
N670 X97.25 Y410.45
N671 X97.169 Y410.452
N672 X91.911 Y410.08
N673 X86.218 Y409.491
N674 X80.79 Y408.741
N675 X75.621 Y407.831
N676 X70.708 Y406.767
N677 X66.919 Y405.781
N678 X67.75 Y405.159
N679 X68.59 Y404.55
N680 X69.439 Y403.953
N681 X70.297 Y403.37
N682 X71.164 Y402.799
N683 X72.04 Y402.242
N684 X72.924 Y401.698
N685 X73.816 Y401.168
N686 X74.716 Y400.651
N687 X75.623 Y400.148
N688 X76.539 Y399.659
N689 X77.461 Y399.184
N690 X78.391 Y398.722
N691 X79.327 Y398.275
N692 X80.27 Y397.842
N693 X81.22 Y397.424
N694 X82.176 Y397.02
N695 X83.138 Y396.63
N696 X84.105 Y396.255
N697 X85.078 Y395.895
N698 X86.057 Y395.549
N699 X87.041 Y395.219
N700 X88.029 Y394.903
N701 X89.023 Y394.603
N702 X90.02 Y394.317
N703 X91.022 Y394.047
N704 X92.028 Y393.792
N705 X93.038 Y393.552
N706 X94.051 Y393.327
N707 X95.067 Y393.118
N708 X96.087 Y392.924
N709 X97.109 Y392.746
N710 X98.134 Y392.583
N711 X99.161 Y392.436
N712 X100.191 Y392.304
N713 X101.222 Y392.188
N714 X102.255 Y392.088
N715 X103.289 Y392.003
N716 X104.325 Y391.934
N717 X105.361 Y391.881
N718 X106.398 Y391.844
N719 X107.436 Y391.822
N720 X108.473 Y391.816
N721 X109.511 Y391.825
N722 X110.549 Y391.851
N723 X111.585 Y391.892
N724 X112.622 Y391.948
N725 X113.657 Y392.021
N726 X114.691 Y392.109
N727 X115.723 Y392.213
N728 X116.754 Y392.332
N729 X117.783 Y392.467
N730 X118.81 Y392.618
N731 X119.834 Y392.784
N732 X120.856 Y392.966
N733 X121.875 Y393.163
N734 X122.891 Y393.376
N735 X123.903 Y393.604
N736 X124.912 Y393.847
N737 X125.917 Y394.106
N738 X126.918 Y394.379
N739 X127.915 Y394.668
N740 X128.907 Y394.972
N741 X129.894 Y395.291
N742 X130.877 Y395.625
N743 X131.854 Y395.974
N744 X132.826 Y396.337
N745 X133.793 Y396.715
N746 X134.753 Y397.108
N747 X135.708 Y397.516
N748 X136.656 Y397.937
N749 X137.598 Y398.373
N750 X138.533 Y398.824
N751 X139.461 Y399.288
N752 X140.382 Y399.767
N753 X141.295 Y400.259
N754 X142.201 Y400.765
N755 X143.099 Y401.285
N756 X143.989 Y401.818
N757 X144.871 Y402.365
N758 X145.745 Y402.925
N759 X146.61 Y403.498
N760 X147.466 Y404.085
N761 X148.314 Y404.684
N762 X149.152 Y405.296
N763 X149.98 Y405.921
N764 X150.8 Y406.558
N765 X151.609 Y407.207
N766 X151.075 Y407.313
N767 X144.474 Y408.382
N768 X137.726 Y409.255
N769 X130.9 Y409.933
N770 X124.058 Y410.419
N771 X117.267 Y410.715
N772 X110.592 Y410.824
N773 X104.101 Y410.751
N774 X97.871 Y410.501
N775 X97.169 Y410.452
N776 X96.958 Y410.429 Z16.979 F2000
N777 X96.75 Y410.39 Z16.958
N778 X96.545 Y410.337 Z16.937
N779 X96.344 Y410.268 Z16.915
N780 X96.149 Y410.184 Z16.894
N781 X95.961 Y410.086 Z16.873
N782 X95.781 Y409.975 Z16.852
N783 X95.61 Y409.85 Z16.831
N784 X95.448 Y409.713 Z16.81
N785 X95.297 Y409.564 Z16.788
N786 X95.157 Y409.405 Z16.767
N787 X95.03 Y409.236 Z16.746
N788 X94.915 Y409.057 Z16.725
N789 X94.814 Y408.871 Z16.704
N790 X94.728 Y408.677 Z16.683
N791 X94.656 Y408.478 Z16.661
N792 X94.598 Y408.274 Z16.64
N793 X94.557 Y408.066 Z16.619
N794 X94.53 Y407.856 Z16.598
N795 X94.52 Y407.644 Z16.577
N796 X94.525 Y407.432 Z16.556
N797 X94.546 Y407.221 Z16.535
N798 X94.583 Y407.012 Z16.513
N799 X94.635 Y406.807 Z16.492
N800 X94.702 Y406.606 Z16.471
N801 X94.784 Y406.41 Z16.45
N802 X94.88 Y406.221 Z16.429
N803 X94.99 Y406.04 Z16.408
N804 X95.113 Y405.868 Z16.386
N805 X95.249 Y405.705 Z16.365
N806 X95.396 Y405.552 Z16.344
N807 X95.555 Y405.411 Z16.323
N808 X95.723 Y405.283 Z16.302
N809 X95.9 Y405.167 Z16.281
N810 X96.086 Y405.064 Z16.259
N811 X96.279 Y404.976 Z16.238
N812 X96.477 Y404.902 Z16.217
N813 X96.681 Y404.843 Z16.196
N814 X96.889 Y404.8 Z16.175
N815 X97.099 Y404.772 Z16.154
N816 X97.31 Y404.759 Z16.133
N817 X97.522 Y404.763 Z16.111
N818 X97.733 Y404.782 Z16.09
N819 X97.942 Y404.817 Z16.069
N820 X98.148 Y404.867 Z16.048
N821 X98.35 Y404.933 Z16.027
N822 X108.085 Y408.498 Z14.992
N823 X108.286 Y408.563 Z14.971
N824 X108.492 Y408.614 Z14.95
N825 X108.7 Y408.648 Z14.929
N826 X108.911 Y408.668 Z14.908
N827 X109.122 Y408.671 Z14.887
N828 X109.333 Y408.659 Z14.866
N829 X109.543 Y408.631 Z14.844
N830 X109.75 Y408.588 Z14.823
N831 X109.953 Y408.53 Z14.802
N832 X110.152 Y408.457 Z14.781
N833 X110.344 Y408.369 Z14.76
N834 X110.529 Y408.267 Z14.739
N835 X110.707 Y408.152 Z14.718
N836 X110.875 Y408.023 Z14.697
N837 X111.033 Y407.883 Z14.676
N838 X111.181 Y407.731 Z14.654
N839 X111.317 Y407.569 Z14.633
N840 X111.44 Y407.398 Z14.612
N841 X111.55 Y407.217 Z14.591
N842 X111.647 Y407.029 Z14.57
N843 X111.729 Y406.834 Z14.549
N844 X111.797 Y406.634 Z14.528
N845 X111.85 Y406.429 Z14.507
N846 X111.887 Y406.221 Z14.486
N847 X111.909 Y406.01 Z14.464
N848 X111.915 Y405.799 Z14.443
N849 X111.905 Y405.588 Z14.422
N850 X111.88 Y405.378 Z14.401
N851 X111.84 Y405.17 Z14.38
N852 X111.784 Y404.966 Z14.359
N853 X111.713 Y404.767 Z14.338
N854 X111.627 Y404.574 Z14.317
N855 X111.528 Y404.387 Z14.296
N856 X111.414 Y404.208 Z14.274
N857 X111.288 Y404.039 Z14.253
N858 X111.15 Y403.879 Z14.232
N859 X111 Y403.729 Z14.211
N860 X110.84 Y403.592 Z14.19
N861 X110.669 Y403.466 Z14.169
N862 X110.49 Y403.354 Z14.148
N863 X110.303 Y403.255 Z14.127
N864 X110.109 Y403.17 Z14.106
N865 X109.91 Y403.1 Z14.084
N866 X109.706 Y403.045 Z14.063
N867 X109.498 Y403.005 Z14.042
N868 X109.288 Y402.981 Z14.021
N869 X109.077 Y402.972 Z14
N870 X107.485 Y402.96 F2500
N871 X105.893 Y402.937
N872 X104.302 Y402.902
N873 X102.836 Y402.86
N874 X101.371 Y402.809
N875 X99.906 Y402.748
N876 X98.442 Y402.677
N877 X96.978 Y402.596
N878 X95.514 Y402.501
N879 X94.052 Y402.393
N880 X92.591 Y402.273
N881 X92.347 Y402.254
N882 X92.102 Y402.24
N883 X91.858 Y402.224
N884 X91.614 Y402.203
N885 X91.577 Y402.192
N886 X91.546 Y402.17
N887 X91.524 Y402.138
N888 X91.514 Y402.101
N889 X91.517 Y402.062
N890 X91.533 Y402.027
N891 X91.56 Y402
N892 X91.595 Y401.983
N893 X92.528 Y401.722
N894 X93.465 Y401.476
N895 X94.406 Y401.245
N896 X95.351 Y401.03
N897 X96.298 Y400.829
N898 X97.249 Y400.644
N899 X98.203 Y400.474
N900 X99.16 Y400.319
N901 X100.119 Y400.18
N902 X101.079 Y400.056
N903 X102.042 Y399.948
N904 X103.007 Y399.855
N905 X103.972 Y399.777
N906 X104.939 Y399.715
N907 X105.907 Y399.669
N908 X106.875 Y399.638
N909 X107.844 Y399.622
N910 X108.813
N911 X109.782 Y399.637
N912 X110.75 Y399.668
N913 X111.718 Y399.714
N914 X112.685 Y399.775
N915 X113.65 Y399.852
N916 X114.615 Y399.944
N917 X115.578 Y400.052
N918 X116.539 Y400.175
N919 X117.498 Y400.313
N920 X118.454 Y400.467
N921 X119.408 Y400.636
N922 X120.359 Y400.82
N923 X121.307 Y401.019
N924 X122.252 Y401.233
N925 X123.194 Y401.463
N926 X124.131 Y401.707
N927 X125.065 Y401.967
N928 X125.994 Y402.241
N929 X126.028 Y402.258
N930 X126.054 Y402.286
N931 X126.07 Y402.321
N932 X126.072 Y402.36
N933 X126.061 Y402.396
N934 X126.039 Y402.427
N935 X126.007 Y402.449
N936 X125.969 Y402.458
N937 X124.481 Y402.556
N938 X122.993 Y402.64
N939 X121.503 Y402.709
N940 X119.268 Y402.795
N941 X117.032 Y402.868
N942 X115.418 Y402.911
N943 X113.803 Y402.943
N944 X112.188 Y402.963
N945 X110.573 Y402.973
N946 X109.077 Y402.972
N947 X108.901 Y402.979
N948 X108.727 Y403.002
N949 X108.556 Y403.041
N950 X108.388 Y403.095
N951 X108.227 Y403.163
N952 X108.072 Y403.246
N953 X107.925 Y403.343
N954 X107.788 Y403.452
N955 X107.661 Y403.574
N956 X107.545 Y403.706
N957 X107.442 Y403.848
N958 X107.352 Y403.999
N959 X107.276 Y404.158
N960 X107.206 Y404.305
N961 X107.124 Y404.446
N962 X107.029 Y404.58
N963 X106.924 Y404.705
N964 X106.809 Y404.82
N965 X106.684 Y404.926
N966 X106.551 Y405.021
N967 X106.41 Y405.103
N968 X106.263 Y405.174
N969 X106.11 Y405.232
N970 X105.953 Y405.277
N971 X105.793 Y405.308
N972 X105.63 Y405.326
N973 X105.467 Y405.329
N974 X104.241 Y405.302
N975 X102.545 Y405.251
N976 X100.849 Y405.187
N977 X99.155 Y405.108
N978 X97.46 Y405.014
N979 X95.767 Y404.907
N980 X94.075 Y404.785
N981 X92.384 Y404.65
N982 X91.042 Y404.527
N983 X89.701 Y404.394
N984 X88.361 Y404.251
N985 X87.022 Y404.096
N986 X85.239 Y403.877
N987 X83.457 Y403.648
N988 X81.676 Y403.407
N989 X81.637 Y403.395
N990 X81.603 Y403.371
N991 X81.579 Y403.337
N992 X81.566 Y403.298
N993 Y403.256
N994 X81.58 Y403.217
N995 X81.605 Y403.184
N996 X81.639 Y403.161
N997 X82.474 Y402.776
N998 X83.315 Y402.404
N999 X84.161 Y402.045
N1000 X85.013 Y401.698
N1001 X85.869 Y401.364
N1002 X86.731 Y401.044
N1003 X87.597 Y400.736
N1004 X88.545 Y400.414
N1005 X89.499 Y400.107
N1006 X90.456 Y399.815
N1007 X91.419 Y399.538
N1008 X92.386 Y399.277
N1009 X93.356 Y399.031
N1010 X94.331 Y398.8
N1011 X95.309 Y398.585
N1012 X96.29 Y398.386
N1013 X97.274 Y398.202
N1014 X98.262 Y398.034
N1015 X99.251 Y397.882
N1016 X100.243 Y397.745
N1017 X101.237 Y397.624
N1018 X102.233 Y397.519
N1019 X103.23 Y397.429
N1020 X104.229 Y397.356
N1021 X105.229 Y397.298
N1022 X106.229 Y397.256
N1023 X107.23 Y397.231
N1024 X108.232 Y397.221
N1025 X109.233 Y397.227
N1026 X110.234 Y397.248
N1027 X111.235 Y397.286
N1028 X112.235 Y397.34
N1029 X113.234 Y397.409
N1030 X114.231 Y397.495
N1031 X115.228 Y397.596
N1032 X116.222 Y397.713
N1033 X117.215 Y397.846
N1034 X118.205 Y397.994
N1035 X119.193 Y398.158
N1036 X120.178 Y398.338
N1037 X121.16 Y398.534
N1038 X122.139 Y398.745
N1039 X123.114 Y398.971
N1040 X124.086 Y399.213
N1041 X125.054 Y399.471
N1042 X126.017 Y399.744
N1043 X126.976 Y400.032
N1044 X127.93 Y400.335
N1045 X128.88 Y400.653
N1046 X129.824 Y400.987
N1047 X130.763 Y401.335
N1048 X131.696 Y401.698
N1049 X132.623 Y402.076
N1050 X133.545 Y402.469
N1051 X134.459 Y402.876
N1052 X135.368 Y403.298
N1053 X136.269 Y403.734
N1054 X136.302 Y403.757
N1055 X136.326 Y403.79
N1056 X136.338 Y403.829
N1057 X136.337 Y403.87
N1058 X136.324 Y403.908
N1059 X136.299 Y403.94
N1060 X136.265 Y403.962
N1061 X136.226 Y403.972
N1062 X134.297 Y404.159
N1063 X132.368 Y404.335
N1064 X130.437 Y404.502
N1065 X128.766 Y404.638
N1066 X127.093 Y404.763
N1067 X125.42 Y404.876
N1068 X123.746 Y404.977
N1069 X122.086 Y405.067
N1070 X120.426 Y405.145
N1071 X118.765 Y405.212
N1072 X117.104 Y405.267
N1073 X115.473 Y405.31
N1074 X113.842 Y405.342
N1075 X112.21 Y405.363
N1076 X110.579 Y405.373
N1077 X108.875 Y405.371
N1078 X107.171 Y405.357
N1079 X105.467 Y405.329
N1080 X105.291 Y405.334
N1081 X105.117 Y405.354
N1082 X104.945 Y405.39
N1083 X104.777 Y405.441
N1084 X104.614 Y405.507
N1085 X104.458 Y405.588
N1086 X104.31 Y405.682
N1087 X104.171 Y405.789
N1088 X104.042 Y405.909
N1089 X103.925 Y406.039
N1090 X103.819 Y406.18
N1091 X103.727 Y406.329
N1092 X103.649 Y406.486
N1093 X103.576 Y406.633
N1094 X103.491 Y406.772
N1095 X103.395 Y406.904
N1096 X103.288 Y407.028
N1097 X103.171 Y407.141
N1098 X103.044 Y407.245
N1099 X102.91 Y407.337
N1100 X102.768 Y407.418
N1101 X102.619 Y407.486
N1102 X102.465 Y407.541
N1103 X102.308 Y407.584
N1104 X102.147 Y407.612
N1105 X101.984 Y407.627
N1106 X101.821 Y407.628
N1107 X100.56 Y407.578
N1108 X99.299 Y407.52
N1109 X98.039 Y407.456
N1110 X96.399 Y407.357
N1111 X94.76 Y407.245
N1112 X93.123 Y407.117
N1113 X91.486 Y406.976
N1114 X89.85 Y406.819
N1115 X88.217 Y406.648
N1116 X86.584 Y406.463
N1117 X85.095 Y406.275
N1118 X83.608 Y406.073
N1119 X82.123 Y405.856
N1120 X80.641 Y405.623
N1121 X79.161 Y405.376
N1122 X77.683 Y405.114
N1123 X76.208 Y404.837
N1124 X75.793 Y404.758
N1125 X75.376 Y404.684
N1126 X74.96 Y404.608
N1127 X74.546 Y404.523
N1128 X74.506 Y404.508
N1129 X74.471 Y404.482
N1130 X74.447 Y404.446
N1131 X74.433 Y404.405
N1132 X74.432 Y404.362
N1133 X74.444 Y404.32
N1134 X74.468 Y404.284
N1135 X74.501 Y404.256
N1136 X75.345 Y403.753
N1137 X76.197 Y403.263
N1138 X77.056 Y402.787
N1139 X77.922 Y402.323
N1140 X78.795 Y401.873
N1141 X79.675 Y401.437
N1142 X80.562 Y401.014
N1143 X81.455 Y400.604
N1144 X82.386 Y400.194
N1145 X83.322 Y399.797
N1146 X84.265 Y399.416
N1147 X85.214 Y399.049
N1148 X86.168 Y398.696
N1149 X87.127 Y398.359
N1150 X88.092 Y398.037
N1151 X89.061 Y397.729
N1152 X90.035 Y397.437
N1153 X91.014 Y397.16
N1154 X91.997 Y396.898
N1155 X92.983 Y396.652
N1156 X93.974 Y396.42
N1157 X94.968 Y396.205
N1158 X95.965 Y396.004
N1159 X96.965 Y395.82
N1160 X97.968 Y395.65
N1161 X98.973 Y395.497
N1162 X99.981 Y395.359
N1163 X100.991 Y395.236
N1164 X102.002 Y395.13
N1165 X103.015 Y395.039
N1166 X104.029 Y394.964
N1167 X105.045 Y394.904
N1168 X106.061 Y394.861
N1169 X107.077 Y394.833
N1170 X108.094 Y394.821
N1171 X109.111 Y394.825
N1172 X110.128 Y394.844
N1173 X111.145 Y394.88
N1174 X112.16 Y394.931
N1175 X113.175 Y394.998
N1176 X114.189 Y395.081
N1177 X115.201 Y395.179
N1178 X116.212 Y395.293
N1179 X117.221 Y395.423
N1180 X118.227 Y395.569
N1181 X119.231 Y395.73
N1182 X120.233 Y395.907
N1183 X121.232 Y396.099
N1184 X122.227 Y396.307
N1185 X123.219 Y396.53
N1186 X124.208 Y396.768
N1187 X125.193 Y397.022
N1188 X126.174 Y397.292
N1189 X127.15 Y397.576
N1190 X128.122 Y397.875
N1191 X129.089 Y398.19
N1192 X130.051 Y398.52
N1193 X131.008 Y398.864
N1194 X131.96 Y399.223
N1195 X132.906 Y399.598
N1196 X133.845 Y399.986
N1197 X134.779 Y400.39
N1198 X135.706 Y400.807
N1199 X136.627 Y401.239
N1200 X137.541 Y401.686
N1201 X138.448 Y402.146
N1202 X139.347 Y402.621
N1203 X140.239 Y403.109
N1204 X141.124 Y403.611
N1205 X142 Y404.127
N1206 X142.869 Y404.657
N1207 X143.729 Y405.2
N1208 X143.761 Y405.228
N1209 X143.783 Y405.264
N1210 X143.793 Y405.305
N1211 X143.79 Y405.348
N1212 X143.774 Y405.387
N1213 X143.748 Y405.42
N1214 X143.712 Y405.444
N1215 X143.671 Y405.456
N1216 X141.575 Y405.722
N1217 X139.478 Y405.978
N1218 X137.38 Y406.224
N1219 X135.697 Y406.41
N1220 X134.013 Y406.584
N1221 X132.327 Y406.745
N1222 X130.641 Y406.893
N1223 X128.953 Y407.031
N1224 X127.264 Y407.157
N1225 X125.574 Y407.271
N1226 X123.884 Y407.373
N1227 X122.207 Y407.464
N1228 X120.531 Y407.543
N1229 X118.853 Y407.61
N1230 X117.176 Y407.666
N1231 X115.528 Y407.71
N1232 X113.881 Y407.742
N1233 X112.233 Y407.764
N1234 X110.585 Y407.773
N1235 X108.983 Y407.772
N1236 X107.382 Y407.759
N1237 X105.78 Y407.736
N1238 X104.179 Y407.701
N1239 X103 Y407.668
N1240 X101.821 Y407.628
N1241 X101.655 Y407.629
N1242 X101.491 Y407.643
N1243 X101.328 Y407.672
N1244 X101.168 Y407.714
N1245 X101.012 Y407.769
N1246 X100.861 Y407.837
N1247 X100.716 Y407.917
N1248 X100.579 Y408.009
N1249 X100.45 Y408.113
N1250 X100.33 Y408.226
N1251 X100.219 Y408.35
N1252 X100.12 Y408.482
N1253 X100.032 Y408.622
N1254 X99.956 Y408.769
N1255 X99.88 Y408.916
N1256 X99.792 Y409.056
N1257 X99.693 Y409.189
N1258 X99.583 Y409.312
N1259 X99.463 Y409.426
N1260 X99.334 Y409.53
N1261 X99.196 Y409.622
N1262 X99.052 Y409.702
N1263 X98.901 Y409.77
N1264 X98.745 Y409.825
N1265 X98.584 Y409.867
N1266 X98.421 Y409.895
N1267 X98.256 Y409.909
N1268 X98.091 Y409.91
N1269 X97.904 Y409.902
N1270 X91.963 Y409.482
N1271 X86.29 Y408.895
N1272 X80.883 Y408.148
N1273 X75.736 Y407.242
N1274 X70.847 Y406.183
N1275 X68.279 Y405.515
N1276 X69.119 Y404.91
N1277 X69.967 Y404.318
N1278 X70.825 Y403.739
N1279 X71.692 Y403.173
N1280 X72.567 Y402.621
N1281 X73.45 Y402.082
N1282 X74.341 Y401.557
N1283 X75.241 Y401.045
N1284 X76.148 Y400.547
N1285 X77.062 Y400.062
N1286 X77.984 Y399.592
N1287 X78.913 Y399.136
N1288 X79.849 Y398.694
N1289 X80.791 Y398.267
N1290 X81.74 Y397.854
N1291 X82.695 Y397.455
N1292 X83.655 Y397.071
N1293 X84.622 Y396.702
N1294 X85.594 Y396.347
N1295 X86.572 Y396.008
N1296 X87.554 Y395.683
N1297 X88.542 Y395.373
N1298 X89.534 Y395.079
N1299 X90.53 Y394.799
N1300 X91.53 Y394.535
N1301 X92.535 Y394.286
N1302 X93.543 Y394.052
N1303 X94.554 Y393.834
N1304 X95.569 Y393.631
N1305 X96.587 Y393.444
N1306 X97.607 Y393.273
N1307 X98.63 Y393.116
N1308 X99.655 Y392.976
N1309 X100.683 Y392.851
N1310 X101.712 Y392.742
N1311 X102.742 Y392.648
N1312 X103.774 Y392.571
N1313 X104.807 Y392.509
N1314 X105.841 Y392.462
N1315 X106.875 Y392.432
N1316 X107.91 Y392.417
N1317 X108.945 Y392.418
N1318 X109.979 Y392.435
N1319 X111.013 Y392.468
N1320 X112.047 Y392.516
N1321 X113.08 Y392.58
N1322 X114.112 Y392.66
N1323 X115.142 Y392.756
N1324 X116.171 Y392.867
N1325 X117.198 Y392.994
N1326 X118.223 Y393.136
N1327 X119.245 Y393.295
N1328 X120.265 Y393.468
N1329 X121.283 Y393.658
N1330 X122.297 Y393.862
N1331 X123.308 Y394.083
N1332 X124.316 Y394.318
N1333 X125.32 Y394.569
N1334 X126.32 Y394.836
N1335 X127.315 Y395.117
N1336 X128.307 Y395.414
N1337 X129.293 Y395.725
N1338 X130.275 Y396.052
N1339 X131.252 Y396.394
N1340 X132.223 Y396.75
N1341 X133.189 Y397.122
N1342 X134.149 Y397.508
N1343 X135.104 Y397.908
N1344 X136.051 Y398.323
N1345 X136.993 Y398.753
N1346 X137.928 Y399.196
N1347 X138.856 Y399.654
N1348 X139.776 Y400.126
N1349 X140.69 Y400.612
N1350 X141.596 Y401.112
N1351 X142.494 Y401.626
N1352 X143.385 Y402.153
N1353 X144.267 Y402.694
N1354 X145.141 Y403.248
N1355 X146.006 Y403.816
N1356 X146.863 Y404.396
N1357 X147.71 Y404.99
N1358 X148.549 Y405.596
N1359 X149.378 Y406.216
N1360 X150.197 Y406.847
N1361 X144.387 Y407.788
N1362 X137.658 Y408.659
N1363 X130.849 Y409.335
N1364 X124.024 Y409.82
N1365 X117.249 Y410.115
N1366 X110.591 Y410.224
N1367 X104.116 Y410.151
N1368 X98.091 Y409.91
N1369 X98.01 Y409.913
N1370 X97.931 Y409.93
N1371 X97.856 Y409.959
N1372 X97.787 Y410.001
N1373 X97.725 Y410.053
N1374 X97.673 Y410.115
N1375 X97.632 Y410.184
N1376 X97.59 Y410.254
N1377 X97.538 Y410.315
N1378 X97.476 Y410.367
N1379 X97.405 Y410.408
N1380 X97.329 Y410.436
N1381 X97.25 Y410.45
N1382 X97.169 Y410.452
N1383 X91.911 Y410.08
N1384 X86.218 Y409.491
N1385 X80.79 Y408.741
N1386 X75.621 Y407.831
N1387 X70.708 Y406.767
N1388 X66.919 Y405.781
N1389 X67.75 Y405.159
N1390 X68.59 Y404.55
N1391 X69.439 Y403.953
N1392 X70.297 Y403.37
N1393 X71.164 Y402.799
N1394 X72.04 Y402.242
N1395 X72.924 Y401.698
N1396 X73.816 Y401.168
N1397 X74.716 Y400.651
N1398 X75.623 Y400.148
N1399 X76.539 Y399.659
N1400 X77.461 Y399.184
N1401 X78.391 Y398.722
N1402 X79.327 Y398.275
N1403 X80.27 Y397.842
N1404 X81.22 Y397.424
N1405 X82.176 Y397.02
N1406 X83.138 Y396.63
N1407 X84.105 Y396.255
N1408 X85.078 Y395.895
N1409 X86.057 Y395.549
N1410 X87.041 Y395.219
N1411 X88.029 Y394.903
N1412 X89.023 Y394.603
N1413 X90.02 Y394.317
N1414 X91.022 Y394.047
N1415 X92.028 Y393.792
N1416 X93.038 Y393.552
N1417 X94.051 Y393.327
N1418 X95.067 Y393.118
N1419 X96.087 Y392.924
N1420 X97.109 Y392.746
N1421 X98.134 Y392.583
N1422 X99.161 Y392.436
N1423 X100.191 Y392.304
N1424 X101.222 Y392.188
N1425 X102.255 Y392.088
N1426 X103.289 Y392.003
N1427 X104.325 Y391.934
N1428 X105.361 Y391.881
N1429 X106.398 Y391.844
N1430 X107.436 Y391.822
N1431 X108.473 Y391.816
N1432 X109.511 Y391.825
N1433 X110.549 Y391.851
N1434 X111.585 Y391.892
N1435 X112.622 Y391.948
N1436 X113.657 Y392.021
N1437 X114.691 Y392.109
N1438 X115.723 Y392.213
N1439 X116.754 Y392.332
N1440 X117.783 Y392.467
N1441 X118.81 Y392.618
N1442 X119.834 Y392.784
N1443 X120.856 Y392.966
N1444 X121.875 Y393.163
N1445 X122.891 Y393.376
N1446 X123.903 Y393.604
N1447 X124.912 Y393.847
N1448 X125.917 Y394.106
N1449 X126.918 Y394.379
N1450 X127.915 Y394.668
N1451 X128.907 Y394.972
N1452 X129.894 Y395.291
N1453 X130.877 Y395.625
N1454 X131.854 Y395.974
N1455 X132.826 Y396.337
N1456 X133.793 Y396.715
N1457 X134.753 Y397.108
N1458 X135.708 Y397.516
N1459 X136.656 Y397.937
N1460 X137.598 Y398.373
N1461 X138.533 Y398.824
N1462 X139.461 Y399.288
N1463 X140.382 Y399.767
N1464 X141.295 Y400.259
N1465 X142.201 Y400.765
N1466 X143.099 Y401.285
N1467 X143.989 Y401.818
N1468 X144.871 Y402.365
N1469 X145.745 Y402.925
N1470 X146.61 Y403.498
N1471 X147.466 Y404.085
N1472 X148.314 Y404.684
N1473 X149.152 Y405.296
N1474 X149.98 Y405.921
N1475 X150.8 Y406.558
N1476 X151.609 Y407.207
N1477 X151.075 Y407.313
N1478 X144.474 Y408.382
N1479 X137.726 Y409.255
N1480 X130.9 Y409.933
N1481 X124.058 Y410.419
N1482 X117.267 Y410.715
N1483 X110.592 Y410.824
N1484 X104.101 Y410.751
N1485 X97.871 Y410.501
N1486 X97.169 Y410.452
N1487 X96.958 Y410.429 Z13.979 F2000
N1488 X96.75 Y410.39 Z13.958
N1489 X96.545 Y410.337 Z13.937
N1490 X96.344 Y410.268 Z13.915
N1491 X96.149 Y410.184 Z13.894
N1492 X95.961 Y410.086 Z13.873
N1493 X95.781 Y409.975 Z13.852
N1494 X95.61 Y409.85 Z13.831
N1495 X95.448 Y409.713 Z13.81
N1496 X95.297 Y409.564 Z13.788
N1497 X95.157 Y409.405 Z13.767
N1498 X95.03 Y409.236 Z13.746
N1499 X94.915 Y409.057 Z13.725
N1500 X94.814 Y408.871 Z13.704
N1501 X94.728 Y408.677 Z13.683
N1502 X94.656 Y408.478 Z13.661
N1503 X94.598 Y408.274 Z13.64
N1504 X94.557 Y408.066 Z13.619
N1505 X94.53 Y407.856 Z13.598
N1506 X94.52 Y407.644 Z13.577
N1507 X94.525 Y407.432 Z13.556
N1508 X94.546 Y407.221 Z13.535
N1509 X94.583 Y407.012 Z13.513
N1510 X94.635 Y406.807 Z13.492
N1511 X94.702 Y406.606 Z13.471
N1512 X94.784 Y406.41 Z13.45
N1513 X94.88 Y406.221 Z13.429
N1514 X94.99 Y406.04 Z13.408
N1515 X95.113 Y405.868 Z13.386
N1516 X95.249 Y405.705 Z13.365
N1517 X95.396 Y405.552 Z13.344
N1518 X95.555 Y405.411 Z13.323
N1519 X95.723 Y405.283 Z13.302
N1520 X95.9 Y405.167 Z13.281
N1521 X96.086 Y405.064 Z13.259
N1522 X96.279 Y404.976 Z13.238
N1523 X96.477 Y404.902 Z13.217
N1524 X96.681 Y404.843 Z13.196
N1525 X96.889 Y404.8 Z13.175
N1526 X97.099 Y404.772 Z13.154
N1527 X97.31 Y404.759 Z13.133
N1528 X97.522 Y404.763 Z13.111
N1529 X97.733 Y404.782 Z13.09
N1530 X97.942 Y404.817 Z13.069
N1531 X98.148 Y404.867 Z13.048
N1532 X98.35 Y404.933 Z13.027
N1533 X108.085 Y408.498 Z11.992
N1534 X108.286 Y408.563 Z11.971
N1535 X108.492 Y408.614 Z11.95
N1536 X108.7 Y408.648 Z11.929
N1537 X108.911 Y408.668 Z11.908
N1538 X109.122 Y408.671 Z11.887
N1539 X109.333 Y408.659 Z11.866
N1540 X109.543 Y408.631 Z11.844
N1541 X109.75 Y408.588 Z11.823
N1542 X109.953 Y408.53 Z11.802
N1543 X110.152 Y408.457 Z11.781
N1544 X110.344 Y408.369 Z11.76
N1545 X110.529 Y408.267 Z11.739
N1546 X110.707 Y408.152 Z11.718
N1547 X110.875 Y408.023 Z11.697
N1548 X111.033 Y407.883 Z11.676
N1549 X111.181 Y407.731 Z11.654
N1550 X111.317 Y407.569 Z11.633
N1551 X111.44 Y407.398 Z11.612
N1552 X111.55 Y407.217 Z11.591
N1553 X111.647 Y407.029 Z11.57
N1554 X111.729 Y406.834 Z11.549
N1555 X111.797 Y406.634 Z11.528
N1556 X111.85 Y406.429 Z11.507
N1557 X111.887 Y406.221 Z11.486
N1558 X111.909 Y406.01 Z11.464
N1559 X111.915 Y405.799 Z11.443
N1560 X111.905 Y405.588 Z11.422
N1561 X111.88 Y405.378 Z11.401
N1562 X111.84 Y405.17 Z11.38
N1563 X111.784 Y404.966 Z11.359
N1564 X111.713 Y404.767 Z11.338
N1565 X111.627 Y404.574 Z11.317
N1566 X111.528 Y404.387 Z11.296
N1567 X111.414 Y404.208 Z11.274
N1568 X111.288 Y404.039 Z11.253
N1569 X111.15 Y403.879 Z11.232
N1570 X111 Y403.729 Z11.211
N1571 X110.84 Y403.592 Z11.19
N1572 X110.669 Y403.466 Z11.169
N1573 X110.49 Y403.354 Z11.148
N1574 X110.303 Y403.255 Z11.127
N1575 X110.109 Y403.17 Z11.106
N1576 X109.91 Y403.1 Z11.084
N1577 X109.706 Y403.045 Z11.063
N1578 X109.498 Y403.005 Z11.042
N1579 X109.288 Y402.981 Z11.021
N1580 X109.077 Y402.972 Z11
N1581 X107.485 Y402.96 F2500
N1582 X105.893 Y402.937
N1583 X104.302 Y402.902
N1584 X102.836 Y402.86
N1585 X101.371 Y402.809
N1586 X99.906 Y402.748
N1587 X98.442 Y402.677
N1588 X96.978 Y402.596
N1589 X95.514 Y402.501
N1590 X94.052 Y402.393
N1591 X92.591 Y402.273
N1592 X92.347 Y402.254
N1593 X92.102 Y402.24
N1594 X91.858 Y402.224
N1595 X91.614 Y402.203
N1596 X91.577 Y402.192
N1597 X91.546 Y402.17
N1598 X91.524 Y402.138
N1599 X91.514 Y402.101
N1600 X91.517 Y402.062
N1601 X91.533 Y402.027
N1602 X91.56 Y402
N1603 X91.595 Y401.983
N1604 X92.528 Y401.722
N1605 X93.465 Y401.476
N1606 X94.406 Y401.245
N1607 X95.351 Y401.03
N1608 X96.298 Y400.829
N1609 X97.249 Y400.644
N1610 X98.203 Y400.474
N1611 X99.16 Y400.319
N1612 X100.119 Y400.18
N1613 X101.079 Y400.056
N1614 X102.042 Y399.948
N1615 X103.007 Y399.855
N1616 X103.972 Y399.777
N1617 X104.939 Y399.715
N1618 X105.907 Y399.669
N1619 X106.875 Y399.638
N1620 X107.844 Y399.622
N1621 X108.813
N1622 X109.782 Y399.637
N1623 X110.75 Y399.668
N1624 X111.718 Y399.714
N1625 X112.685 Y399.775
N1626 X113.65 Y399.852
N1627 X114.615 Y399.944
N1628 X115.578 Y400.052
N1629 X116.539 Y400.175
N1630 X117.498 Y400.313
N1631 X118.454 Y400.467
N1632 X119.408 Y400.636
N1633 X120.359 Y400.82
N1634 X121.307 Y401.019
N1635 X122.252 Y401.233
N1636 X123.194 Y401.463
N1637 X124.131 Y401.707
N1638 X125.065 Y401.967
N1639 X125.994 Y402.241
N1640 X126.028 Y402.258
N1641 X126.054 Y402.286
N1642 X126.07 Y402.321
N1643 X126.072 Y402.36
N1644 X126.061 Y402.396
N1645 X126.039 Y402.427
N1646 X126.007 Y402.449
N1647 X125.969 Y402.458
N1648 X124.481 Y402.556
N1649 X122.993 Y402.64
N1650 X121.503 Y402.709
N1651 X119.268 Y402.795
N1652 X117.032 Y402.868
N1653 X115.418 Y402.911
N1654 X113.803 Y402.943
N1655 X112.188 Y402.963
N1656 X110.573 Y402.973
N1657 X109.077 Y402.972
N1658 X108.901 Y402.979
N1659 X108.727 Y403.002
N1660 X108.556 Y403.041
N1661 X108.388 Y403.095
N1662 X108.227 Y403.163
N1663 X108.072 Y403.246
N1664 X107.925 Y403.343
N1665 X107.788 Y403.452
N1666 X107.661 Y403.574
N1667 X107.545 Y403.706
N1668 X107.442 Y403.848
N1669 X107.352 Y403.999
N1670 X107.276 Y404.158
N1671 X107.206 Y404.305
N1672 X107.124 Y404.446
N1673 X107.029 Y404.58
N1674 X106.924 Y404.705
N1675 X106.809 Y404.82
N1676 X106.684 Y404.926
N1677 X106.551 Y405.021
N1678 X106.41 Y405.103
N1679 X106.263 Y405.174
N1680 X106.11 Y405.232
N1681 X105.953 Y405.277
N1682 X105.793 Y405.308
N1683 X105.63 Y405.326
N1684 X105.467 Y405.329
N1685 X104.241 Y405.302
N1686 X102.545 Y405.251
N1687 X100.849 Y405.187
N1688 X99.155 Y405.108
N1689 X97.46 Y405.014
N1690 X95.767 Y404.907
N1691 X94.075 Y404.785
N1692 X92.384 Y404.65
N1693 X91.042 Y404.527
N1694 X89.701 Y404.394
N1695 X88.361 Y404.251
N1696 X87.022 Y404.096
N1697 X85.239 Y403.877
N1698 X83.457 Y403.648
N1699 X81.676 Y403.407
N1700 X81.637 Y403.395
N1701 X81.603 Y403.371
N1702 X81.579 Y403.337
N1703 X81.566 Y403.298
N1704 Y403.256
N1705 X81.58 Y403.217
N1706 X81.605 Y403.184
N1707 X81.639 Y403.161
N1708 X82.474 Y402.776
N1709 X83.315 Y402.404
N1710 X84.161 Y402.045
N1711 X85.013 Y401.698
N1712 X85.869 Y401.364
N1713 X86.731 Y401.044
N1714 X87.597 Y400.736
N1715 X88.545 Y400.414
N1716 X89.499 Y400.107
N1717 X90.456 Y399.815
N1718 X91.419 Y399.538
N1719 X92.386 Y399.277
N1720 X93.356 Y399.031
N1721 X94.331 Y398.8
N1722 X95.309 Y398.585
N1723 X96.29 Y398.386
N1724 X97.274 Y398.202
N1725 X98.262 Y398.034
N1726 X99.251 Y397.882
N1727 X100.243 Y397.745
N1728 X101.237 Y397.624
N1729 X102.233 Y397.519
N1730 X103.23 Y397.429
N1731 X104.229 Y397.356
N1732 X105.229 Y397.298
N1733 X106.229 Y397.256
N1734 X107.23 Y397.231
N1735 X108.232 Y397.221
N1736 X109.233 Y397.227
N1737 X110.234 Y397.248
N1738 X111.235 Y397.286
N1739 X112.235 Y397.34
N1740 X113.234 Y397.409
N1741 X114.231 Y397.495
N1742 X115.228 Y397.596
N1743 X116.222 Y397.713
N1744 X117.215 Y397.846
N1745 X118.205 Y397.994
N1746 X119.193 Y398.158
N1747 X120.178 Y398.338
N1748 X121.16 Y398.534
N1749 X122.139 Y398.745
N1750 X123.114 Y398.971
N1751 X124.086 Y399.213
N1752 X125.054 Y399.471
N1753 X126.017 Y399.744
N1754 X126.976 Y400.032
N1755 X127.93 Y400.335
N1756 X128.88 Y400.653
N1757 X129.824 Y400.987
N1758 X130.763 Y401.335
N1759 X131.696 Y401.698
N1760 X132.623 Y402.076
N1761 X133.545 Y402.469
N1762 X134.459 Y402.876
N1763 X135.368 Y403.298
N1764 X136.269 Y403.734
N1765 X136.302 Y403.757
N1766 X136.326 Y403.79
N1767 X136.338 Y403.829
N1768 X136.337 Y403.87
N1769 X136.324 Y403.908
N1770 X136.299 Y403.94
N1771 X136.265 Y403.962
N1772 X136.226 Y403.972
N1773 X134.297 Y404.159
N1774 X132.368 Y404.335
N1775 X130.437 Y404.502
N1776 X128.766 Y404.638
N1777 X127.093 Y404.763
N1778 X125.42 Y404.876
N1779 X123.746 Y404.977
N1780 X122.086 Y405.067
N1781 X120.426 Y405.145
N1782 X118.765 Y405.212
N1783 X117.104 Y405.267
N1784 X115.473 Y405.31
N1785 X113.842 Y405.342
N1786 X112.21 Y405.363
N1787 X110.579 Y405.373
N1788 X108.875 Y405.371
N1789 X107.171 Y405.357
N1790 X105.467 Y405.329
N1791 X105.291 Y405.334
N1792 X105.117 Y405.354
N1793 X104.945 Y405.39
N1794 X104.777 Y405.441
N1795 X104.614 Y405.507
N1796 X104.458 Y405.588
N1797 X104.31 Y405.682
N1798 X104.171 Y405.789
N1799 X104.042 Y405.909
N1800 X103.925 Y406.039
N1801 X103.819 Y406.18
N1802 X103.727 Y406.329
N1803 X103.649 Y406.486
N1804 X103.576 Y406.633
N1805 X103.491 Y406.772
N1806 X103.395 Y406.904
N1807 X103.288 Y407.028
N1808 X103.171 Y407.141
N1809 X103.044 Y407.245
N1810 X102.91 Y407.337
N1811 X102.768 Y407.418
N1812 X102.619 Y407.486
N1813 X102.465 Y407.541
N1814 X102.308 Y407.584
N1815 X102.147 Y407.612
N1816 X101.984 Y407.627
N1817 X101.821 Y407.628
N1818 X100.56 Y407.578
N1819 X99.299 Y407.52
N1820 X98.039 Y407.456
N1821 X96.399 Y407.357
N1822 X94.76 Y407.245
N1823 X93.123 Y407.117
N1824 X91.486 Y406.976
N1825 X89.85 Y406.819
N1826 X88.217 Y406.648
N1827 X86.584 Y406.463
N1828 X85.095 Y406.275
N1829 X83.608 Y406.073
N1830 X82.123 Y405.856
N1831 X80.641 Y405.623
N1832 X79.161 Y405.376
N1833 X77.683 Y405.114
N1834 X76.208 Y404.837
N1835 X75.793 Y404.758
N1836 X75.376 Y404.684
N1837 X74.96 Y404.608
N1838 X74.546 Y404.523
N1839 X74.506 Y404.508
N1840 X74.471 Y404.482
N1841 X74.447 Y404.446
N1842 X74.433 Y404.405
N1843 X74.432 Y404.362
N1844 X74.444 Y404.32
N1845 X74.468 Y404.284
N1846 X74.501 Y404.256
N1847 X75.345 Y403.753
N1848 X76.197 Y403.263
N1849 X77.056 Y402.787
N1850 X77.922 Y402.323
N1851 X78.795 Y401.873
N1852 X79.675 Y401.437
N1853 X80.562 Y401.014
N1854 X81.455 Y400.604
N1855 X82.386 Y400.194
N1856 X83.322 Y399.797
N1857 X84.265 Y399.416
N1858 X85.214 Y399.049
N1859 X86.168 Y398.696
N1860 X87.127 Y398.359
N1861 X88.092 Y398.037
N1862 X89.061 Y397.729
N1863 X90.035 Y397.437
N1864 X91.014 Y397.16
N1865 X91.997 Y396.898
N1866 X92.983 Y396.652
N1867 X93.974 Y396.42
N1868 X94.968 Y396.205
N1869 X95.965 Y396.004
N1870 X96.965 Y395.82
N1871 X97.968 Y395.65
N1872 X98.973 Y395.497
N1873 X99.981 Y395.359
N1874 X100.991 Y395.236
N1875 X102.002 Y395.13
N1876 X103.015 Y395.039
N1877 X104.029 Y394.964
N1878 X105.045 Y394.904
N1879 X106.061 Y394.861
N1880 X107.077 Y394.833
N1881 X108.094 Y394.821
N1882 X109.111 Y394.825
N1883 X110.128 Y394.844
N1884 X111.145 Y394.88
N1885 X112.16 Y394.931
N1886 X113.175 Y394.998
N1887 X114.189 Y395.081
N1888 X115.201 Y395.179
N1889 X116.212 Y395.293
N1890 X117.221 Y395.423
N1891 X118.227 Y395.569
N1892 X119.231 Y395.73
N1893 X120.233 Y395.907
N1894 X121.232 Y396.099
N1895 X122.227 Y396.307
N1896 X123.219 Y396.53
N1897 X124.208 Y396.768
N1898 X125.193 Y397.022
N1899 X126.174 Y397.292
N1900 X127.15 Y397.576
N1901 X128.122 Y397.875
N1902 X129.089 Y398.19
N1903 X130.051 Y398.52
N1904 X131.008 Y398.864
N1905 X131.96 Y399.223
N1906 X132.906 Y399.598
N1907 X133.845 Y399.986
N1908 X134.779 Y400.39
N1909 X135.706 Y400.807
N1910 X136.627 Y401.239
N1911 X137.541 Y401.686
N1912 X138.448 Y402.146
N1913 X139.347 Y402.621
N1914 X140.239 Y403.109
N1915 X141.124 Y403.611
N1916 X142 Y404.127
N1917 X142.869 Y404.657
N1918 X143.729 Y405.2
N1919 X143.761 Y405.228
N1920 X143.783 Y405.264
N1921 X143.793 Y405.305
N1922 X143.79 Y405.348
N1923 X143.774 Y405.387
N1924 X143.748 Y405.42
N1925 X143.712 Y405.444
N1926 X143.671 Y405.456
N1927 X141.575 Y405.722
N1928 X139.478 Y405.978
N1929 X137.38 Y406.224
N1930 X135.697 Y406.41
N1931 X134.013 Y406.584
N1932 X132.327 Y406.745
N1933 X130.641 Y406.893
N1934 X128.953 Y407.031
N1935 X127.264 Y407.157
N1936 X125.574 Y407.271
N1937 X123.884 Y407.373
N1938 X122.207 Y407.464
N1939 X120.531 Y407.543
N1940 X118.853 Y407.61
N1941 X117.176 Y407.666
N1942 X115.528 Y407.71
N1943 X113.881 Y407.742
N1944 X112.233 Y407.764
N1945 X110.585 Y407.773
N1946 X108.983 Y407.772
N1947 X107.382 Y407.759
N1948 X105.78 Y407.736
N1949 X104.179 Y407.701
N1950 X103 Y407.668
N1951 X101.821 Y407.628
N1952 X101.655 Y407.629
N1953 X101.491 Y407.643
N1954 X101.328 Y407.672
N1955 X101.168 Y407.714
N1956 X101.012 Y407.769
N1957 X100.861 Y407.837
N1958 X100.716 Y407.917
N1959 X100.579 Y408.009
N1960 X100.45 Y408.113
N1961 X100.33 Y408.226
N1962 X100.219 Y408.35
N1963 X100.12 Y408.482
N1964 X100.032 Y408.622
N1965 X99.956 Y408.769
N1966 X99.88 Y408.916
N1967 X99.792 Y409.056
N1968 X99.693 Y409.189
N1969 X99.583 Y409.312
N1970 X99.463 Y409.426
N1971 X99.334 Y409.53
N1972 X99.196 Y409.622
N1973 X99.052 Y409.702
N1974 X98.901 Y409.77
N1975 X98.745 Y409.825
N1976 X98.584 Y409.867
N1977 X98.421 Y409.895
N1978 X98.256 Y409.909
N1979 X98.091 Y409.91
N1980 X97.904 Y409.902
N1981 X91.963 Y409.482
N1982 X86.29 Y408.895
N1983 X80.883 Y408.148
N1984 X75.736 Y407.242
N1985 X70.847 Y406.183
N1986 X68.279 Y405.515
N1987 X69.119 Y404.91
N1988 X69.967 Y404.318
N1989 X70.825 Y403.739
N1990 X71.692 Y403.173
N1991 X72.567 Y402.621
N1992 X73.45 Y402.082
N1993 X74.341 Y401.557
N1994 X75.241 Y401.045
N1995 X76.148 Y400.547
N1996 X77.062 Y400.062
N1997 X77.984 Y399.592
N1998 X78.913 Y399.136
N1999 X79.849 Y398.694
N2000 X80.791 Y398.267
N2001 X81.74 Y397.854
N2002 X82.695 Y397.455
N2003 X83.655 Y397.071
N2004 X84.622 Y396.702
N2005 X85.594 Y396.347
N2006 X86.572 Y396.008
N2007 X87.554 Y395.683
N2008 X88.542 Y395.373
N2009 X89.534 Y395.079
N2010 X90.53 Y394.799
N2011 X91.53 Y394.535
N2012 X92.535 Y394.286
N2013 X93.543 Y394.052
N2014 X94.554 Y393.834
N2015 X95.569 Y393.631
N2016 X96.587 Y393.444
N2017 X97.607 Y393.273
N2018 X98.63 Y393.116
N2019 X99.655 Y392.976
N2020 X100.683 Y392.851
N2021 X101.712 Y392.742
N2022 X102.742 Y392.648
N2023 X103.774 Y392.571
N2024 X104.807 Y392.509
N2025 X105.841 Y392.462
N2026 X106.875 Y392.432
N2027 X107.91 Y392.417
N2028 X108.945 Y392.418
N2029 X109.979 Y392.435
N2030 X111.013 Y392.468
N2031 X112.047 Y392.516
N2032 X113.08 Y392.58
N2033 X114.112 Y392.66
N2034 X115.142 Y392.756
N2035 X116.171 Y392.867
N2036 X117.198 Y392.994
N2037 X118.223 Y393.136
N2038 X119.245 Y393.295
N2039 X120.265 Y393.468
N2040 X121.283 Y393.658
N2041 X122.297 Y393.862
N2042 X123.308 Y394.083
N2043 X124.316 Y394.318
N2044 X125.32 Y394.569
N2045 X126.32 Y394.836
N2046 X127.315 Y395.117
N2047 X128.307 Y395.414
N2048 X129.293 Y395.725
N2049 X130.275 Y396.052
N2050 X131.252 Y396.394
N2051 X132.223 Y396.75
N2052 X133.189 Y397.122
N2053 X134.149 Y397.508
N2054 X135.104 Y397.908
N2055 X136.051 Y398.323
N2056 X136.993 Y398.753
N2057 X137.928 Y399.196
N2058 X138.856 Y399.654
N2059 X139.776 Y400.126
N2060 X140.69 Y400.612
N2061 X141.596 Y401.112
N2062 X142.494 Y401.626
N2063 X143.385 Y402.153
N2064 X144.267 Y402.694
N2065 X145.141 Y403.248
N2066 X146.006 Y403.816
N2067 X146.863 Y404.396
N2068 X147.71 Y404.99
N2069 X148.549 Y405.596
N2070 X149.378 Y406.216
N2071 X150.197 Y406.847
N2072 X144.387 Y407.788
N2073 X137.658 Y408.659
N2074 X130.849 Y409.335
N2075 X124.024 Y409.82
N2076 X117.249 Y410.115
N2077 X110.591 Y410.224
N2078 X104.116 Y410.151
N2079 X98.091 Y409.91
N2080 X98.01 Y409.913
N2081 X97.931 Y409.93
N2082 X97.856 Y409.959
N2083 X97.787 Y410.001
N2084 X97.725 Y410.053
N2085 X97.673 Y410.115
N2086 X97.632 Y410.184
N2087 X97.59 Y410.254
N2088 X97.538 Y410.315
N2089 X97.476 Y410.367
N2090 X97.405 Y410.408
N2091 X97.329 Y410.436
N2092 X97.25 Y410.45
N2093 X97.169 Y410.452
N2094 X91.911 Y410.08
N2095 X86.218 Y409.491
N2096 X80.79 Y408.741
N2097 X75.621 Y407.831
N2098 X70.708 Y406.767
N2099 X66.919 Y405.781
N2100 X67.75 Y405.159
N2101 X68.59 Y404.55
N2102 X69.439 Y403.953
N2103 X70.297 Y403.37
N2104 X71.164 Y402.799
N2105 X72.04 Y402.242
N2106 X72.924 Y401.698
N2107 X73.816 Y401.168
N2108 X74.716 Y400.651
N2109 X75.623 Y400.148
N2110 X76.539 Y399.659
N2111 X77.461 Y399.184
N2112 X78.391 Y398.722
N2113 X79.327 Y398.275
N2114 X80.27 Y397.842
N2115 X81.22 Y397.424
N2116 X82.176 Y397.02
N2117 X83.138 Y396.63
N2118 X84.105 Y396.255
N2119 X85.078 Y395.895
N2120 X86.057 Y395.549
N2121 X87.041 Y395.219
N2122 X88.029 Y394.903
N2123 X89.023 Y394.603
N2124 X90.02 Y394.317
N2125 X91.022 Y394.047
N2126 X92.028 Y393.792
N2127 X93.038 Y393.552
N2128 X94.051 Y393.327
N2129 X95.067 Y393.118
N2130 X96.087 Y392.924
N2131 X97.109 Y392.746
N2132 X98.134 Y392.583
N2133 X99.161 Y392.436
N2134 X100.191 Y392.304
N2135 X101.222 Y392.188
N2136 X102.255 Y392.088
N2137 X103.289 Y392.003
N2138 X104.325 Y391.934
N2139 X105.361 Y391.881
N2140 X106.398 Y391.844
N2141 X107.436 Y391.822
N2142 X108.473 Y391.816
N2143 X109.511 Y391.825
N2144 X110.549 Y391.851
N2145 X111.585 Y391.892
N2146 X112.622 Y391.948
N2147 X113.657 Y392.021
N2148 X114.691 Y392.109
N2149 X115.723 Y392.213
N2150 X116.754 Y392.332
N2151 X117.783 Y392.467
N2152 X118.81 Y392.618
N2153 X119.834 Y392.784
N2154 X120.856 Y392.966
N2155 X121.875 Y393.163
N2156 X122.891 Y393.376
N2157 X123.903 Y393.604
N2158 X124.912 Y393.847
N2159 X125.917 Y394.106
N2160 X126.918 Y394.379
N2161 X127.915 Y394.668
N2162 X128.907 Y394.972
N2163 X129.894 Y395.291
N2164 X130.877 Y395.625
N2165 X131.854 Y395.974
N2166 X132.826 Y396.337
N2167 X133.793 Y396.715
N2168 X134.753 Y397.108
N2169 X135.708 Y397.516
N2170 X136.656 Y397.937
N2171 X137.598 Y398.373
N2172 X138.533 Y398.824
N2173 X139.461 Y399.288
N2174 X140.382 Y399.767
N2175 X141.295 Y400.259
N2176 X142.201 Y400.765
N2177 X143.099 Y401.285
N2178 X143.989 Y401.818
N2179 X144.871 Y402.365
N2180 X145.745 Y402.925
N2181 X146.61 Y403.498
N2182 X147.466 Y404.085
N2183 X148.314 Y404.684
N2184 X149.152 Y405.296
N2185 X149.98 Y405.921
N2186 X150.8 Y406.558
N2187 X151.609 Y407.207
N2188 X151.075 Y407.313
N2189 X144.474 Y408.382
N2190 X137.726 Y409.255
N2191 X130.9 Y409.933
N2192 X124.058 Y410.419
N2193 X117.267 Y410.715
N2194 X110.592 Y410.824
N2195 X104.101 Y410.751
N2196 X97.871 Y410.501
N2197 X97.169 Y410.452
N2198 X96.958 Y410.429 Z10.993 F2000
N2199 X96.75 Y410.39 Z10.986
N2200 X96.545 Y410.337 Z10.979
N2201 X96.344 Y410.268 Z10.972
N2202 X96.149 Y410.184 Z10.965
N2203 X95.961 Y410.086 Z10.958
N2204 X95.781 Y409.975 Z10.951
N2205 X95.61 Y409.85 Z10.944
N2206 X95.448 Y409.713 Z10.937
N2207 X95.297 Y409.564 Z10.929
N2208 X95.157 Y409.405 Z10.922
N2209 X95.03 Y409.236 Z10.915
N2210 X94.915 Y409.057 Z10.908
N2211 X94.814 Y408.871 Z10.901
N2212 X94.728 Y408.677 Z10.894
N2213 X94.656 Y408.478 Z10.887
N2214 X94.598 Y408.274 Z10.88
N2215 X94.557 Y408.066 Z10.873
N2216 X94.53 Y407.856 Z10.866
N2217 X94.52 Y407.644 Z10.859
N2218 X94.525 Y407.432 Z10.852
N2219 X94.546 Y407.221 Z10.845
N2220 X94.583 Y407.012 Z10.838
N2221 X94.635 Y406.807 Z10.831
N2222 X94.702 Y406.606 Z10.824
N2223 X94.784 Y406.41 Z10.817
N2224 X94.88 Y406.221 Z10.81
N2225 X94.99 Y406.04 Z10.803
N2226 X95.113 Y405.868 Z10.795
N2227 X95.249 Y405.705 Z10.788
N2228 X95.396 Y405.552 Z10.781
N2229 X95.555 Y405.411 Z10.774
N2230 X95.723 Y405.283 Z10.767
N2231 X95.9 Y405.167 Z10.76
N2232 X96.086 Y405.064 Z10.753
N2233 X96.279 Y404.976 Z10.746
N2234 X96.477 Y404.902 Z10.739
N2235 X96.681 Y404.843 Z10.732
N2236 X96.889 Y404.8 Z10.725
N2237 X97.099 Y404.772 Z10.718
N2238 X97.31 Y404.759 Z10.711
N2239 X97.522 Y404.763 Z10.704
N2240 X97.733 Y404.782 Z10.697
N2241 X97.942 Y404.817 Z10.69
N2242 X98.148 Y404.867 Z10.683
N2243 X98.35 Y404.933 Z10.676
N2244 X108.085 Y408.498 Z10.331
N2245 X108.286 Y408.563 Z10.324
N2246 X108.492 Y408.614 Z10.317
N2247 X108.7 Y408.648 Z10.31
N2248 X108.911 Y408.668 Z10.303
N2249 X109.122 Y408.671 Z10.296
N2250 X109.333 Y408.659 Z10.289
N2251 X109.543 Y408.631 Z10.281
N2252 X109.75 Y408.588 Z10.274
N2253 X109.953 Y408.53 Z10.267
N2254 X110.152 Y408.457 Z10.26
N2255 X110.344 Y408.369 Z10.253
N2256 X110.529 Y408.267 Z10.246
N2257 X110.707 Y408.152 Z10.239
N2258 X110.875 Y408.023 Z10.232
N2259 X111.033 Y407.883 Z10.225
N2260 X111.181 Y407.731 Z10.218
N2261 X111.317 Y407.569 Z10.211
N2262 X111.44 Y407.398 Z10.204
N2263 X111.55 Y407.217 Z10.197
N2264 X111.647 Y407.029 Z10.19
N2265 X111.729 Y406.834 Z10.183
N2266 X111.797 Y406.634 Z10.176
N2267 X111.85 Y406.429 Z10.169
N2268 X111.887 Y406.221 Z10.162
N2269 X111.909 Y406.01 Z10.155
N2270 X111.915 Y405.799 Z10.148
N2271 X111.905 Y405.588 Z10.141
N2272 X111.88 Y405.378 Z10.134
N2273 X111.84 Y405.17 Z10.127
N2274 X111.784 Y404.966 Z10.12
N2275 X111.713 Y404.767 Z10.113
N2276 X111.627 Y404.574 Z10.106
N2277 X111.528 Y404.387 Z10.099
N2278 X111.414 Y404.208 Z10.091
N2279 X111.288 Y404.039 Z10.084
N2280 X111.15 Y403.879 Z10.077
N2281 X111 Y403.729 Z10.07
N2282 X110.84 Y403.592 Z10.063
N2283 X110.669 Y403.466 Z10.056
N2284 X110.49 Y403.354 Z10.049
N2285 X110.303 Y403.255 Z10.042
N2286 X110.109 Y403.17 Z10.035
N2287 X109.91 Y403.1 Z10.028
N2288 X109.706 Y403.045 Z10.021
N2289 X109.498 Y403.005 Z10.014
N2290 X109.288 Y402.981 Z10.007
N2291 X109.077 Y402.972 Z10
N2292 X107.485 Y402.96 F2500
N2293 X105.893 Y402.937
N2294 X104.302 Y402.902
N2295 X102.836 Y402.86
N2296 X101.371 Y402.809
N2297 X99.906 Y402.748
N2298 X98.442 Y402.677
N2299 X96.978 Y402.596
N2300 X95.514 Y402.501
N2301 X94.052 Y402.393
N2302 X92.591 Y402.273
N2303 X92.347 Y402.254
N2304 X92.102 Y402.24
N2305 X91.858 Y402.224
N2306 X91.614 Y402.203
N2307 X91.577 Y402.192
N2308 X91.546 Y402.17
N2309 X91.524 Y402.138
N2310 X91.514 Y402.101
N2311 X91.517 Y402.062
N2312 X91.533 Y402.027
N2313 X91.56 Y402
N2314 X91.595 Y401.983
N2315 X92.528 Y401.722
N2316 X93.465 Y401.476
N2317 X94.406 Y401.245
N2318 X95.351 Y401.03
N2319 X96.298 Y400.829
N2320 X97.249 Y400.644
N2321 X98.203 Y400.474
N2322 X99.16 Y400.319
N2323 X100.119 Y400.18
N2324 X101.079 Y400.056
N2325 X102.042 Y399.948
N2326 X103.007 Y399.855
N2327 X103.972 Y399.777
N2328 X104.939 Y399.715
N2329 X105.907 Y399.669
N2330 X106.875 Y399.638
N2331 X107.844 Y399.622
N2332 X108.813
N2333 X109.782 Y399.637
N2334 X110.75 Y399.668
N2335 X111.718 Y399.714
N2336 X112.685 Y399.775
N2337 X113.65 Y399.852
N2338 X114.615 Y399.944
N2339 X115.578 Y400.052
N2340 X116.539 Y400.175
N2341 X117.498 Y400.313
N2342 X118.454 Y400.467
N2343 X119.408 Y400.636
N2344 X120.359 Y400.82
N2345 X121.307 Y401.019
N2346 X122.252 Y401.233
N2347 X123.194 Y401.463
N2348 X124.131 Y401.707
N2349 X125.065 Y401.967
N2350 X125.994 Y402.241
N2351 X126.028 Y402.258
N2352 X126.054 Y402.286
N2353 X126.07 Y402.321
N2354 X126.072 Y402.36
N2355 X126.061 Y402.396
N2356 X126.039 Y402.427
N2357 X126.007 Y402.449
N2358 X125.969 Y402.458
N2359 X124.481 Y402.556
N2360 X122.993 Y402.64
N2361 X121.503 Y402.709
N2362 X119.268 Y402.795
N2363 X117.032 Y402.868
N2364 X115.418 Y402.911
N2365 X113.803 Y402.943
N2366 X112.188 Y402.963
N2367 X110.573 Y402.973
N2368 X109.077 Y402.972
N2369 X108.901 Y402.979
N2370 X108.727 Y403.002
N2371 X108.556 Y403.041
N2372 X108.388 Y403.095
N2373 X108.227 Y403.163
N2374 X108.072 Y403.246
N2375 X107.925 Y403.343
N2376 X107.788 Y403.452
N2377 X107.661 Y403.574
N2378 X107.545 Y403.706
N2379 X107.442 Y403.848
N2380 X107.352 Y403.999
N2381 X107.276 Y404.158
N2382 X107.206 Y404.305
N2383 X107.124 Y404.446
N2384 X107.029 Y404.58
N2385 X106.924 Y404.705
N2386 X106.809 Y404.82
N2387 X106.684 Y404.926
N2388 X106.551 Y405.021
N2389 X106.41 Y405.103
N2390 X106.263 Y405.174
N2391 X106.11 Y405.232
N2392 X105.953 Y405.277
N2393 X105.793 Y405.308
N2394 X105.63 Y405.326
N2395 X105.467 Y405.329
N2396 X104.241 Y405.302
N2397 X102.545 Y405.251
N2398 X100.849 Y405.187
N2399 X99.155 Y405.108
N2400 X97.46 Y405.014
N2401 X95.767 Y404.907
N2402 X94.075 Y404.785
N2403 X92.384 Y404.65
N2404 X91.042 Y404.527
N2405 X89.701 Y404.394
N2406 X88.361 Y404.251
N2407 X87.022 Y404.096
N2408 X85.239 Y403.877
N2409 X83.457 Y403.648
N2410 X81.676 Y403.407
N2411 X81.637 Y403.395
N2412 X81.603 Y403.371
N2413 X81.579 Y403.337
N2414 X81.566 Y403.298
N2415 Y403.256
N2416 X81.58 Y403.217
N2417 X81.605 Y403.184
N2418 X81.639 Y403.161
N2419 X82.474 Y402.776
N2420 X83.315 Y402.404
N2421 X84.161 Y402.045
N2422 X85.013 Y401.698
N2423 X85.869 Y401.364
N2424 X86.731 Y401.044
N2425 X87.597 Y400.736
N2426 X88.545 Y400.414
N2427 X89.499 Y400.107
N2428 X90.456 Y399.815
N2429 X91.419 Y399.538
N2430 X92.386 Y399.277
N2431 X93.356 Y399.031
N2432 X94.331 Y398.8
N2433 X95.309 Y398.585
N2434 X96.29 Y398.386
N2435 X97.274 Y398.202
N2436 X98.262 Y398.034
N2437 X99.251 Y397.882
N2438 X100.243 Y397.745
N2439 X101.237 Y397.624
N2440 X102.233 Y397.519
N2441 X103.23 Y397.429
N2442 X104.229 Y397.356
N2443 X105.229 Y397.298
N2444 X106.229 Y397.256
N2445 X107.23 Y397.231
N2446 X108.232 Y397.221
N2447 X109.233 Y397.227
N2448 X110.234 Y397.248
N2449 X111.235 Y397.286
N2450 X112.235 Y397.34
N2451 X113.234 Y397.409
N2452 X114.231 Y397.495
N2453 X115.228 Y397.596
N2454 X116.222 Y397.713
N2455 X117.215 Y397.846
N2456 X118.205 Y397.994
N2457 X119.193 Y398.158
N2458 X120.178 Y398.338
N2459 X121.16 Y398.534
N2460 X122.139 Y398.745
N2461 X123.114 Y398.971
N2462 X124.086 Y399.213
N2463 X125.054 Y399.471
N2464 X126.017 Y399.744
N2465 X126.976 Y400.032
N2466 X127.93 Y400.335
N2467 X128.88 Y400.653
N2468 X129.824 Y400.987
N2469 X130.763 Y401.335
N2470 X131.696 Y401.698
N2471 X132.623 Y402.076
N2472 X133.545 Y402.469
N2473 X134.459 Y402.876
N2474 X135.368 Y403.298
N2475 X136.269 Y403.734
N2476 X136.302 Y403.757
N2477 X136.326 Y403.79
N2478 X136.338 Y403.829
N2479 X136.337 Y403.87
N2480 X136.324 Y403.908
N2481 X136.299 Y403.94
N2482 X136.265 Y403.962
N2483 X136.226 Y403.972
N2484 X134.297 Y404.159
N2485 X132.368 Y404.335
N2486 X130.437 Y404.502
N2487 X128.766 Y404.638
N2488 X127.093 Y404.763
N2489 X125.42 Y404.876
N2490 X123.746 Y404.977
N2491 X122.086 Y405.067
N2492 X120.426 Y405.145
N2493 X118.765 Y405.212
N2494 X117.104 Y405.267
N2495 X115.473 Y405.31
N2496 X113.842 Y405.342
N2497 X112.21 Y405.363
N2498 X110.579 Y405.373
N2499 X108.875 Y405.371
N2500 X107.171 Y405.357
N2501 X105.467 Y405.329
N2502 X105.291 Y405.334
N2503 X105.117 Y405.354
N2504 X104.945 Y405.39
N2505 X104.777 Y405.441
N2506 X104.614 Y405.507
N2507 X104.458 Y405.588
N2508 X104.31 Y405.682
N2509 X104.171 Y405.789
N2510 X104.042 Y405.909
N2511 X103.925 Y406.039
N2512 X103.819 Y406.18
N2513 X103.727 Y406.329
N2514 X103.649 Y406.486
N2515 X103.576 Y406.633
N2516 X103.491 Y406.772
N2517 X103.395 Y406.904
N2518 X103.288 Y407.028
N2519 X103.171 Y407.141
N2520 X103.044 Y407.245
N2521 X102.91 Y407.337
N2522 X102.768 Y407.418
N2523 X102.619 Y407.486
N2524 X102.465 Y407.541
N2525 X102.308 Y407.584
N2526 X102.147 Y407.612
N2527 X101.984 Y407.627
N2528 X101.821 Y407.628
N2529 X100.56 Y407.578
N2530 X99.299 Y407.52
N2531 X98.039 Y407.456
N2532 X96.399 Y407.357
N2533 X94.76 Y407.245
N2534 X93.123 Y407.117
N2535 X91.486 Y406.976
N2536 X89.85 Y406.819
N2537 X88.217 Y406.648
N2538 X86.584 Y406.463
N2539 X85.095 Y406.275
N2540 X83.608 Y406.073
N2541 X82.123 Y405.856
N2542 X80.641 Y405.623
N2543 X79.161 Y405.376
N2544 X77.683 Y405.114
N2545 X76.208 Y404.837
N2546 X75.793 Y404.758
N2547 X75.376 Y404.684
N2548 X74.96 Y404.608
N2549 X74.546 Y404.523
N2550 X74.506 Y404.508
N2551 X74.471 Y404.482
N2552 X74.447 Y404.446
N2553 X74.433 Y404.405
N2554 X74.432 Y404.362
N2555 X74.444 Y404.32
N2556 X74.468 Y404.284
N2557 X74.501 Y404.256
N2558 X75.345 Y403.753
N2559 X76.197 Y403.263
N2560 X77.056 Y402.787
N2561 X77.922 Y402.323
N2562 X78.795 Y401.873
N2563 X79.675 Y401.437
N2564 X80.562 Y401.014
N2565 X81.455 Y400.604
N2566 X82.386 Y400.194
N2567 X83.322 Y399.797
N2568 X84.265 Y399.416
N2569 X85.214 Y399.049
N2570 X86.168 Y398.696
N2571 X87.127 Y398.359
N2572 X88.092 Y398.037
N2573 X89.061 Y397.729
N2574 X90.035 Y397.437
N2575 X91.014 Y397.16
N2576 X91.997 Y396.898
N2577 X92.983 Y396.652
N2578 X93.974 Y396.42
N2579 X94.968 Y396.205
N2580 X95.965 Y396.004
N2581 X96.965 Y395.82
N2582 X97.968 Y395.65
N2583 X98.973 Y395.497
N2584 X99.981 Y395.359
N2585 X100.991 Y395.236
N2586 X102.002 Y395.13
N2587 X103.015 Y395.039
N2588 X104.029 Y394.964
N2589 X105.045 Y394.904
N2590 X106.061 Y394.861
N2591 X107.077 Y394.833
N2592 X108.094 Y394.821
N2593 X109.111 Y394.825
N2594 X110.128 Y394.844
N2595 X111.145 Y394.88
N2596 X112.16 Y394.931
N2597 X113.175 Y394.998
N2598 X114.189 Y395.081
N2599 X115.201 Y395.179
N2600 X116.212 Y395.293
N2601 X117.221 Y395.423
N2602 X118.227 Y395.569
N2603 X119.231 Y395.73
N2604 X120.233 Y395.907
N2605 X121.232 Y396.099
N2606 X122.227 Y396.307
N2607 X123.219 Y396.53
N2608 X124.208 Y396.768
N2609 X125.193 Y397.022
N2610 X126.174 Y397.292
N2611 X127.15 Y397.576
N2612 X128.122 Y397.875
N2613 X129.089 Y398.19
N2614 X130.051 Y398.52
N2615 X131.008 Y398.864
N2616 X131.96 Y399.223
N2617 X132.906 Y399.598
N2618 X133.845 Y399.986
N2619 X134.779 Y400.39
N2620 X135.706 Y400.807
N2621 X136.627 Y401.239
N2622 X137.541 Y401.686
N2623 X138.448 Y402.146
N2624 X139.347 Y402.621
N2625 X140.239 Y403.109
N2626 X141.124 Y403.611
N2627 X142 Y404.127
N2628 X142.869 Y404.657
N2629 X143.729 Y405.2
N2630 X143.761 Y405.228
N2631 X143.783 Y405.264
N2632 X143.793 Y405.305
N2633 X143.79 Y405.348
N2634 X143.774 Y405.387
N2635 X143.748 Y405.42
N2636 X143.712 Y405.444
N2637 X143.671 Y405.456
N2638 X141.575 Y405.722
N2639 X139.478 Y405.978
N2640 X137.38 Y406.224
N2641 X135.697 Y406.41
N2642 X134.013 Y406.584
N2643 X132.327 Y406.745
N2644 X130.641 Y406.893
N2645 X128.953 Y407.031
N2646 X127.264 Y407.157
N2647 X125.574 Y407.271
N2648 X123.884 Y407.373
N2649 X122.207 Y407.464
N2650 X120.531 Y407.543
N2651 X118.853 Y407.61
N2652 X117.176 Y407.666
N2653 X115.528 Y407.71
N2654 X113.881 Y407.742
N2655 X112.233 Y407.764
N2656 X110.585 Y407.773
N2657 X108.983 Y407.772
N2658 X107.382 Y407.759
N2659 X105.78 Y407.736
N2660 X104.179 Y407.701
N2661 X103 Y407.668
N2662 X101.821 Y407.628
N2663 X101.655 Y407.629
N2664 X101.491 Y407.643
N2665 X101.328 Y407.672
N2666 X101.168 Y407.714
N2667 X101.012 Y407.769
N2668 X100.861 Y407.837
N2669 X100.716 Y407.917
N2670 X100.579 Y408.009
N2671 X100.45 Y408.113
N2672 X100.33 Y408.226
N2673 X100.219 Y408.35
N2674 X100.12 Y408.482
N2675 X100.032 Y408.622
N2676 X99.956 Y408.769
N2677 X99.88 Y408.916
N2678 X99.792 Y409.056
N2679 X99.693 Y409.189
N2680 X99.583 Y409.312
N2681 X99.463 Y409.426
N2682 X99.334 Y409.53
N2683 X99.196 Y409.622
N2684 X99.052 Y409.702
N2685 X98.901 Y409.77
N2686 X98.745 Y409.825
N2687 X98.584 Y409.867
N2688 X98.421 Y409.895
N2689 X98.256 Y409.909
N2690 X98.091 Y409.91
N2691 X97.904 Y409.902
N2692 X91.963 Y409.482
N2693 X86.29 Y408.895
N2694 X80.883 Y408.148
N2695 X75.736 Y407.242
N2696 X70.847 Y406.183
N2697 X68.279 Y405.515
N2698 X69.119 Y404.91
N2699 X69.967 Y404.318
N2700 X70.825 Y403.739
N2701 X71.692 Y403.173
N2702 X72.567 Y402.621
N2703 X73.45 Y402.082
N2704 X74.341 Y401.557
N2705 X75.241 Y401.045
N2706 X76.148 Y400.547
N2707 X77.062 Y400.062
N2708 X77.984 Y399.592
N2709 X78.913 Y399.136
N2710 X79.849 Y398.694
N2711 X80.791 Y398.267
N2712 X81.74 Y397.854
N2713 X82.695 Y397.455
N2714 X83.655 Y397.071
N2715 X84.622 Y396.702
N2716 X85.594 Y396.347
N2717 X86.572 Y396.008
N2718 X87.554 Y395.683
N2719 X88.542 Y395.373
N2720 X89.534 Y395.079
N2721 X90.53 Y394.799
N2722 X91.53 Y394.535
N2723 X92.535 Y394.286
N2724 X93.543 Y394.052
N2725 X94.554 Y393.834
N2726 X95.569 Y393.631
N2727 X96.587 Y393.444
N2728 X97.607 Y393.273
N2729 X98.63 Y393.116
N2730 X99.655 Y392.976
N2731 X100.683 Y392.851
N2732 X101.712 Y392.742
N2733 X102.742 Y392.648
N2734 X103.774 Y392.571
N2735 X104.807 Y392.509
N2736 X105.841 Y392.462
N2737 X106.875 Y392.432
N2738 X107.91 Y392.417
N2739 X108.945 Y392.418
N2740 X109.979 Y392.435
N2741 X111.013 Y392.468
N2742 X112.047 Y392.516
N2743 X113.08 Y392.58
N2744 X114.112 Y392.66
N2745 X115.142 Y392.756
N2746 X116.171 Y392.867
N2747 X117.198 Y392.994
N2748 X118.223 Y393.136
N2749 X119.245 Y393.295
N2750 X120.265 Y393.468
N2751 X121.283 Y393.658
N2752 X122.297 Y393.862
N2753 X123.308 Y394.083
N2754 X124.316 Y394.318
N2755 X125.32 Y394.569
N2756 X126.32 Y394.836
N2757 X127.315 Y395.117
N2758 X128.307 Y395.414
N2759 X129.293 Y395.725
N2760 X130.275 Y396.052
N2761 X131.252 Y396.394
N2762 X132.223 Y396.75
N2763 X133.189 Y397.122
N2764 X134.149 Y397.508
N2765 X135.104 Y397.908
N2766 X136.051 Y398.323
N2767 X136.993 Y398.753
N2768 X137.928 Y399.196
N2769 X138.856 Y399.654
N2770 X139.776 Y400.126
N2771 X140.69 Y400.612
N2772 X141.596 Y401.112
N2773 X142.494 Y401.626
N2774 X143.385 Y402.153
N2775 X144.267 Y402.694
N2776 X145.141 Y403.248
N2777 X146.006 Y403.816
N2778 X146.863 Y404.396
N2779 X147.71 Y404.99
N2780 X148.549 Y405.596
N2781 X149.378 Y406.216
N2782 X150.197 Y406.847
N2783 X144.387 Y407.788
N2784 X137.658 Y408.659
N2785 X130.849 Y409.335
N2786 X124.024 Y409.82
N2787 X117.249 Y410.115
N2788 X110.591 Y410.224
N2789 X104.116 Y410.151
N2790 X98.091 Y409.91
N2791 X98.01 Y409.913
N2792 X97.931 Y409.93
N2793 X97.856 Y409.959
N2794 X97.787 Y410.001
N2795 X97.725 Y410.053
N2796 X97.673 Y410.115
N2797 X97.632 Y410.184
N2798 X97.59 Y410.254
N2799 X97.538 Y410.315
N2800 X97.476 Y410.367
N2801 X97.405 Y410.408
N2802 X97.329 Y410.436
N2803 X97.25 Y410.45
N2804 X97.169 Y410.452
N2805 X91.911 Y410.08
N2806 X86.218 Y409.491
N2807 X80.79 Y408.741
N2808 X75.621 Y407.831
N2809 X70.708 Y406.767
N2810 X66.919 Y405.781
N2811 X67.75 Y405.159
N2812 X68.59 Y404.55
N2813 X69.439 Y403.953
N2814 X70.297 Y403.37
N2815 X71.164 Y402.799
N2816 X72.04 Y402.242
N2817 X72.924 Y401.698
N2818 X73.816 Y401.168
N2819 X74.716 Y400.651
N2820 X75.623 Y400.148
N2821 X76.539 Y399.659
N2822 X77.461 Y399.184
N2823 X78.391 Y398.722
N2824 X79.327 Y398.275
N2825 X80.27 Y397.842
N2826 X81.22 Y397.424
N2827 X82.176 Y397.02
N2828 X83.138 Y396.63
N2829 X84.105 Y396.255
N2830 X85.078 Y395.895
N2831 X86.057 Y395.549
N2832 X87.041 Y395.219
N2833 X88.029 Y394.903
N2834 X89.023 Y394.603
N2835 X90.02 Y394.317
N2836 X91.022 Y394.047
N2837 X92.028 Y393.792
N2838 X93.038 Y393.552
N2839 X94.051 Y393.327
N2840 X95.067 Y393.118
N2841 X96.087 Y392.924
N2842 X97.109 Y392.746
N2843 X98.134 Y392.583
N2844 X99.161 Y392.436
N2845 X100.191 Y392.304
N2846 X101.222 Y392.188
N2847 X102.255 Y392.088
N2848 X103.289 Y392.003
N2849 X104.325 Y391.934
N2850 X105.361 Y391.881
N2851 X106.398 Y391.844
N2852 X107.436 Y391.822
N2853 X108.473 Y391.816
N2854 X109.511 Y391.825
N2855 X110.549 Y391.851
N2856 X111.585 Y391.892
N2857 X112.622 Y391.948
N2858 X113.657 Y392.021
N2859 X114.691 Y392.109
N2860 X115.723 Y392.213
N2861 X116.754 Y392.332
N2862 X117.783 Y392.467
N2863 X118.81 Y392.618
N2864 X119.834 Y392.784
N2865 X120.856 Y392.966
N2866 X121.875 Y393.163
N2867 X122.891 Y393.376
N2868 X123.903 Y393.604
N2869 X124.912 Y393.847
N2870 X125.917 Y394.106
N2871 X126.918 Y394.379
N2872 X127.915 Y394.668
N2873 X128.907 Y394.972
N2874 X129.894 Y395.291
N2875 X130.877 Y395.625
N2876 X131.854 Y395.974
N2877 X132.826 Y396.337
N2878 X133.793 Y396.715
N2879 X134.753 Y397.108
N2880 X135.708 Y397.516
N2881 X136.656 Y397.937
N2882 X137.598 Y398.373
N2883 X138.533 Y398.824
N2884 X139.461 Y399.288
N2885 X140.382 Y399.767
N2886 X141.295 Y400.259
N2887 X142.201 Y400.765
N2888 X143.099 Y401.285
N2889 X143.989 Y401.818
N2890 X144.871 Y402.365
N2891 X145.745 Y402.925
N2892 X146.61 Y403.498
N2893 X147.466 Y404.085
N2894 X148.314 Y404.684
N2895 X149.152 Y405.296
N2896 X149.98 Y405.921
N2897 X150.8 Y406.558
N2898 X151.609 Y407.207
N2899 X151.075 Y407.313
N2900 X144.474 Y408.382
N2901 X137.726 Y409.255
N2902 X130.9 Y409.933
N2903 X124.058 Y410.419
N2904 X117.267 Y410.715
N2905 X110.592 Y410.824
N2906 X104.101 Y410.751
N2907 X97.871 Y410.501
N2908 X97.169 Y410.452
N2909 G0 Z35

(2D Pocket2)
N2910 X99.369 Y22.168
N2911 Z35
N2912 Z25
N2913 G1 Z21.5 F2500
N2914 X99.563 Y22.221 Z21.472 F2000
N2915 X99.752 Y22.29 Z21.443
N2916 X99.935 Y22.373 Z21.415
N2917 X100.111 Y22.471 Z21.387
N2918 X100.279 Y22.582 Z21.358
N2919 X100.438 Y22.706 Z21.33
N2920 X100.586 Y22.843 Z21.302
N2921 X100.722 Y22.99 Z21.274
N2922 X100.847 Y23.149 Z21.245
N2923 X100.959 Y23.316 Z21.217
N2924 X101.057 Y23.492 Z21.189
N2925 X101.14 Y23.675 Z21.16
N2926 X101.209 Y23.864 Z21.132
N2927 X101.263 Y24.058 Z21.104
N2928 X101.301 Y24.256 Z21.075
N2929 X101.324 Y24.456 Z21.047
N2930 X101.33 Y24.657 Z21.019
N2931 X101.32 Y24.858 Z20.991
N2932 X101.295 Y25.058 Z20.962
N2933 X101.254 Y25.255 Z20.934
N2934 X101.197 Y25.448 Z20.906
N2935 X101.125 Y25.636 Z20.877
N2936 X101.038 Y25.818 Z20.849
N2937 X100.937 Y25.992 Z20.821
N2938 X100.823 Y26.158 Z20.792
N2939 X100.696 Y26.314 Z20.764
N2940 X100.557 Y26.46 Z20.736
N2941 X100.407 Y26.594 Z20.708
N2942 X100.247 Y26.716 Z20.679
N2943 X100.077 Y26.824 Z20.651
N2944 X99.899 Y26.919 Z20.623
N2945 X99.715 Y26.999 Z20.594
N2946 X99.525 Y27.065 Z20.566
N2947 X99.33 Y27.115 Z20.538
N2948 X99.131 Y27.15 Z20.509
N2949 X98.931 Y27.169 Z20.481
N2950 X98.73 Y27.172 Z20.453
N2951 X98.529 Y27.158 Z20.425
N2952 X98.329 Y27.129 Z20.396
N2953 X98.133 Y27.085 Z20.368
N2954 X97.941 Y27.024 Z20.34
N2955 X97.754 Y26.949 Z20.311
N2956 X97.574 Y26.859 Z20.283
N2957 X97.402 Y26.755 Z20.255
N2958 X97.238 Y26.638 Z20.226
N2959 X97.084 Y26.508 Z20.198
N2960 X96.941 Y26.367 Z20.17
N2961 X96.81 Y26.214 Z20.142
N2962 X96.691 Y26.052 Z20.113
N2963 X96.585 Y25.88 Z20.085
N2964 X96.493 Y25.701 Z20.057
N2965 X96.416 Y25.515 Z20.028
N2966 X96.354 Y25.324 Z20
N2967 X96.307 Y25.128 Z19.972
N2968 X96.276 Y24.929 Z19.943
N2969 X96.261 Y24.728 Z19.915
N2970 X96.262 Y24.527 Z19.887
N2971 X96.279 Y24.326 Z19.858
N2972 X96.311 Y24.127 Z19.83
N2973 X96.359 Y23.932 Z19.802
N2974 X96.423 Y23.741 Z19.774
N2975 X96.502 Y23.556 Z19.745
N2976 X96.595 Y23.377 Z19.717
N2977 X96.702 Y23.207 Z19.689
N2978 X96.822 Y23.045 Z19.66
N2979 X96.954 Y22.893 Z19.632
N2980 X97.098 Y22.753 Z19.604
N2981 X97.253 Y22.624 Z19.575
N2982 X97.418 Y22.508 Z19.547
N2983 X97.591 Y22.406 Z19.519
N2984 X97.772 Y22.317 Z19.491
N2985 X97.959 Y22.243 Z19.462
N2986 X98.152 Y22.185 Z19.434
N2987 X98.348 Y22.141 Z19.406
N2988 X98.548 Y22.114 Z19.377
N2989 X98.749 Y22.102 Z19.349
N2990 X98.95 Y22.107 Z19.321
N2991 X99.15 Y22.127 Z19.292
N2992 X99.348 Y22.163 Z19.264
N2993 X99.543 Y22.215 Z19.236
N2994 X99.733 Y22.282 Z19.208
N2995 X99.917 Y22.364 Z19.179
N2996 X100.094 Y22.46 Z19.151
N2997 X100.262 Y22.57 Z19.123
N2998 X100.422 Y22.693 Z19.094
N2999 X100.571 Y22.828 Z19.066
N3000 X100.709 Y22.975 Z19.038
N3001 X100.835 Y23.132 Z19.009
N3002 X100.948 Y23.298 Z18.981
N3003 X101.047 Y23.473 Z18.953
N3004 X101.132 Y23.656 Z18.925
N3005 X101.203 Y23.844 Z18.896
N3006 X101.258 Y24.038 Z18.868
N3007 X101.298 Y24.235 Z18.84
N3008 X101.322 Y24.435 Z18.811
N3009 X101.33 Y24.636 Z18.783
N3010 X101.322 Y24.838 Z18.755
N3011 X101.298 Y25.037 Z18.726
N3012 X101.259 Y25.235 Z18.698
N3013 X101.203 Y25.428 Z18.67
N3014 X101.133 Y25.617 Z18.642
N3015 X101.048 Y25.8 Z18.613
N3016 X100.948 Y25.975 Z18.585
N3017 X100.836 Y26.141 Z18.557
N3018 X100.71 Y26.298 Z18.528
N3019 X100.572 Y26.445 Z18.5
N3020 X100.423 Y26.581 Z18.472
N3021 X100.263 Y26.704 Z18.443
N3022 X100.095 Y26.814 Z18.415
N3023 X99.918 Y26.91 Z18.387
N3024 X99.734 Y26.992 Z18.358
N3025 X99.544 Y27.059 Z18.33
N3026 X99.35 Y27.111 Z18.302
N3027 X99.152 Y27.147 Z18.274
N3028 X98.952 Y27.168 Z18.245
N3029 X98.75 Y27.172 Z18.217
N3030 X98.549 Y27.16 Z18.189
N3031 X98.35 Y27.133 Z18.16
N3032 X98.153 Y27.09 Z18.132
N3033 X97.961 Y27.031 Z18.104
N3034 X97.773 Y26.957 Z18.075
N3035 X97.592 Y26.869 Z18.047
N3036 X97.419 Y26.767 Z18.019
N3037 X97.254 Y26.651 Z17.991
N3038 X97.099 Y26.522 Z17.962
N3039 X96.955 Y26.382 Z17.934
N3040 X96.823 Y26.23 Z17.906
N3041 X96.702 Y26.069 Z17.877
N3042 X96.595 Y25.898 Z17.849
N3043 X96.502 Y25.72 Z17.821
N3044 X96.424 Y25.535 Z17.792
N3045 X96.36 Y25.344 Z17.764
N3046 X96.311 Y25.148 Z17.736
N3047 X96.279 Y24.949 Z17.708
N3048 X96.262 Y24.749 Z17.679
N3049 X96.261 Y24.548 Z17.651
N3050 X96.276 Y24.347 Z17.623
N3051 X96.307 Y24.148 Z17.594
N3052 X96.354 Y23.952 Z17.566
N3053 X96.416 Y23.76 Z17.538
N3054 X96.493 Y23.574 Z17.509
N3055 X96.584 Y23.395 Z17.481
N3056 X96.69 Y23.224 Z17.453
N3057 X96.809 Y23.061 Z17.425
N3058 X96.94 Y22.909 Z17.396
N3059 X97.083 Y22.767 Z17.368
N3060 X97.237 Y22.637 Z17.34
N3061 X97.4 Y22.52 Z17.311
N3062 X97.573 Y22.416 Z17.283
N3063 X97.753 Y22.326 Z17.255
N3064 X97.94 Y22.25 Z17.226
N3065 X98.132 Y22.19 Z17.198
N3066 X98.328 Y22.145 Z17.17
N3067 X98.527 Y22.116 Z17.142
N3068 X98.728 Y22.103 Z17.113
N3069 X98.929 Y22.105 Z17.085
N3070 X99.13 Y22.124 Z17.057
N3071 X99.328 Y22.159 Z17.028
N3072 X99.523 Y22.209 Z17
N3073 X99.659 Y22.258
N3074 X99.789 Y22.321
N3075 X99.911 Y22.398
N3076 X100.024 Y22.488
N3077 X100.126 Y22.589
N3078 X100.218 Y22.701
N3079 X100.296 Y22.822
N3080 X100.361 Y22.951
N3081 X100.412 Y23.086
N3082 X100.447 Y23.226
N3083 X100.468 Y23.369
N3084 X100.473 Y23.513
N3085 X100.462 Y23.657
N3086 X100.436 Y23.799
N3087 X100.394 Y23.937
N3088 X100.338 Y24.07
N3089 X100.268 Y24.196
N3090 X100.184 Y24.314
N3091 X100.089 Y24.422
N3092 X99.982 Y24.519
N3093 X99.865 Y24.604
N3094 X99.74 Y24.675
N3095 X99.608 Y24.733
N3096 X99.47 Y24.777
N3097 X99.329 Y24.805
N3098 X99.185 Y24.817
N3099 X99.04 Y24.814
N3100 X98.897 Y24.796
N3101 X98.757 Y24.762
N3102 X98.721 Y24.744 F2500
N3103 X98.691 Y24.716
N3104 X98.672 Y24.681
N3105 X98.664 Y24.641
N3106 X98.669 Y24.601
N3107 X98.687 Y24.564
N3108 X98.714 Y24.533
N3109 X98.75 Y24.513
N3110 X98.791 Y24.505
N3111 X98.832 Y24.51
N3112 X98.869 Y24.528
N3113 X98.899 Y24.556
N3114 X98.918 Y24.593
N3115 X98.925 Y24.634
N3116 X98.92 Y24.674
N3117 X98.902 Y24.711
N3118 X98.874 Y24.741
N3119 X98.838 Y24.76
N3120 X98.798 Y24.767
N3121 X98.757 Y24.762
N3122 X98.591 Y24.719
N3123 X98.422 Y24.69
N3124 X98.251 Y24.676
N3125 X98.079 Y24.677
N3126 X97.908 Y24.691
N3127 X97.739 Y24.721
N3128 X97.573 Y24.764
N3129 X97.411 Y24.821
N3130 X97.255 Y24.892
N3131 X97.105 Y24.975
N3132 X96.963 Y25.072
N3133 X96.829 Y25.179
N3134 X96.705 Y25.298
N3135 X96.592 Y25.426
N3136 X96.489 Y25.564
N3137 X96.399 Y25.71
N3138 X96.266 Y25.931
N3139 X96.121 Y26.144
N3140 X95.965 Y26.348
N3141 X95.796 Y26.543
N3142 X95.617 Y26.729
N3143 X95.427 Y26.903
N3144 X95.228 Y27.066
N3145 X95.02 Y27.218
N3146 X94.803 Y27.358
N3147 X94.579 Y27.485
N3148 X94.406 Y27.584
N3149 X94.24 Y27.694
N3150 X94.082 Y27.815
N3151 X93.932 Y27.946
N3152 X93.792 Y28.087
N3153 X93.47 Y28.43
N3154 X93.364 Y28.549
N3155 X93.264 Y28.675
N3156 X93.172 Y28.805
N3157 X87.481 Y37.263
N3158 X87.335 Y37.429
N3159 X87.303 Y37.452
N3160 X87.278 Y37.451
N3161 X87.256 Y37.443
N3162 X87.228 Y37.423
N3163 X87.087 Y37.262
N3164 X81.397 Y28.805
N3165 X81.304 Y28.675
N3166 X81.204 Y28.549
N3167 X81.098 Y28.43
N3168 X80.777 Y28.087
N3169 X80.632 Y27.942
N3170 X80.478 Y27.808
N3171 X80.315 Y27.685
N3172 X80.144 Y27.573
N3173 X79.966 Y27.473
N3174 X79.583 Y27.274
N3175 X79.407 Y27.19
N3176 X79.226 Y27.118
N3177 X79.042 Y27.057
N3178 X78.853 Y27.009
N3179 X78.662 Y26.973
N3180 X78.249 Y26.909
N3181 X78.07 Y26.887
N3182 X77.89 Y26.876
N3183 X77.71 Y26.875
N3184 X77.53 Y26.885
N3185 X77.351 Y26.906
N3186 X76.94 Y26.967
N3187 X76.727 Y27.006
N3188 X76.517 Y27.061
N3189 X76.311 Y27.131
N3190 X76.111 Y27.216
N3191 X75.735 Y27.391
N3192 X75.574 Y27.472
N3193 X75.418 Y27.563
N3194 X75.268 Y27.662
N3195 X75.124 Y27.771
N3196 X74.987 Y27.888
N3197 X74.678 Y28.168
N3198 X74.538 Y28.304
N3199 X74.407 Y28.448
N3200 X74.286 Y28.601
N3201 X74.174 Y28.761
N3202 X74.074 Y28.929
N3203 X73.865 Y29.303
N3204 X73.771 Y29.486
N3205 X73.69 Y29.675
N3206 X73.622 Y29.87
N3207 X73.567 Y30.068
N3208 X73.526 Y30.27
N3209 X73.449 Y30.729
N3210 X73.426 Y30.893
N3211 X73.413 Y31.059
N3212 X73.408 Y31.224
N3213 Y34.694
N3214 X73.389 Y34.891
N3215 X73.38 Y34.918
N3216 X73.371 Y34.936
N3217 X73.36 Y34.949
N3218 X73.351 Y34.957
N3219 X73.323 Y34.963
N3220 X73.306 Y34.962
N3221 X73.286 Y34.949
N3222 X73.276 Y34.936
N3223 X73.266 Y34.918
N3224 X73.258 Y34.891
N3225 X73.239 Y34.694
N3226 Y16.954
N3227 X73.279 Y16.709
N3228 X73.286 Y16.696
N3229 X73.462 Y16.869
N3230 X82.96 Y30.984
N3231 X83.083 Y31.154
N3232 X83.217 Y31.314
N3233 X83.577 Y31.715
N3234 X83.706 Y31.85
N3235 X83.843 Y31.976
N3236 X83.987 Y32.094
N3237 X84.139 Y32.203
N3238 X84.566 Y32.489
N3239 X84.72 Y32.586
N3240 X84.879 Y32.672
N3241 X85.043 Y32.75
N3242 X85.211 Y32.817
N3243 X85.683 Y32.989
N3244 X85.85 Y33.044
N3245 X86.019 Y33.089
N3246 X86.191 Y33.124
N3247 X86.364 Y33.15
N3248 X86.859 Y33.207
N3249 X87.031 Y33.222
N3250 X87.204 Y33.227
N3251 X87.377 Y33.222
N3252 X87.55 Y33.207
N3253 X88.045 Y33.15
N3254 X88.218 Y33.124
N3255 X88.39 Y33.089
N3256 X88.559 Y33.044
N3257 X88.726 Y32.989
N3258 X89.198 Y32.817
N3259 X89.366 Y32.75
N3260 X89.53 Y32.673
N3261 X89.689 Y32.586
N3262 X89.842 Y32.489
N3263 X90.27 Y32.203
N3264 X90.422 Y32.094
N3265 X90.566 Y31.976
N3266 X90.703 Y31.85
N3267 X90.832 Y31.715
N3268 X91.192 Y31.314
N3269 X91.324 Y31.156
N3270 X91.446 Y30.989
N3271 X100.964 Y16.895
N3272 X101.101 Y16.739
N3273 X101.111 Y16.744
N3274 X101.184 Y16.813
N3275 X101.28 Y16.971
N3276 X101.33 Y17.141
N3277 Y47.457
N3278 X101.311 Y47.655
N3279 X101.302 Y47.682
N3280 X101.292 Y47.701
N3281 X101.281 Y47.714
N3282 X101.273 Y47.721
N3283 X101.245 Y47.728
N3284 X101.228 Y47.726
N3285 X101.208 Y47.713
N3286 X101.198 Y47.7
N3287 X101.188 Y47.682
N3288 X101.18 Y47.655
N3289 X101.16 Y47.458
N3290 Y31.224
N3291 X101.156 Y31.059
N3292 X101.142 Y30.893
N3293 X101.119 Y30.729
N3294 X101.042 Y30.27
N3295 X101.001 Y30.068
N3296 X100.947 Y29.87
N3297 X100.879 Y29.675
N3298 X100.798 Y29.486
N3299 X100.703 Y29.303
N3300 X100.494 Y28.929
N3301 X100.394 Y28.761
N3302 X100.283 Y28.601
N3303 X100.162 Y28.448
N3304 X100.031 Y28.304
N3305 X99.89 Y28.168
N3306 X99.582 Y27.888
N3307 X99.445 Y27.771
N3308 X99.301 Y27.662
N3309 X99.15 Y27.563
N3310 X98.995 Y27.472
N3311 X98.833 Y27.391
N3312 X98.457 Y27.216
N3313 X98.257 Y27.131
N3314 X98.052 Y27.061
N3315 X97.842 Y27.006
N3316 X97.628 Y26.967
N3317 X97.217 Y26.906
N3318 X97.038 Y26.885
N3319 X96.858 Y26.875
N3320 X96.678 Y26.876
N3321 X96.499 Y26.887
N3322 X96.32 Y26.909
N3323 X95.906 Y26.973
N3324 X95.715 Y27.009
N3325 X95.527 Y27.057
N3326 X95.342 Y27.118
N3327 X95.161 Y27.19
N3328 X94.986 Y27.274
N3329 X94.602 Y27.473
N3330 X94.579 Y27.485
N3331 X94.529 Y27.503
N3332 X94.477 Y27.508
N3333 X94.424 Y27.498
N3334 X94.376 Y27.475
N3335 X94.336 Y27.441
N3336 X94.306 Y27.396
N3337 X94.289 Y27.346
N3338 X94.286 Y27.293
N3339 X94.297 Y27.241
N3340 X94.321 Y27.194
N3341 X94.357 Y27.155
N3342 X96.29 Y25.531
N3343 X96.322 Y25.498
N3344 X96.345 Y25.458
N3345 X96.358 Y25.414
N3346 X96.361 Y25.369
N3347 X96.354 Y25.324
N3348 X96.307 Y25.128 Z16.972 F2000
N3349 X96.276 Y24.929 Z16.943
N3350 X96.261 Y24.728 Z16.915
N3351 X96.262 Y24.527 Z16.887
N3352 X96.279 Y24.326 Z16.858
N3353 X96.311 Y24.127 Z16.83
N3354 X96.359 Y23.932 Z16.802
N3355 X96.423 Y23.741 Z16.774
N3356 X96.502 Y23.556 Z16.745
N3357 X96.595 Y23.377 Z16.717
N3358 X96.702 Y23.207 Z16.689
N3359 X96.822 Y23.045 Z16.66
N3360 X96.954 Y22.893 Z16.632
N3361 X97.098 Y22.753 Z16.604
N3362 X97.253 Y22.624 Z16.575
N3363 X97.418 Y22.508 Z16.547
N3364 X97.591 Y22.406 Z16.519
N3365 X97.772 Y22.317 Z16.491
N3366 X97.959 Y22.243 Z16.462
N3367 X98.152 Y22.185 Z16.434
N3368 X98.348 Y22.141 Z16.406
N3369 X98.548 Y22.114 Z16.377
N3370 X98.749 Y22.102 Z16.349
N3371 X98.95 Y22.107 Z16.321
N3372 X99.15 Y22.127 Z16.292
N3373 X99.348 Y22.163 Z16.264
N3374 X99.543 Y22.215 Z16.236
N3375 X99.733 Y22.282 Z16.208
N3376 X99.917 Y22.364 Z16.179
N3377 X100.094 Y22.46 Z16.151
N3378 X100.262 Y22.57 Z16.123
N3379 X100.422 Y22.693 Z16.094
N3380 X100.571 Y22.828 Z16.066
N3381 X100.709 Y22.975 Z16.038
N3382 X100.835 Y23.132 Z16.009
N3383 X100.948 Y23.298 Z15.981
N3384 X101.047 Y23.473 Z15.953
N3385 X101.132 Y23.656 Z15.925
N3386 X101.203 Y23.844 Z15.896
N3387 X101.258 Y24.038 Z15.868
N3388 X101.298 Y24.235 Z15.84
N3389 X101.322 Y24.435 Z15.811
N3390 X101.33 Y24.636 Z15.783
N3391 X101.322 Y24.838 Z15.755
N3392 X101.298 Y25.037 Z15.726
N3393 X101.259 Y25.235 Z15.698
N3394 X101.203 Y25.428 Z15.67
N3395 X101.133 Y25.617 Z15.642
N3396 X101.048 Y25.8 Z15.613
N3397 X100.948 Y25.975 Z15.585
N3398 X100.836 Y26.141 Z15.557
N3399 X100.71 Y26.298 Z15.528
N3400 X100.572 Y26.445 Z15.5
N3401 X100.423 Y26.581 Z15.472
N3402 X100.263 Y26.704 Z15.443
N3403 X100.095 Y26.814 Z15.415
N3404 X99.918 Y26.91 Z15.387
N3405 X99.734 Y26.992 Z15.358
N3406 X99.544 Y27.059 Z15.33
N3407 X99.35 Y27.111 Z15.302
N3408 X99.152 Y27.147 Z15.274
N3409 X98.952 Y27.168 Z15.245
N3410 X98.75 Y27.172 Z15.217
N3411 X98.549 Y27.16 Z15.189
N3412 X98.35 Y27.133 Z15.16
N3413 X98.153 Y27.09 Z15.132
N3414 X97.961 Y27.031 Z15.104
N3415 X97.773 Y26.957 Z15.075
N3416 X97.592 Y26.869 Z15.047
N3417 X97.419 Y26.767 Z15.019
N3418 X97.254 Y26.651 Z14.991
N3419 X97.099 Y26.522 Z14.962
N3420 X96.955 Y26.382 Z14.934
N3421 X96.823 Y26.23 Z14.906
N3422 X96.702 Y26.069 Z14.877
N3423 X96.595 Y25.898 Z14.849
N3424 X96.502 Y25.72 Z14.821
N3425 X96.424 Y25.535 Z14.792
N3426 X96.36 Y25.344 Z14.764
N3427 X96.311 Y25.148 Z14.736
N3428 X96.279 Y24.949 Z14.708
N3429 X96.262 Y24.749 Z14.679
N3430 X96.261 Y24.548 Z14.651
N3431 X96.276 Y24.347 Z14.623
N3432 X96.307 Y24.148 Z14.594
N3433 X96.354 Y23.952 Z14.566
N3434 X96.416 Y23.76 Z14.538
N3435 X96.493 Y23.574 Z14.509
N3436 X96.584 Y23.395 Z14.481
N3437 X96.69 Y23.224 Z14.453
N3438 X96.809 Y23.061 Z14.425
N3439 X96.94 Y22.909 Z14.396
N3440 X97.083 Y22.767 Z14.368
N3441 X97.237 Y22.637 Z14.34
N3442 X97.4 Y22.52 Z14.311
N3443 X97.573 Y22.416 Z14.283
N3444 X97.753 Y22.326 Z14.255
N3445 X97.94 Y22.25 Z14.226
N3446 X98.132 Y22.19 Z14.198
N3447 X98.328 Y22.145 Z14.17
N3448 X98.527 Y22.116 Z14.142
N3449 X98.728 Y22.103 Z14.113
N3450 X98.929 Y22.105 Z14.085
N3451 X99.13 Y22.124 Z14.057
N3452 X99.328 Y22.159 Z14.028
N3453 X99.523 Y22.209 Z14
N3454 X99.659 Y22.258
N3455 X99.789 Y22.321
N3456 X99.911 Y22.398
N3457 X100.024 Y22.488
N3458 X100.126 Y22.589
N3459 X100.218 Y22.701
N3460 X100.296 Y22.822
N3461 X100.361 Y22.951
N3462 X100.412 Y23.086
N3463 X100.447 Y23.226
N3464 X100.468 Y23.369
N3465 X100.473 Y23.513
N3466 X100.462 Y23.657
N3467 X100.436 Y23.799
N3468 X100.394 Y23.937
N3469 X100.338 Y24.07
N3470 X100.268 Y24.196
N3471 X100.184 Y24.314
N3472 X100.089 Y24.422
N3473 X99.982 Y24.519
N3474 X99.865 Y24.604
N3475 X99.74 Y24.675
N3476 X99.608 Y24.733
N3477 X99.47 Y24.777
N3478 X99.329 Y24.805
N3479 X99.185 Y24.817
N3480 X99.04 Y24.814
N3481 X98.897 Y24.796
N3482 X98.757 Y24.762
N3483 X98.721 Y24.744 F2500
N3484 X98.691 Y24.716
N3485 X98.672 Y24.681
N3486 X98.664 Y24.641
N3487 X98.669 Y24.601
N3488 X98.687 Y24.564
N3489 X98.714 Y24.533
N3490 X98.75 Y24.513
N3491 X98.791 Y24.505
N3492 X98.832 Y24.51
N3493 X98.869 Y24.528
N3494 X98.899 Y24.556
N3495 X98.918 Y24.593
N3496 X98.925 Y24.634
N3497 X98.92 Y24.674
N3498 X98.902 Y24.711
N3499 X98.874 Y24.741
N3500 X98.838 Y24.76
N3501 X98.798 Y24.767
N3502 X98.757 Y24.762
N3503 X98.591 Y24.719
N3504 X98.422 Y24.69
N3505 X98.251 Y24.676
N3506 X98.079 Y24.677
N3507 X97.908 Y24.691
N3508 X97.739 Y24.721
N3509 X97.573 Y24.764
N3510 X97.411 Y24.821
N3511 X97.255 Y24.892
N3512 X97.105 Y24.975
N3513 X96.963 Y25.072
N3514 X96.829 Y25.179
N3515 X96.705 Y25.298
N3516 X96.592 Y25.426
N3517 X96.489 Y25.564
N3518 X96.399 Y25.71
N3519 X96.266 Y25.931
N3520 X96.121 Y26.144
N3521 X95.965 Y26.348
N3522 X95.796 Y26.543
N3523 X95.617 Y26.729
N3524 X95.427 Y26.903
N3525 X95.228 Y27.066
N3526 X95.02 Y27.218
N3527 X94.803 Y27.358
N3528 X94.579 Y27.485
N3529 X94.406 Y27.584
N3530 X94.24 Y27.694
N3531 X94.082 Y27.815
N3532 X93.932 Y27.946
N3533 X93.792 Y28.087
N3534 X93.47 Y28.43
N3535 X93.364 Y28.549
N3536 X93.264 Y28.675
N3537 X93.172 Y28.805
N3538 X87.481 Y37.263
N3539 X87.335 Y37.429
N3540 X87.303 Y37.452
N3541 X87.278 Y37.451
N3542 X87.256 Y37.443
N3543 X87.228 Y37.423
N3544 X87.087 Y37.262
N3545 X81.397 Y28.805
N3546 X81.304 Y28.675
N3547 X81.204 Y28.549
N3548 X81.098 Y28.43
N3549 X80.777 Y28.087
N3550 X80.632 Y27.942
N3551 X80.478 Y27.808
N3552 X80.315 Y27.685
N3553 X80.144 Y27.573
N3554 X79.966 Y27.473
N3555 X79.583 Y27.274
N3556 X79.407 Y27.19
N3557 X79.226 Y27.118
N3558 X79.042 Y27.057
N3559 X78.853 Y27.009
N3560 X78.662 Y26.973
N3561 X78.249 Y26.909
N3562 X78.07 Y26.887
N3563 X77.89 Y26.876
N3564 X77.71 Y26.875
N3565 X77.53 Y26.885
N3566 X77.351 Y26.906
N3567 X76.94 Y26.967
N3568 X76.727 Y27.006
N3569 X76.517 Y27.061
N3570 X76.311 Y27.131
N3571 X76.111 Y27.216
N3572 X75.735 Y27.391
N3573 X75.574 Y27.472
N3574 X75.418 Y27.563
N3575 X75.268 Y27.662
N3576 X75.124 Y27.771
N3577 X74.987 Y27.888
N3578 X74.678 Y28.168
N3579 X74.538 Y28.304
N3580 X74.407 Y28.448
N3581 X74.286 Y28.601
N3582 X74.174 Y28.761
N3583 X74.074 Y28.929
N3584 X73.865 Y29.303
N3585 X73.771 Y29.486
N3586 X73.69 Y29.675
N3587 X73.622 Y29.87
N3588 X73.567 Y30.068
N3589 X73.526 Y30.27
N3590 X73.449 Y30.729
N3591 X73.426 Y30.893
N3592 X73.413 Y31.059
N3593 X73.408 Y31.224
N3594 Y34.694
N3595 X73.389 Y34.891
N3596 X73.38 Y34.918
N3597 X73.371 Y34.936
N3598 X73.36 Y34.949
N3599 X73.351 Y34.957
N3600 X73.323 Y34.963
N3601 X73.306 Y34.962
N3602 X73.286 Y34.949
N3603 X73.276 Y34.936
N3604 X73.266 Y34.918
N3605 X73.258 Y34.891
N3606 X73.239 Y34.694
N3607 Y16.954
N3608 X73.279 Y16.709
N3609 X73.286 Y16.696
N3610 X73.462 Y16.869
N3611 X82.96 Y30.984
N3612 X83.083 Y31.154
N3613 X83.217 Y31.314
N3614 X83.577 Y31.715
N3615 X83.706 Y31.85
N3616 X83.843 Y31.976
N3617 X83.987 Y32.094
N3618 X84.139 Y32.203
N3619 X84.566 Y32.489
N3620 X84.72 Y32.586
N3621 X84.879 Y32.672
N3622 X85.043 Y32.75
N3623 X85.211 Y32.817
N3624 X85.683 Y32.989
N3625 X85.85 Y33.044
N3626 X86.019 Y33.089
N3627 X86.191 Y33.124
N3628 X86.364 Y33.15
N3629 X86.859 Y33.207
N3630 X87.031 Y33.222
N3631 X87.204 Y33.227
N3632 X87.377 Y33.222
N3633 X87.55 Y33.207
N3634 X88.045 Y33.15
N3635 X88.218 Y33.124
N3636 X88.39 Y33.089
N3637 X88.559 Y33.044
N3638 X88.726 Y32.989
N3639 X89.198 Y32.817
N3640 X89.366 Y32.75
N3641 X89.53 Y32.673
N3642 X89.689 Y32.586
N3643 X89.842 Y32.489
N3644 X90.27 Y32.203
N3645 X90.422 Y32.094
N3646 X90.566 Y31.976
N3647 X90.703 Y31.85
N3648 X90.832 Y31.715
N3649 X91.192 Y31.314
N3650 X91.324 Y31.156
N3651 X91.446 Y30.989
N3652 X100.964 Y16.895
N3653 X101.101 Y16.739
N3654 X101.111 Y16.744
N3655 X101.184 Y16.813
N3656 X101.28 Y16.971
N3657 X101.33 Y17.141
N3658 Y47.457
N3659 X101.311 Y47.655
N3660 X101.302 Y47.682
N3661 X101.292 Y47.701
N3662 X101.281 Y47.714
N3663 X101.273 Y47.721
N3664 X101.245 Y47.728
N3665 X101.228 Y47.726
N3666 X101.208 Y47.713
N3667 X101.198 Y47.7
N3668 X101.188 Y47.682
N3669 X101.18 Y47.655
N3670 X101.16 Y47.458
N3671 Y31.224
N3672 X101.156 Y31.059
N3673 X101.142 Y30.893
N3674 X101.119 Y30.729
N3675 X101.042 Y30.27
N3676 X101.001 Y30.068
N3677 X100.947 Y29.87
N3678 X100.879 Y29.675
N3679 X100.798 Y29.486
N3680 X100.703 Y29.303
N3681 X100.494 Y28.929
N3682 X100.394 Y28.761
N3683 X100.283 Y28.601
N3684 X100.162 Y28.448
N3685 X100.031 Y28.304
N3686 X99.89 Y28.168
N3687 X99.582 Y27.888
N3688 X99.445 Y27.771
N3689 X99.301 Y27.662
N3690 X99.15 Y27.563
N3691 X98.995 Y27.472
N3692 X98.833 Y27.391
N3693 X98.457 Y27.216
N3694 X98.257 Y27.131
N3695 X98.052 Y27.061
N3696 X97.842 Y27.006
N3697 X97.628 Y26.967
N3698 X97.217 Y26.906
N3699 X97.038 Y26.885
N3700 X96.858 Y26.875
N3701 X96.678 Y26.876
N3702 X96.499 Y26.887
N3703 X96.32 Y26.909
N3704 X95.906 Y26.973
N3705 X95.715 Y27.009
N3706 X95.527 Y27.057
N3707 X95.342 Y27.118
N3708 X95.161 Y27.19
N3709 X94.986 Y27.274
N3710 X94.602 Y27.473
N3711 X94.579 Y27.485
N3712 X94.529 Y27.503
N3713 X94.477 Y27.508
N3714 X94.424 Y27.498
N3715 X94.376 Y27.475
N3716 X94.336 Y27.441
N3717 X94.306 Y27.396
N3718 X94.289 Y27.346
N3719 X94.286 Y27.293
N3720 X94.297 Y27.241
N3721 X94.321 Y27.194
N3722 X94.357 Y27.155
N3723 X96.29 Y25.531
N3724 X96.322 Y25.498
N3725 X96.345 Y25.458
N3726 X96.358 Y25.414
N3727 X96.361 Y25.369
N3728 X96.354 Y25.324
N3729 X96.307 Y25.128 Z13.972 F2000
N3730 X96.276 Y24.929 Z13.943
N3731 X96.261 Y24.728 Z13.915
N3732 X96.262 Y24.527 Z13.887
N3733 X96.279 Y24.326 Z13.858
N3734 X96.311 Y24.127 Z13.83
N3735 X96.359 Y23.932 Z13.802
N3736 X96.423 Y23.741 Z13.774
N3737 X96.502 Y23.556 Z13.745
N3738 X96.595 Y23.377 Z13.717
N3739 X96.702 Y23.207 Z13.689
N3740 X96.822 Y23.045 Z13.66
N3741 X96.954 Y22.893 Z13.632
N3742 X97.098 Y22.753 Z13.604
N3743 X97.253 Y22.624 Z13.575
N3744 X97.418 Y22.508 Z13.547
N3745 X97.591 Y22.406 Z13.519
N3746 X97.772 Y22.317 Z13.491
N3747 X97.959 Y22.243 Z13.462
N3748 X98.152 Y22.185 Z13.434
N3749 X98.348 Y22.141 Z13.406
N3750 X98.548 Y22.114 Z13.377
N3751 X98.749 Y22.102 Z13.349
N3752 X98.95 Y22.107 Z13.321
N3753 X99.15 Y22.127 Z13.292
N3754 X99.348 Y22.163 Z13.264
N3755 X99.543 Y22.215 Z13.236
N3756 X99.733 Y22.282 Z13.208
N3757 X99.917 Y22.364 Z13.179
N3758 X100.094 Y22.46 Z13.151
N3759 X100.262 Y22.57 Z13.123
N3760 X100.422 Y22.693 Z13.094
N3761 X100.571 Y22.828 Z13.066
N3762 X100.709 Y22.975 Z13.038
N3763 X100.835 Y23.132 Z13.009
N3764 X100.948 Y23.298 Z12.981
N3765 X101.047 Y23.473 Z12.953
N3766 X101.132 Y23.656 Z12.925
N3767 X101.203 Y23.844 Z12.896
N3768 X101.258 Y24.038 Z12.868
N3769 X101.298 Y24.235 Z12.84
N3770 X101.322 Y24.435 Z12.811
N3771 X101.33 Y24.636 Z12.783
N3772 X101.322 Y24.838 Z12.755
N3773 X101.298 Y25.037 Z12.726
N3774 X101.259 Y25.235 Z12.698
N3775 X101.203 Y25.428 Z12.67
N3776 X101.133 Y25.617 Z12.642
N3777 X101.048 Y25.8 Z12.613
N3778 X100.948 Y25.975 Z12.585
N3779 X100.836 Y26.141 Z12.557
N3780 X100.71 Y26.298 Z12.528
N3781 X100.572 Y26.445 Z12.5
N3782 X100.423 Y26.581 Z12.472
N3783 X100.263 Y26.704 Z12.443
N3784 X100.095 Y26.814 Z12.415
N3785 X99.918 Y26.91 Z12.387
N3786 X99.734 Y26.992 Z12.358
N3787 X99.544 Y27.059 Z12.33
N3788 X99.35 Y27.111 Z12.302
N3789 X99.152 Y27.147 Z12.274
N3790 X98.952 Y27.168 Z12.245
N3791 X98.75 Y27.172 Z12.217
N3792 X98.549 Y27.16 Z12.189
N3793 X98.35 Y27.133 Z12.16
N3794 X98.153 Y27.09 Z12.132
N3795 X97.961 Y27.031 Z12.104
N3796 X97.773 Y26.957 Z12.075
N3797 X97.592 Y26.869 Z12.047
N3798 X97.419 Y26.767 Z12.019
N3799 X97.254 Y26.651 Z11.991
N3800 X97.099 Y26.522 Z11.962
N3801 X96.955 Y26.382 Z11.934
N3802 X96.823 Y26.23 Z11.906
N3803 X96.702 Y26.069 Z11.877
N3804 X96.595 Y25.898 Z11.849
N3805 X96.502 Y25.72 Z11.821
N3806 X96.424 Y25.535 Z11.792
N3807 X96.36 Y25.344 Z11.764
N3808 X96.311 Y25.148 Z11.736
N3809 X96.279 Y24.949 Z11.708
N3810 X96.262 Y24.749 Z11.679
N3811 X96.261 Y24.548 Z11.651
N3812 X96.276 Y24.347 Z11.623
N3813 X96.307 Y24.148 Z11.594
N3814 X96.354 Y23.952 Z11.566
N3815 X96.416 Y23.76 Z11.538
N3816 X96.493 Y23.574 Z11.509
N3817 X96.584 Y23.395 Z11.481
N3818 X96.69 Y23.224 Z11.453
N3819 X96.809 Y23.061 Z11.425
N3820 X96.94 Y22.909 Z11.396
N3821 X97.083 Y22.767 Z11.368
N3822 X97.237 Y22.637 Z11.34
N3823 X97.4 Y22.52 Z11.311
N3824 X97.573 Y22.416 Z11.283
N3825 X97.753 Y22.326 Z11.255
N3826 X97.94 Y22.25 Z11.226
N3827 X98.132 Y22.19 Z11.198
N3828 X98.328 Y22.145 Z11.17
N3829 X98.527 Y22.116 Z11.142
N3830 X98.728 Y22.103 Z11.113
N3831 X98.929 Y22.105 Z11.085
N3832 X99.13 Y22.124 Z11.057
N3833 X99.328 Y22.159 Z11.028
N3834 X99.523 Y22.209 Z11
N3835 X99.659 Y22.258
N3836 X99.789 Y22.321
N3837 X99.911 Y22.398
N3838 X100.024 Y22.488
N3839 X100.126 Y22.589
N3840 X100.218 Y22.701
N3841 X100.296 Y22.822
N3842 X100.361 Y22.951
N3843 X100.412 Y23.086
N3844 X100.447 Y23.226
N3845 X100.468 Y23.369
N3846 X100.473 Y23.513
N3847 X100.462 Y23.657
N3848 X100.436 Y23.799
N3849 X100.394 Y23.937
N3850 X100.338 Y24.07
N3851 X100.268 Y24.196
N3852 X100.184 Y24.314
N3853 X100.089 Y24.422
N3854 X99.982 Y24.519
N3855 X99.865 Y24.604
N3856 X99.74 Y24.675
N3857 X99.608 Y24.733
N3858 X99.47 Y24.777
N3859 X99.329 Y24.805
N3860 X99.185 Y24.817
N3861 X99.04 Y24.814
N3862 X98.897 Y24.796
N3863 X98.757 Y24.762
N3864 X98.721 Y24.744 F2500
N3865 X98.691 Y24.716
N3866 X98.672 Y24.681
N3867 X98.664 Y24.641
N3868 X98.669 Y24.601
N3869 X98.687 Y24.564
N3870 X98.714 Y24.533
N3871 X98.75 Y24.513
N3872 X98.791 Y24.505
N3873 X98.832 Y24.51
N3874 X98.869 Y24.528
N3875 X98.899 Y24.556
N3876 X98.918 Y24.593
N3877 X98.925 Y24.634
N3878 X98.92 Y24.674
N3879 X98.902 Y24.711
N3880 X98.874 Y24.741
N3881 X98.838 Y24.76
N3882 X98.798 Y24.767
N3883 X98.757 Y24.762
N3884 X98.591 Y24.719
N3885 X98.422 Y24.69
N3886 X98.251 Y24.676
N3887 X98.079 Y24.677
N3888 X97.908 Y24.691
N3889 X97.739 Y24.721
N3890 X97.573 Y24.764
N3891 X97.411 Y24.821
N3892 X97.255 Y24.892
N3893 X97.105 Y24.975
N3894 X96.963 Y25.072
N3895 X96.829 Y25.179
N3896 X96.705 Y25.298
N3897 X96.592 Y25.426
N3898 X96.489 Y25.564
N3899 X96.399 Y25.71
N3900 X96.266 Y25.931
N3901 X96.121 Y26.144
N3902 X95.965 Y26.348
N3903 X95.796 Y26.543
N3904 X95.617 Y26.729
N3905 X95.427 Y26.903
N3906 X95.228 Y27.066
N3907 X95.02 Y27.218
N3908 X94.803 Y27.358
N3909 X94.579 Y27.485
N3910 X94.406 Y27.584
N3911 X94.24 Y27.694
N3912 X94.082 Y27.815
N3913 X93.932 Y27.946
N3914 X93.792 Y28.087
N3915 X93.47 Y28.43
N3916 X93.364 Y28.549
N3917 X93.264 Y28.675
N3918 X93.172 Y28.805
N3919 X87.481 Y37.263
N3920 X87.335 Y37.429
N3921 X87.303 Y37.452
N3922 X87.278 Y37.451
N3923 X87.256 Y37.443
N3924 X87.228 Y37.423
N3925 X87.087 Y37.262
N3926 X81.397 Y28.805
N3927 X81.304 Y28.675
N3928 X81.204 Y28.549
N3929 X81.098 Y28.43
N3930 X80.777 Y28.087
N3931 X80.632 Y27.942
N3932 X80.478 Y27.808
N3933 X80.315 Y27.685
N3934 X80.144 Y27.573
N3935 X79.966 Y27.473
N3936 X79.583 Y27.274
N3937 X79.407 Y27.19
N3938 X79.226 Y27.118
N3939 X79.042 Y27.057
N3940 X78.853 Y27.009
N3941 X78.662 Y26.973
N3942 X78.249 Y26.909
N3943 X78.07 Y26.887
N3944 X77.89 Y26.876
N3945 X77.71 Y26.875
N3946 X77.53 Y26.885
N3947 X77.351 Y26.906
N3948 X76.94 Y26.967
N3949 X76.727 Y27.006
N3950 X76.517 Y27.061
N3951 X76.311 Y27.131
N3952 X76.111 Y27.216
N3953 X75.735 Y27.391
